; generated by Slic3r 1.2.9 on 2016-06-09 at 21:59:01

; external perimeters extrusion width = 0.40mm
; perimeters extrusion width = 0.48mm
; infill extrusion width = 0.48mm
; solid infill extrusion width = 0.48mm
; top infill extrusion width = 0.48mm
; support material extrusion width = 0.40mm

M107
M190 S55 ; set bed temperature
M104 S200 ; set temperature
G28 ; home all axes
G1 Z5 F5000 ; lift nozzle

M109 S200 ; wait for temperature to be reached
G21 ; set units to millimeters
G90 ; use absolute coordinates
M82 ; use absolute distances for extrusion
G92 E0
G1 Z0.400 F11400.000
G1 E-2.00000 F2400.00000
G92 E0
G1 X46.098 Y38.991 F11400.000
G1 E2.00000 F2400.00000
G1 X48.834 Y37.019 E2.40057 F1800.000
G1 X127.489 Y6.464 E12.42210
G1 X129.920 Y6.008 E12.71588
G1 X145.513 Y6.008 E14.56782
G1 X147.788 Y6.405 E14.84204
G1 X149.794 Y7.549 E15.11627 F1800.000
G1 X151.293 Y9.305 E15.39049
G1 X152.109 Y11.465 E15.66472
G1 X152.228 Y12.722 E15.81468
G1 X152.228 Y27.745 E17.59881
G1 X152.134 Y55.852 E20.93703
G1 X152.115 Y56.344 E20.99545
G1 X143.814 Y164.485 E33.87660
G1 X143.244 Y166.722 E34.15082
G1 X141.950 Y168.634 E34.42505
G1 X140.085 Y169.995 E34.69927
G1 X137.120 Y170.685 E35.06080
G1 X121.527 Y170.685 E36.91274
G1 X120.890 Y170.655 E36.98844
G1 X50.629 Y163.962 E45.37078
G1 X48.402 Y163.351 E45.64501
G1 X46.514 Y162.021 E45.91923
G1 X45.188 Y160.131 E46.19346
G1 X44.551 Y157.286 E46.53972
G1 X44.551 Y43.269 E60.08096
G1 X44.951 Y40.995 E60.35519
G1 X46.068 Y39.043 E60.62228
G1 E58.62228 F2400.00000
G92 E0
G1 X54.342 Y43.678 F11400.000
G1 E2.00000 F2400.00000
G1 X54.342 Y156.878 E15.44422 F1800.000
G1 X51.666 Y156.878 E15.76210
G1 X51.666 Y43.678 E29.20631
G1 X54.282 Y43.678 E29.51707
G1 X53.907 Y44.456 F11400.000
G1 X53.564 Y44.113 E29.57484 F1800.000
G1 X52.551 Y44.113 E29.69550
G1 X53.907 Y45.469 E29.92391
G1 X53.907 Y46.482 E30.04456
G1 X52.101 Y44.677 E30.34870
G1 X52.101 Y45.689 E30.46935
G1 X53.907 Y47.495 E30.77349
G1 X53.907 Y48.508 E30.89414
G1 X52.101 Y46.702 E31.19828
G1 X52.101 Y47.715 E31.31893
G1 X53.907 Y49.521 E31.62307
G1 X53.907 Y50.534 E31.74372
G1 X52.101 Y48.728 E32.04786
G1 X52.101 Y49.741 E32.16851
G1 X53.907 Y51.547 E32.47265
G1 X53.907 Y52.560 E32.59330
G1 X52.101 Y50.754 E32.89744
G1 X52.101 Y51.767 E33.01809
G1 X53.907 Y53.573 E33.32223
G1 X53.907 Y54.585 E33.44288
G1 X52.101 Y52.780 E33.74702
G1 X52.101 Y53.793 E33.86768
G1 X53.907 Y55.598 E34.17181
G1 X53.907 Y56.611 E34.29247
G1 X52.101 Y54.806 E34.59660
G1 X52.101 Y55.819 E34.71726
G1 X53.907 Y57.624 E35.02139
G1 X53.907 Y58.637 E35.14205
G1 X52.101 Y56.832 E35.44618
G1 X52.101 Y57.845 E35.56684
G1 X53.907 Y59.650 E35.87098
G1 X53.907 Y60.663 E35.99163
G1 X52.101 Y58.858 E36.29577
G1 X52.101 Y59.871 E36.41642
G1 X53.907 Y61.676 E36.72056
G1 X53.907 Y62.689 E36.84121
G1 X52.101 Y60.883 E37.14535
G1 X52.101 Y61.896 E37.26600
G1 X53.907 Y63.702 E37.57014
G1 X53.907 Y64.715 E37.69079
G1 X52.101 Y62.909 E37.99493
G1 X52.101 Y63.922 E38.11558
G1 X53.907 Y65.728 E38.41972
G1 X53.907 Y66.741 E38.54037
G1 X52.101 Y64.935 E38.84451
G1 X52.101 Y65.948 E38.96516
G1 X53.907 Y67.754 E39.26930
G1 X53.907 Y68.767 E39.38995
G1 X52.101 Y66.961 E39.69409
G1 X52.101 Y67.974 E39.81475
G1 X53.907 Y69.779 E40.11888
G1 X53.907 Y70.792 E40.23954
G1 X52.101 Y68.987 E40.54367
G1 X52.101 Y70.000 E40.66433
G1 X53.907 Y71.805 E40.96846
G1 X53.907 Y72.818 E41.08912
G1 X52.101 Y71.013 E41.39325
G1 X52.101 Y72.026 E41.51391
G1 X53.907 Y73.831 E41.81805
G1 X53.907 Y74.844 E41.93870
G1 X52.101 Y73.039 E42.24284
G1 X52.101 Y74.052 E42.36349
G1 X53.907 Y75.857 E42.66763
G1 X53.907 Y76.870 E42.78828
G1 X52.101 Y75.065 E43.09242
G1 X52.101 Y76.077 E43.21307
G1 X53.907 Y77.883 E43.51721
G1 X53.907 Y78.896 E43.63786
G1 X52.101 Y77.090 E43.94200
G1 X52.101 Y78.103 E44.06265
G1 X53.907 Y79.909 E44.36679
G1 X53.907 Y80.922 E44.48744
G1 X52.101 Y79.116 E44.79158
G1 X52.101 Y80.129 E44.91223
G1 X53.907 Y81.935 E45.21637
G1 X53.907 Y82.948 E45.33702
G1 X52.101 Y81.142 E45.64116
G1 X52.101 Y82.155 E45.76182
G1 X53.907 Y83.961 E46.06595
G1 X53.907 Y84.973 E46.18661
G1 X52.101 Y83.168 E46.49074
G1 X52.101 Y84.181 E46.61140
G1 X53.907 Y85.986 E46.91553
G1 X53.907 Y86.999 E47.03619
G1 X52.101 Y85.194 E47.34032
G1 X52.101 Y86.207 E47.46098
G1 X53.907 Y88.012 E47.76512
G1 X53.907 Y89.025 E47.88577
G1 X52.101 Y87.220 E48.18991
G1 X52.101 Y88.233 E48.31056
G1 X53.907 Y90.038 E48.61470
G1 X53.907 Y91.051 E48.73535
G1 X52.101 Y89.246 E49.03949
G1 X52.101 Y90.259 E49.16014
G1 X53.907 Y92.064 E49.46428
G1 X53.907 Y93.077 E49.58493
G1 X52.101 Y91.271 E49.88907
G1 X52.101 Y92.284 E50.00972
G1 X53.907 Y94.090 E50.31386
G1 X53.907 Y95.103 E50.43451
G1 X52.101 Y93.297 E50.73865
G1 X52.101 Y94.310 E50.85930
G1 X53.907 Y96.116 E51.16344
G1 X53.907 Y97.129 E51.28409
G1 X52.101 Y95.323 E51.58823
G1 X52.101 Y96.336 E51.70889
G1 X53.907 Y98.142 E52.01302
G1 X53.907 Y99.155 E52.13368
G1 X52.101 Y97.349 E52.43781
G1 X52.101 Y98.362 E52.55847
G1 X53.907 Y100.167 E52.86260
G1 X53.907 Y101.180 E52.98326
G1 X52.101 Y99.375 E53.28740
G1 X52.101 Y100.388 E53.40805
G1 X53.907 Y102.193 E53.71219
G1 X53.907 Y103.206 E53.83284
G1 X52.101 Y101.401 E54.13698
G1 X52.101 Y102.414 E54.25763
G1 X53.907 Y104.219 E54.56177
G1 X53.907 Y105.232 E54.68242
G1 X52.101 Y103.427 E54.98656
G1 X52.101 Y104.440 E55.10721
G1 X53.907 Y106.245 E55.41135
G1 X53.907 Y107.258 E55.53200
G1 X52.101 Y105.453 E55.83614
G1 X52.101 Y106.465 E55.95679
G1 X53.907 Y108.271 E56.26093
G1 X53.907 Y109.284 E56.38158
G1 X52.101 Y107.478 E56.68572
G1 X52.101 Y108.491 E56.80638
G1 X53.907 Y110.297 E57.11051
G1 X53.907 Y111.310 E57.23117
G1 X52.101 Y109.504 E57.53530
G1 X52.101 Y110.517 E57.65596
G1 X53.907 Y112.323 E57.96009
G1 X53.907 Y113.336 E58.08075
G1 X52.101 Y111.530 E58.38489
G1 X52.101 Y112.543 E58.50554
G1 X53.907 Y114.349 E58.80968
G1 X53.907 Y115.361 E58.93033
G1 X52.101 Y113.556 E59.23447
G1 X52.101 Y114.569 E59.35512
G1 X53.907 Y116.374 E59.65926
G1 X53.907 Y117.387 E59.77991
G1 X52.101 Y115.582 E60.08405
G1 X52.101 Y116.595 E60.20470
G1 X53.907 Y118.400 E60.50884
G1 X53.907 Y119.413 E60.62949
G1 X52.101 Y117.608 E60.93363
G1 X52.101 Y118.621 E61.05428
G1 X53.907 Y120.426 E61.35842
G1 X53.907 Y121.439 E61.47908
G1 X52.101 Y119.634 E61.78321
G1 X52.101 Y120.647 E61.90387
G1 X53.907 Y122.452 E62.20800
G1 X53.907 Y123.465 E62.32866
G1 X52.101 Y121.659 E62.63279
G1 X52.101 Y122.672 E62.75345
G1 X53.907 Y124.478 E63.05759
G1 X53.907 Y125.491 E63.17824
G1 X52.101 Y123.685 E63.48238
G1 X52.101 Y124.698 E63.60303
G1 X53.907 Y126.504 E63.90717
G1 X53.907 Y127.517 E64.02782
G1 X52.101 Y125.711 E64.33196
G1 X52.101 Y126.724 E64.45261
G1 X53.907 Y128.530 E64.75675
G1 X53.907 Y129.543 E64.87740
G1 X52.101 Y127.737 E65.18154
G1 X52.101 Y128.750 E65.30219
G1 X53.907 Y130.555 E65.60633
G1 X53.907 Y131.568 E65.72698
G1 X52.101 Y129.763 E66.03112
G1 X52.101 Y130.776 E66.15177
G1 X53.907 Y132.581 E66.45591
G1 X53.907 Y133.594 E66.57657
G1 X52.101 Y131.789 E66.88070
G1 X52.101 Y132.802 E67.00136
G1 X53.907 Y134.607 E67.30549
G1 X53.907 Y135.620 E67.42615
G1 X52.101 Y133.815 E67.73028
G1 X52.101 Y134.828 E67.85094
G1 X53.907 Y136.633 E68.15508
G1 X53.907 Y137.646 E68.27573
G1 X52.101 Y135.841 E68.57987
G1 X52.101 Y136.853 E68.70052
G1 X53.907 Y138.659 E69.00466
G1 X53.907 Y139.672 E69.12531
G1 X52.101 Y137.866 E69.42945
G1 X52.101 Y138.879 E69.55010
G1 X53.907 Y140.685 E69.85424
G1 X53.907 Y141.698 E69.97489
G1 X52.101 Y139.892 E70.27903
G1 X52.101 Y140.905 E70.39968
G1 X53.907 Y142.711 E70.70382
G1 X53.907 Y143.724 E70.82447
G1 X52.101 Y141.918 E71.12861
G1 X52.101 Y142.931 E71.24927
G1 X53.907 Y144.737 E71.55340
G1 X53.907 Y145.749 E71.67406
G1 X52.101 Y143.944 E71.97819
G1 X52.101 Y144.957 E72.09885
G1 X53.907 Y146.762 E72.40298
G1 X53.907 Y147.775 E72.52364
G1 X52.101 Y145.970 E72.82778
G1 X52.101 Y146.983 E72.94843
G1 X53.907 Y148.788 E73.25257
G1 X53.907 Y149.801 E73.37322
G1 X52.101 Y147.996 E73.67736
G1 X52.101 Y149.009 E73.79801
G1 X53.907 Y150.814 E74.10215
G1 X53.907 Y151.827 E74.22280
G1 X52.101 Y150.022 E74.52694
G1 X52.101 Y151.035 E74.64759
G1 X53.907 Y152.840 E74.95173
G1 X53.907 Y153.853 E75.07238
G1 X52.101 Y152.047 E75.37652
G1 X52.101 Y153.060 E75.49717
G1 X53.907 Y154.866 E75.80131
G1 X53.907 Y155.879 E75.92197
G1 X52.101 Y154.073 E76.22610
G1 X52.101 Y155.086 E76.34676
G1 X53.457 Y156.442 E76.57516
G1 X52.444 Y156.442 E76.69581
G1 X52.101 Y156.099 E76.75358
G1 Z0.400 F11400.000
G1 Z0.400 F11400.000
G1 E74.75358 F2400.00000
G92 E0
G1 X61.754 Y187.692 F11400.000
G1 X91.140 Y120.557 F11400.000
G1 X101.589 Y85.247 F11400.000
G1 X101.434 Y84.874 F11400.000
G1 X129.505 Y56.830 F11400.000
G1 X136.382 Y53.688 F11400.000
G1 E2.00000 F2400.00000
G1 X136.090 Y53.340 E2.05398 F1800.000
G1 X135.957 Y53.107 E2.08573
G1 X135.807 Y52.692 E2.13820
G1 X135.756 Y52.253 E2.19067
G1 X135.766 Y32.014 E4.59436
G1 X135.812 Y31.751 E4.62605
G1 X135.960 Y31.346 E4.67728
G1 X136.094 Y31.115 E4.70899
G1 X136.371 Y30.785 E4.76021
G1 X136.576 Y30.613 E4.79192
G1 X136.959 Y30.393 E4.84444
G1 X137.394 Y30.261 E4.89837
G1 X137.660 Y30.231 E4.93014 F1800.000
G1 X138.101 Y30.257 E4.98264
G1 X138.536 Y30.387 E5.03660
G1 X138.775 Y30.508 E5.06836
G1 X139.129 Y30.772 E5.12085
G1 X139.421 Y31.120 E5.17483
G1 X139.554 Y31.353 E5.20658
G1 X139.704 Y31.768 E5.25906
G1 X139.756 Y32.207 E5.31152
G1 X139.745 Y52.446 E7.71521
G1 X139.699 Y52.709 E7.74690
G1 X139.551 Y53.114 E7.79813
G1 X139.417 Y53.345 E7.82984
G1 X139.140 Y53.675 E7.88107
G1 X138.935 Y53.846 E7.91277
G1 X138.552 Y54.067 E7.96529
G1 X138.117 Y54.198 E8.01922
G1 X137.852 Y54.229 E8.05099
G1 X137.410 Y54.203 E8.10350
G1 X136.975 Y54.073 E8.15745
G1 X136.736 Y53.952 E8.18921
G1 X136.430 Y53.723 E8.23458
G1 X130.320 Y55.430 F11400.000
G1 X130.320 Y13.122 E13.25924 F1800.000
G1 X145.113 Y13.122 E15.01617
G1 X145.113 Y27.322 E16.70263
G1 X145.020 Y27.322 E16.71371
G1 X145.020 Y55.430 E20.05191
G1 X130.380 Y55.430 E21.79063
G1 X136.460 Y54.691 F11400.000
G1 X137.273 Y54.809 E21.99747 F1800.000
G1 X137.847 Y54.830 E22.14216
G1 X137.936 Y54.826 E22.16449
G1 X138.177 Y54.723 E22.23050
G1 X138.178 Y54.727 F11400.000
G1 X138.708 Y54.441 E22.30200 F1800.000
G1 X138.933 Y54.285 E22.33449
G1 X140.211 Y54.994 F11400.000
G1 X139.827 Y54.611 E22.39905 F1800.000
G1 X139.753 Y53.524 E22.52876
G1 X141.223 Y54.994 E22.77633
G1 X142.236 Y54.994 E22.89688
G1 X140.072 Y52.831 E23.26114
G1 X140.181 Y51.927 E23.36951
G1 X143.248 Y54.994 E23.88594
G1 X144.261 Y54.994 E24.00648
G1 X140.181 Y50.915 E24.69330
G1 X140.182 Y49.903 E24.81378
G1 X144.585 Y54.306 E25.55506
G1 X144.585 Y53.294 E25.67560
G1 X140.183 Y48.891 E26.41679
G1 X140.183 Y47.879 E26.53727
G1 X144.585 Y52.281 E27.27837
G1 X144.585 Y51.269 E27.39891
G1 X140.184 Y46.868 E28.13993
G1 X140.184 Y45.856 E28.26041
G1 X144.585 Y50.256 E29.00134
G1 X144.585 Y49.244 E29.12188
G1 X140.185 Y44.844 E29.86273
G1 X140.185 Y43.832 E29.98321
G1 X144.585 Y48.231 E30.72396
G1 X144.585 Y47.219 E30.84450
G1 X140.186 Y42.820 E31.58517
G1 X140.186 Y41.808 E31.70565
G1 X144.585 Y46.206 E32.44623
G1 X144.585 Y45.194 E32.56677
G1 X140.187 Y40.796 E33.30726
G1 X140.187 Y39.784 E33.42774
G1 X144.585 Y44.181 E34.16815
G1 X144.585 Y43.169 E34.28869
G1 X140.188 Y38.772 E35.02901
G1 X140.188 Y37.760 E35.14949
G1 X144.585 Y42.156 E35.88972
G1 X144.585 Y41.144 E36.01026
G1 X140.189 Y36.748 E36.75040
G1 X140.189 Y35.736 E36.87088
G1 X144.585 Y40.132 E37.61094
G1 X144.585 Y39.119 E37.73148
G1 X140.190 Y34.724 E38.47144
G1 X140.190 Y33.712 E38.59192
G1 X144.585 Y38.107 E39.33180
G1 X144.585 Y37.094 E39.45234
G1 X140.191 Y32.700 E40.19214
G1 X140.147 Y31.644 E40.31800
G1 X144.585 Y36.082 E41.06516
G1 X144.585 Y35.069 E41.18570
G1 X130.756 Y21.240 E43.51412
G1 X130.756 Y20.228 E43.63466
G1 X144.585 Y34.057 E45.96308
G1 X144.585 Y33.044 E46.08362
G1 X130.756 Y19.215 E48.41204
G1 X130.756 Y18.203 E48.53258
G1 X144.585 Y32.032 E50.86100
G1 X144.585 Y31.019 E50.98154
G1 X130.756 Y17.190 E53.30995
G1 X130.756 Y16.178 E53.43050
G1 X144.585 Y30.007 E55.75891
G1 X144.585 Y28.994 E55.87946
G1 X130.756 Y15.166 E58.20787
G1 X130.756 Y14.153 E58.32841
G1 X144.585 Y27.982 E60.65683
G1 X144.585 Y26.970 E60.77737
G1 X131.173 Y13.558 E63.03554
G1 X132.185 Y13.558 E63.15608
G1 X144.678 Y26.050 E65.25948
G1 X144.678 Y25.038 E65.38002
G1 X133.198 Y13.558 E67.31294
G1 X134.210 Y13.558 E67.43348
G1 X144.678 Y24.025 E69.19594
G1 X144.678 Y23.013 E69.31648
G1 X135.223 Y13.558 E70.90847
G1 X136.235 Y13.558 E71.02901
G1 X144.678 Y22.001 E72.45052
G1 X144.678 Y20.988 E72.57106
G1 X137.248 Y13.558 E73.82211
G1 X138.260 Y13.558 E73.94265
G1 X144.678 Y19.976 E75.02322
G1 X144.678 Y18.963 E75.14376
G1 X139.273 Y13.558 E76.05387
G1 X140.285 Y13.558 E76.17441
G1 X144.678 Y17.951 E76.91404
G1 X144.678 Y16.938 E77.03458
G1 X141.298 Y13.558 E77.60374
G1 X142.310 Y13.558 E77.72428
G1 X144.678 Y15.926 E78.12297
G1 X144.678 Y14.913 E78.24352
G1 X143.322 Y13.558 E78.47174
G1 X144.335 Y13.558 E78.59228
G1 X144.678 Y13.901 E78.65003
G1 X130.756 Y22.253 F11400.000
G1 X138.328 Y29.825 E79.92503 F1800.000
G1 X137.349 Y29.859 E80.04163
G1 X130.756 Y23.265 E81.15183
G1 X130.756 Y24.278 E81.27237
G1 X136.625 Y30.147 E82.26054
G1 X136.051 Y30.585 E82.34654
G1 X130.756 Y25.290 E83.23810
G1 X130.756 Y26.303 E83.35864
G1 X135.623 Y31.170 E84.17816
G1 X135.364 Y31.924 E84.27303
G1 X130.756 Y27.315 E85.04898
G1 X130.756 Y28.328 E85.16952
G1 X135.330 Y32.902 E85.93973
G1 X135.330 Y33.914 E86.06021
G1 X130.756 Y29.340 E86.83034
G1 X130.756 Y30.352 E86.95088
G1 X135.329 Y34.926 E87.72092
G1 X135.329 Y35.938 E87.84140
G1 X130.756 Y31.365 E88.61135
G1 X130.756 Y32.377 E88.73189
G1 X135.328 Y36.950 E89.50175
G1 X135.328 Y37.962 E89.62223
G1 X130.756 Y33.390 E90.39201
G1 X130.756 Y34.402 E90.51255
G1 X135.327 Y38.974 E91.28223
G1 X135.326 Y39.986 E91.40271
G1 X130.756 Y35.415 E92.17231
G1 X130.756 Y36.427 E92.29286
G1 X135.326 Y40.997 E93.06237
G1 X135.325 Y42.009 E93.18285
G1 X130.756 Y37.440 E93.95227
G1 X130.756 Y38.452 E94.07281
G1 X135.325 Y43.021 E94.84215
G1 X135.324 Y44.033 E94.96263
G1 X130.756 Y39.465 E95.73188
G1 X130.756 Y40.477 E95.85242
G1 X135.324 Y45.045 E96.62159
G1 X135.323 Y46.057 E96.74207
G1 X130.756 Y41.489 E97.51114
G1 X130.756 Y42.502 E97.63168
G1 X135.323 Y47.069 E98.40067
G1 X135.322 Y48.081 E98.52115
G1 X130.756 Y43.514 E99.29005
G1 X130.756 Y44.527 E99.41059
G1 X135.322 Y49.093 E100.17940
G1 X135.321 Y50.105 E100.29988
G1 X130.756 Y45.539 E101.06861
G1 X130.756 Y46.552 E101.18915
G1 X135.321 Y51.117 E101.95779
G1 X135.320 Y52.129 E102.07827
G1 X130.756 Y47.564 E102.84682
G1 X130.756 Y48.577 E102.96736
G1 X135.511 Y53.332 E103.76806
G1 X136.017 Y54.850 F11400.000
G1 X130.756 Y49.589 E104.65392 F1800.000
G1 X130.756 Y50.602 E104.77446
G1 X135.148 Y54.994 E105.51409
G1 X134.136 Y54.994 E105.63463
G1 X130.756 Y51.614 E106.20379
G1 X130.756 Y52.627 E106.32433
G1 X133.124 Y54.994 E106.72302
G1 X132.111 Y54.994 E106.84356
G1 X130.756 Y53.639 E107.07178
G1 X130.756 Y54.651 E107.19232
G1 X131.099 Y54.994 E107.25007
G1 Z0.400 F11400.000
G1 Z0.400 F11400.000
G1 E105.25007 F2400.00000
G92 E0
G1 X129.505 Y56.830 F11400.000
G1 X129.478 Y84.981 F11400.000
G1 X134.272 Y96.610 F11400.000
G1 X134.272 Y119.968 F11400.000
G1 X129.095 Y122.572 F11400.000
G1 E2.00000 F2400.00000
G1 X129.536 Y122.598 E2.05250 F1800.000
G1 X129.972 Y122.728 E2.10646
G1 X130.210 Y122.849 E2.13822
G1 X130.564 Y123.113 E2.19071
G1 X130.857 Y123.461 E2.24468
G1 X130.989 Y123.693 E2.27644
G1 X131.140 Y124.109 E2.32891
G1 X131.191 Y124.548 E2.38138
G1 X131.181 Y144.787 E4.78506
G1 X131.134 Y145.049 E4.81676
G1 X130.987 Y145.455 E4.86799
G1 X130.853 Y145.686 E4.89970
G1 X130.576 Y146.016 E4.95092
G1 X130.371 Y146.187 E4.98263
G1 X129.988 Y146.408 E5.03515
G1 X129.553 Y146.539 E5.08908
G1 X129.287 Y146.570 E5.12085
G1 X128.846 Y146.543 E5.17335
G1 X128.410 Y146.414 E5.22731
G1 X128.172 Y146.293 E5.25907
G1 X127.818 Y146.028 E5.31156
G1 X127.525 Y145.680 E5.36553
G1 X127.393 Y145.448 E5.39729
G1 X127.242 Y145.033 E5.44976
G1 X127.191 Y144.594 E5.50223
