; generated by Slic3r 1.2.9 on 2016-06-09 at 20:21:15

; external perimeters extrusion width = 0.40mm
; perimeters extrusion width = 0.48mm
; infill extrusion width = 0.48mm
; solid infill extrusion width = 0.48mm
; top infill extrusion width = 0.48mm
; support material extrusion width = 0.40mm

M107
M190 S55 ; set bed temperature
M104 S200 ; set temperature
G28 ; home all axes
G1 Z5 F5000 ; lift nozzle

M109 S200 ; wait for temperature to be reached
G21 ; set units to millimeters
G90 ; use absolute coordinates
M82 ; use absolute distances for extrusion
G92 E0
G1 Z0.400 F11400.000
G1 E-2.00000 F2400.00000
G92 E0
G1 X35.656 Y5.272 F11400.000
G1 E2.00000 F2400.00000
G1 X36.368 Y2.241 E2.36982 F1553.467
G1 X36.848 Y1.282 E2.49720
G1 X38.103 Y-0.457 E2.75191
G1 X44.509 Y-6.864 E3.82788
G1 X44.909 Y-7.232 E3.89246
G1 X47.692 Y-9.597 E4.32622
G1 X49.683 Y-10.768 E4.60044
G1 X51.952 Y-11.195 E4.87467
G1 X54.231 Y-10.827 E5.14889
G1 X56.252 Y-9.710 E5.42312 F1553.467
G1 X57.774 Y-7.974 E5.69734
G1 X58.349 Y-6.777 E5.85500
G1 X59.162 Y-4.501 E6.14210
G1 X60.916 Y1.562 E6.89168
G1 X61.113 Y4.383 E7.22751
G1 X60.744 Y6.947 E7.53514
G1 X60.028 Y9.142 E7.80937
G1 X58.846 Y10.740 E8.04543
G1 X51.943 Y17.643 E9.20482
G1 X50.054 Y18.970 E9.47905
G1 X47.827 Y19.580 E9.75327
G1 X44.610 Y19.092 E10.13967
G1 X42.736 Y18.309 E10.38092
G1 X40.789 Y17.067 E10.65515
G1 X39.208 Y14.889 E10.97483
G1 X36.929 Y9.872 E11.62926
G1 X36.733 Y9.392 E11.69083
G1 X36.061 Y7.545 E11.92423
G1 X35.667 Y5.331 E12.19133
G1 E10.19133 F2400.00000
G92 E0
G1 X53.873 Y5.767 F11400.000
G1 E2.00000 F2400.00000
G1 X46.970 Y12.670 E3.15938 F1553.467
G1 Z0.400 F11400.000
G1 X45.321 Y12.113 F11400.000
G1 X45.720 Y11.316 E3.26531 F1553.467
G1 X44.649 Y10.266 F11400.000
G1 X45.158 Y9.250 E3.40035 F1553.467
G1 X43.977 Y8.420 E3.57186
G1 X44.486 Y7.403 E3.70689
G1 X43.042 Y7.096 E3.88219
G1 X43.814 Y5.557 E4.08668
G1 X42.370 Y5.249 E4.26197
G1 X42.851 Y4.290 E4.38935
G1 X44.526 Y4.135 E4.58917
G1 X45.839 Y1.516 E4.93720
G1 X47.729 Y0.932 F11400.000
G1 X49.257 Y-2.116 E5.34214 F1553.467
G1 X52.040 Y-4.481 F11400.000
G1 X50.932 Y-2.271 E5.63575 F1553.467
G1 X52.712 Y-2.634 E5.85151
G1 X51.941 Y-1.095 E6.05599
G1 X53.122 Y-0.265 E6.22750
G1 X52.613 Y0.752 E6.36254
G1 X53.794 Y1.582 E6.53404
G1 X53.285 Y2.598 E6.66908
G1 X54.467 Y3.428 E6.84059
G1 X54.267 Y3.826 E6.89337
G1 E4.89337 F2400.00000
G92 E0
G1 X49.786 Y3.204 F11400.000
G1 E2.00000 F2400.00000
G1 X48.692 Y5.387 E2.29012 F1553.467
G1 Z0.700 F11400.000
G1 E0.29012 F2400.00000
G92 E0
G1 X51.109 Y4.294 F11400.000
G1 E2.00000 F2400.00000
G1 X51.065 Y4.718 E2.02226 F900.000
G1 X50.923 Y5.119 E2.04453
G1 X50.693 Y5.471 E2.06647
G1 X50.539 Y5.635 E2.07824
G1 X50.206 Y5.882 E2.09988
G1 X50.009 Y5.979 E2.11133
G1 X49.803 Y6.052 E2.12279
G1 X49.388 Y6.120 E2.14474
G1 X48.963 Y6.089 E2.16700
G1 X48.558 Y5.958 E2.18926
G1 X48.199 Y5.739 E2.21121
G1 X48.031 Y5.590 E2.22298
G1 X47.775 Y5.264 E2.24462
G1 X47.669 Y5.066 E2.25638
G1 X47.542 Y4.671 E2.27802
G1 X47.512 Y4.448 E2.28979
G1 X47.531 Y4.028 E2.31173
G1 X47.646 Y3.629 E2.33347
G1 X47.747 Y3.423 E2.34544
G1 X47.994 Y3.089 E2.36713
G1 X48.171 Y2.926 E2.37970
G1 X48.510 Y2.706 E2.40081
G1 X48.911 Y2.564 E2.42306
G1 X49.325 Y2.520 E2.44480 F900.000
G1 X49.553 Y2.537 E2.45677
G1 X49.955 Y2.640 E2.47842
G1 X50.159 Y2.734 E2.49018
G1 X50.499 Y2.970 E2.51182
G1 X50.659 Y3.130 E2.52359
G1 X50.898 Y3.474 E2.54554
G1 X51.053 Y3.872 E2.56780
G1 X51.101 Y4.235 E2.58693
G1 E0.58693 F2400.00000
G92 E0
G1 X54.914 Y8.898 F11400.000
G1 E2.00000 F2400.00000
G1 X58.425 Y5.386 E2.25946 F3600.000
G1 X111.130 Y150.325 E10.31690
G1 X155.568 Y194.763 E13.60020
G1 X148.780 Y201.551 E14.10175
G1 X111.303 Y164.074 E16.87073
G1 X106.071 Y169.307 E17.25735
G1 X113.142 Y176.378 E17.77980
G1 X106.353 Y183.166 E18.28135
G1 X92.494 Y169.307 E19.30535
G1 X97.392 Y164.409 E19.66727
G1 X44.595 Y19.216 E27.73880
G1 X48.155 Y15.657 E28.00178
G1 X47.237 Y13.136 E28.14191
G1 X46.846 Y12.061 E28.18981 F1800.000
G1 X44.381 Y5.288 E28.56636 F3600.000
G1 X51.140 Y-1.471 E29.06575
G1 X53.605 Y5.302 E29.44229
G1 X53.996 Y6.377 E29.49019 F1800.000
G1 X54.893 Y8.841 E29.62719 F3600.000
G1 E27.62719 F2400.00000
G92 E0
G1 X49.556 Y6.351 F11400.000
G1 E2.00000 F2400.00000
G1 X46.211 Y9.697 E2.24825 F3600.000
G1 X46.040 Y9.230 E2.27435
G1 X48.958 Y6.312 E2.49085
G1 X48.483 Y6.150 E2.51721
G1 X45.870 Y8.762 E2.71104
G1 X45.700 Y8.295 E2.73714
G1 X48.088 Y5.907 E2.91431
G1 X47.773 Y5.585 E2.93796
G1 X45.530 Y7.827 E3.10435
G1 X45.360 Y7.360 E3.13045
G1 X47.512 Y5.208 E3.29015
G1 X47.340 Y4.742 E3.31618
G1 X45.190 Y6.893 E3.47574
G1 X45.020 Y6.425 E3.50183
G1 X47.282 Y4.163 E3.66967
G1 X47.462 Y3.345 F11400.000
G1 X44.849 Y5.958 E3.86349 F3600.000
G1 X44.679 Y5.490 E3.88959
G1 X51.108 Y-0.939 E4.36657
G1 X48.330 Y2.477 F11400.000
G1 X51.278 Y-0.471 E4.58531 F3600.000
G1 X51.448 Y-0.004 E4.61140
G1 X49.157 Y2.288 E4.78141
G1 X49.726 Y2.356 E4.81146
G1 X51.619 Y0.464 E4.95189
G1 X51.789 Y0.931 E4.97798
G1 X50.197 Y2.523 E5.09609
G1 X50.578 Y2.780 E5.12018
G1 X51.959 Y1.399 E5.22266
G1 X52.129 Y1.866 E5.24876
G1 X50.888 Y3.107 E5.34084
G1 X51.134 Y3.499 E5.36510
G1 X52.299 Y2.333 E5.45157
G1 X52.469 Y2.801 E5.47767
G1 X51.295 Y3.975 E5.56478
G1 X51.330 Y4.578 E5.59645
G1 X52.639 Y3.268 E5.69360
G1 X52.810 Y3.736 E5.71969
G1 X46.381 Y10.165 E6.19668
G1 X46.551 Y10.632 E6.22278
G1 X52.980 Y4.203 E6.69976
G1 X53.150 Y4.671 E6.72586
G1 X46.721 Y11.100 E7.20284
G1 X46.891 Y11.567 E7.22894
G1 X53.320 Y5.138 E7.70593
G1 X53.490 Y5.606 E7.73202
G1 X47.061 Y12.034 E8.20901
G1 X47.231 Y12.502 E8.23511
G1 X53.660 Y6.073 E8.71209
G1 X53.830 Y6.540 E8.73819
G1 X47.401 Y12.969 E9.21518
G1 X47.572 Y13.437 E9.24127
G1 X54.001 Y7.008 E9.71826
G1 X54.171 Y7.475 E9.74436
G1 X47.742 Y13.904 E10.22134
G1 X47.912 Y14.372 E10.24744
G1 X54.341 Y7.943 E10.72442
G1 X54.511 Y8.410 E10.75052
G1 X48.082 Y14.839 E11.22751
G1 X48.252 Y15.307 E11.25361
G1 X54.681 Y8.878 E11.73059
G1 X54.851 Y9.345 E11.75669
G1 X48.422 Y15.774 E12.23367
G1 X45.033 Y19.801 F11400.000
G1 X58.533 Y6.301 E13.23528 F3600.000
G1 X58.703 Y6.769 E13.26138
G1 X45.203 Y20.268 E14.26299
G1 X45.373 Y20.736 E14.28909
G1 X58.873 Y7.236 E15.29070
G1 X59.043 Y7.704 E15.31680
G1 X45.543 Y21.204 E16.31841
G1 X45.713 Y21.671 E16.34451
G1 X59.213 Y8.171 E17.34612
G1 X59.383 Y8.639 E17.37222
G1 X45.883 Y22.139 E18.37383
G1 X46.053 Y22.606 E18.39993
G1 X59.553 Y9.106 E19.40154
G1 X59.723 Y9.574 E19.42764
G1 X46.223 Y23.074 E20.42924
G1 X46.393 Y23.541 E20.45535
G1 X59.893 Y10.042 E21.45695
G1 X60.063 Y10.509 E21.48305
G1 X46.563 Y24.009 E22.48466
G1 X46.733 Y24.476 E22.51076
G1 X60.233 Y10.977 E23.51237
G1 X60.403 Y11.444 E23.53847
G1 X46.903 Y24.944 E24.54008
G1 X47.073 Y25.412 E24.56618
G1 X60.573 Y11.912 E25.56779
G1 X60.743 Y12.379 E25.59389
G1 X47.243 Y25.879 E26.59550
G1 X47.413 Y26.347 E26.62160
G1 X60.913 Y12.847 E27.62321
G1 X61.083 Y13.314 E27.64931
G1 X47.583 Y26.814 E28.65092
G1 X47.753 Y27.282 E28.67702
G1 X61.253 Y13.782 E29.67863
G1 X61.423 Y14.250 E29.70473
G1 X47.923 Y27.749 E30.70633
G1 X48.093 Y28.217 E30.73244
G1 X61.593 Y14.717 E31.73404
G1 X61.763 Y15.185 E31.76014
G1 X48.263 Y28.684 E32.76175
G1 X48.433 Y29.152 E32.78785
G1 X61.933 Y15.652 E33.78946
G1 X62.103 Y16.120 E33.81556
G1 X48.603 Y29.620 E34.81717
G1 X48.773 Y30.087 E34.84327
G1 X62.273 Y16.587 E35.84488
G1 X62.443 Y17.055 E35.87098
G1 X48.943 Y30.555 E36.87259
G1 X49.113 Y31.022 E36.89869
G1 X62.613 Y17.522 E37.90030
G1 X62.783 Y17.990 E37.92640
G1 X49.283 Y31.490 E38.92801
G1 X49.453 Y31.957 E38.95411
G1 X62.953 Y18.458 E39.95571
G1 X63.123 Y18.925 E39.98182
G1 X49.623 Y32.425 E40.98342
G1 X49.793 Y32.892 E41.00952
G1 X63.293 Y19.393 E42.01113
G1 X63.463 Y19.860 E42.03723
G1 X49.964 Y33.360 E43.03884
G1 X50.134 Y33.828 E43.06494
G1 X63.633 Y20.328 E44.06655
G1 X63.803 Y20.795 E44.09265
G1 X50.304 Y34.295 E45.09426
G1 X50.474 Y34.763 E45.12036
G1 X63.973 Y21.263 E46.12197
G1 X64.143 Y21.730 E46.14807
G1 X50.644 Y35.230 E47.14968
G1 X50.814 Y35.698 E47.17578
G1 X64.313 Y22.198 E48.17739
G1 X64.483 Y22.666 E48.20349
G1 X50.984 Y36.165 E49.20509
G1 X51.154 Y36.633 E49.23120
G1 X64.653 Y23.133 E50.23280
G1 X64.824 Y23.601 E50.25890
G1 X51.324 Y37.100 E51.26051
G1 X51.494 Y37.568 E51.28661
G1 X64.994 Y24.068 E52.28822
G1 X65.164 Y24.536 E52.31432
G1 X51.664 Y38.036 E53.31593
G1 X51.834 Y38.503 E53.34203
G1 X65.334 Y25.003 E54.34364
G1 X65.504 Y25.471 E54.36974
G1 X52.004 Y38.971 E55.37135
G1 X52.174 Y39.438 E55.39745
G1 X65.674 Y25.938 E56.39906
G1 X65.844 Y26.406 E56.42516
G1 X52.344 Y39.906 E57.42677
G1 X52.514 Y40.373 E57.45287
G1 X66.014 Y26.874 E58.45447
G1 X66.184 Y27.341 E58.48058
G1 X52.684 Y40.841 E59.48218
G1 X52.854 Y41.308 E59.50828
G1 X66.354 Y27.809 E60.50989
G1 X66.524 Y28.276 E60.53599
G1 X53.024 Y41.776 E61.53760
G1 X53.194 Y42.244 E61.56370
G1 X66.694 Y28.744 E62.56531
G1 X66.864 Y29.211 E62.59141
G1 X53.364 Y42.711 E63.59302
G1 X53.534 Y43.179 E63.61912
G1 X67.034 Y29.679 E64.62073
G1 X67.204 Y30.146 E64.64683
G1 X53.704 Y43.646 E65.64844
G1 X53.874 Y44.114 E65.67454
G1 X67.374 Y30.614 E66.67615
G1 X67.544 Y31.082 E66.70225
G1 X54.044 Y44.581 E67.70385
G1 X54.214 Y45.049 E67.72996
G1 X67.714 Y31.549 E68.73156
G1 X67.884 Y32.017 E68.75766
G1 X54.384 Y45.516 E69.75927
G1 X54.554 Y45.984 E69.78537
G1 X68.054 Y32.484 E70.78698
G1 X68.224 Y32.952 E70.81308
G1 X54.724 Y46.452 E71.81469
G1 X54.894 Y46.919 E71.84079
G1 X68.394 Y33.419 E72.84240
G1 X68.564 Y33.887 E72.86850
G1 X55.064 Y47.387 E73.87011
G1 X55.234 Y47.854 E73.89621
G1 X68.734 Y34.354 E74.89782
G1 X68.904 Y34.822 E74.92392
G1 X55.404 Y48.322 E75.92553
G1 X55.574 Y48.789 E75.95163
G1 X69.074 Y35.290 E76.95323
G1 X69.244 Y35.757 E76.97934
G1 X55.744 Y49.257 E77.98094
G1 X55.914 Y49.724 E78.00704
G1 X69.414 Y36.225 E79.00865
G1 X69.584 Y36.692 E79.03475
G1 X56.084 Y50.192 E80.03636
G1 X56.254 Y50.660 E80.06246
G1 X69.754 Y37.160 E81.06407
G1 X69.924 Y37.627 E81.09017
G1 X56.424 Y51.127 E82.09178
G1 X56.594 Y51.595 E82.11788
G1 X70.094 Y38.095 E83.11949
G1 X70.264 Y38.562 E83.14559
G1 X56.764 Y52.062 E84.14720
G1 X56.934 Y52.530 E84.17330
G1 X70.434 Y39.030 E85.17491
G1 X70.604 Y39.498 E85.20101
G1 X57.104 Y52.997 E86.20261
G1 X57.274 Y53.465 E86.22871
G1 X70.774 Y39.965 E87.23032
G1 X70.944 Y40.433 E87.25642
G1 X57.444 Y53.932 E88.25803
G1 X57.614 Y54.400 E88.28413
G1 X71.114 Y40.900 E89.28574
G1 X71.284 Y41.368 E89.31184
G1 X57.784 Y54.868 E90.31345
G1 X57.954 Y55.335 E90.33955
G1 X71.454 Y41.835 E91.34116
G1 X71.624 Y42.303 E91.36726
G1 X58.124 Y55.803 E92.36887
G1 X58.295 Y56.270 E92.39497
G1 X71.794 Y42.770 E93.39658
G1 X71.964 Y43.238 E93.42268
G1 X58.465 Y56.738 E94.42428
G1 X58.635 Y57.205 E94.45039
G1 X72.134 Y43.706 E95.45199
G1 X72.304 Y44.173 E95.47809
G1 X58.805 Y57.673 E96.47970
G1 X58.975 Y58.140 E96.50580
G1 X72.474 Y44.641 E97.50741
G1 X72.644 Y45.108 E97.53351
G1 X59.145 Y58.608 E98.53512
G1 X59.315 Y59.076 E98.56122
G1 X72.814 Y45.576 E99.56283
G1 X72.984 Y46.043 E99.58893
G1 X59.485 Y59.543 E100.59054
G1 X59.655 Y60.011 E100.61664
G1 X73.155 Y46.511 E101.61825
G1 X73.325 Y46.978 E101.64435
G1 X59.825 Y60.478 E102.64596
G1 X59.995 Y60.946 E102.67206
G1 X73.495 Y47.446 E103.67366
G1 X73.665 Y47.914 E103.69976
G1 X60.165 Y61.413 E104.70137
G1 X60.335 Y61.881 E104.72747
G1 X73.835 Y48.381 E105.72908
G1 X74.005 Y48.849 E105.75518
G1 X60.505 Y62.348 E106.75679
G1 X60.675 Y62.816 E106.78289
G1 X74.175 Y49.316 E107.78450
G1 X74.345 Y49.784 E107.81060
G1 X60.845 Y63.284 E108.81221
G1 X61.015 Y63.751 E108.83831
G1 X74.515 Y50.251 E109.83992
G1 X74.685 Y50.719 E109.86602
G1 X61.185 Y64.219 E110.86763
G1 X61.355 Y64.686 E110.89373
G1 X74.855 Y51.186 E111.89533
G1 X75.025 Y51.654 E111.92143
G1 X61.525 Y65.154 E112.92304
G1 X61.695 Y65.621 E112.94914
G1 X75.195 Y52.122 E113.95075
G1 X75.365 Y52.589 E113.97685
G1 X61.865 Y66.089 E114.97846
G1 X62.035 Y66.556 E115.00456
G1 X75.535 Y53.057 E116.00617
G1 X75.705 Y53.524 E116.03227
G1 X62.205 Y67.024 E117.03388
G1 X62.375 Y67.492 E117.05998
G1 X75.875 Y53.992 E118.06159
G1 X76.045 Y54.459 E118.08769
G1 X62.545 Y67.959 E119.08930
G1 X62.715 Y68.427 E119.11540
G1 X76.215 Y54.927 E120.11700
G1 X76.385 Y55.394 E120.14310
G1 X62.885 Y68.894 E121.14471
G1 X63.055 Y69.362 E121.17081
G1 X76.555 Y55.862 E122.17242
G1 X76.725 Y56.330 E122.19852
G1 X63.225 Y69.829 E123.20013
G1 X63.395 Y70.297 E123.22623
G1 X76.895 Y56.797 E124.22784
G1 X77.065 Y57.265 E124.25394
G1 X63.565 Y70.764 E125.25555
G1 X63.735 Y71.232 E125.28165
G1 X77.235 Y57.732 E126.28326
G1 X77.405 Y58.200 E126.30936
G1 X63.905 Y71.700 E127.31097
G1 X64.075 Y72.167 E127.33707
G1 X77.575 Y58.667 E128.33867
G1 X77.745 Y59.135 E128.36477
G1 X64.245 Y72.635 E129.36638
G1 X64.415 Y73.102 E129.39248
G1 X77.915 Y59.602 E130.39409
G1 X78.085 Y60.070 E130.42019
G1 X64.585 Y73.570 E131.42180
G1 X64.755 Y74.037 E131.44790
G1 X78.255 Y60.538 E132.44951
G1 X78.425 Y61.005 E132.47561
G1 X64.925 Y74.505 E133.47722
G1 X65.095 Y74.973 E133.50332
G1 X78.595 Y61.473 E134.50493
G1 X78.765 Y61.940 E134.53103
G1 X65.265 Y75.440 E135.53264
G1 X65.435 Y75.908 E135.55874
G1 X78.935 Y62.408 E136.56034
G1 X79.105 Y62.875 E136.58644
G1 X65.605 Y76.375 E137.58805
G1 X65.775 Y76.843 E137.61415
G1 X79.275 Y63.343 E138.61576
G1 X79.445 Y63.810 E138.64186
G1 X65.945 Y77.310 E139.64347
G1 X66.115 Y77.778 E139.66957
G1 X79.615 Y64.278 E140.67118
G1 X79.785 Y64.746 E140.69728
G1 X66.285 Y78.245 E141.69889
G1 X66.455 Y78.713 E141.72499
G1 X79.955 Y65.213 E142.72660
G1 X80.125 Y65.681 E142.75270
G1 X66.626 Y79.181 E143.75430
G1 X66.796 Y79.648 E143.78041
G1 X80.295 Y66.148 E144.78201
G1 X80.465 Y66.616 E144.80811
G1 X66.966 Y80.116 E145.80972
G1 X67.136 Y80.583 E145.83582
G1 X80.635 Y67.083 E146.83743
G1 X80.805 Y67.551 E146.86353
G1 X67.306 Y81.051 E147.86514
G1 X67.476 Y81.518 E147.89124
G1 X80.975 Y68.018 E148.89285
G1 X81.145 Y68.486 E148.91895
G1 X67.646 Y81.986 E149.92056
G1 X67.816 Y82.453 E149.94666
G1 X81.315 Y68.954 E150.94827
G1 X81.486 Y69.421 E150.97437
G1 X67.986 Y82.921 E151.97597
G1 X68.156 Y83.389 E152.00208
G1 X81.656 Y69.889 E153.00368
G1 X81.826 Y70.356 E153.02978
G1 X68.326 Y83.856 E154.03139
G1 X68.496 Y84.324 E154.05749
G1 X81.996 Y70.824 E155.05910
G1 X82.166 Y71.291 E155.08520
G1 X68.666 Y84.791 E156.08681
G1 X68.836 Y85.259 E156.11291
G1 X82.336 Y71.759 E157.11452
G1 X82.506 Y72.226 E157.14062
G1 X69.006 Y85.726 E158.14223
G1 X69.176 Y86.194 E158.16833
G1 X82.676 Y72.694 E159.16993
G1 X82.846 Y73.162 E159.19604
G1 X69.346 Y86.661 E160.19764
G1 X69.516 Y87.129 E160.22374
G1 X83.016 Y73.629 E161.22535
G1 X83.186 Y74.097 E161.25145
G1 X69.686 Y87.597 E162.25306
G1 X69.856 Y88.064 E162.27916
G1 X83.356 Y74.564 E163.28077
G1 X83.526 Y75.032 E163.30687
G1 X70.026 Y88.532 E164.30848
G1 X70.196 Y88.999 E164.33458
G1 X83.696 Y75.499 E165.33619
G1 X83.866 Y75.967 E165.36229
G1 X70.366 Y89.467 E166.36390
G1 X70.536 Y89.934 E166.39000
G1 X84.036 Y76.434 E167.39160
G1 X84.206 Y76.902 E167.41770
G1 X70.706 Y90.402 E168.41931
G1 X70.876 Y90.869 E168.44541
G1 X84.376 Y77.370 E169.44702
G1 X84.546 Y77.837 E169.47312
G1 X71.046 Y91.337 E170.47473
G1 X71.216 Y91.805 E170.50083
G1 X84.716 Y78.305 E171.50244
G1 X84.886 Y78.772 E171.52854
G1 X71.386 Y92.272 E172.53015
G1 X71.556 Y92.740 E172.55625
G1 X85.056 Y79.240 E173.55786
G1 X85.226 Y79.707 E173.58396
G1 X71.726 Y93.207 E174.58556
G1 X71.896 Y93.675 E174.61167
G1 X85.396 Y80.175 E175.61327
G1 X85.566 Y80.642 E175.63937
G1 X72.066 Y94.142 E176.64098
G1 X72.236 Y94.610 E176.66708
G1 X85.736 Y81.110 E177.66869
G1 X85.906 Y81.578 E177.69479
G1 X72.406 Y95.077 E178.69640
G1 X72.576 Y95.545 E178.72250
G1 X86.076 Y82.045 E179.72411
G1 X86.246 Y82.513 E179.75021
G1 X72.746 Y96.013 E180.75182
G1 X72.916 Y96.480 E180.77792
G1 X86.416 Y82.980 E181.77952
G1 X86.586 Y83.448 E181.80563
G1 X73.086 Y96.948 E182.80723
G1 X73.256 Y97.415 E182.83333
G1 X86.756 Y83.915 E183.83494
G1 X86.926 Y84.383 E183.86104
G1 X73.426 Y97.883 E184.86265
G1 X73.596 Y98.350 E184.88875
G1 X87.096 Y84.850 E185.89036
