; generated by Slic3r 1.2.9 on 2016-06-11 at 13:15:25

; external perimeters extrusion width = 0.40mm
; perimeters extrusion width = 0.67mm
; infill extrusion width = 0.67mm
; solid infill extrusion width = 0.67mm
; top infill extrusion width = 0.67mm
; support material extrusion width = 0.40mm

M107
M190 S55 ; set bed temperature
M104 S200 ; set temperature
G28 ; home all axes
G1 Z5 F5000 ; lift nozzle

M109 S200 ; wait for temperature to be reached
G21 ; set units to millimeters
G90 ; use absolute coordinates
M82 ; use absolute distances for extrusion
G92 E0
G1 Z0.400 F11400.000
G1 E-2.00000 F2400.00000
G92 E0
G1 X59.243 Y85.426 F11400.000
G1 E2.00000 F2400.00000
G1 X60.261 Y84.777 E2.14337 F1800.000
G1 X60.914 Y84.410 E2.23231
G1 X61.896 Y83.925 E2.36244
G1 X62.417 Y83.694 E2.43014
G1 X63.114 Y83.420 E2.51908
G1 X64.260 Y83.040 E2.66244
G1 X65.429 Y82.739 E2.80582
G1 X66.616 Y82.518 E2.94920
G1 X67.815 Y82.379 E3.09255
G1 X68.272 Y82.348 E3.14700
G1 X69.479 Y82.322 E3.29037
G1 X70.685 Y82.379 E3.43376 F1800.000
G1 X71.467 Y82.460 E3.52716
G1 X143.974 Y90.325 E12.18894
G1 X146.193 Y90.965 E12.46316
G1 X148.063 Y92.319 E12.73739
G1 X149.364 Y94.226 E13.01161
G1 X149.964 Y97.000 E13.34867
G1 X149.964 Y103.000 E14.06126
G1 X149.567 Y105.275 E14.33549
G1 X148.423 Y107.280 E14.60971
G1 X146.667 Y108.780 E14.88394
G1 X143.974 Y109.675 E15.22099
G1 X70.685 Y117.621 E23.97619
G1 X69.479 Y117.678 E24.11956
G1 X68.272 Y117.652 E24.26293
G1 X67.181 Y117.556 E24.39305
G1 X66.616 Y117.482 E24.46074
G1 X65.429 Y117.261 E24.60412
G1 X64.260 Y116.960 E24.74748
G1 X63.114 Y116.580 E24.89084
G1 X61.997 Y116.123 E25.03423
G1 X60.914 Y115.590 E25.17760
G1 X59.869 Y114.985 E25.32097
G1 X59.243 Y114.574 E25.40991
G1 X58.361 Y113.925 E25.54002
G1 X57.916 Y113.568 E25.60771
G1 X57.352 Y113.076 E25.69665
G1 X56.487 Y112.234 E25.84003
G1 X55.682 Y111.334 E25.98341
G1 X54.940 Y110.382 E26.12678
G1 X54.265 Y109.381 E26.27014
G1 X54.027 Y108.989 E26.32459
G1 X53.449 Y107.929 E26.46796
G1 X52.944 Y106.833 E26.61134
G1 X52.516 Y105.704 E26.75470
G1 X52.166 Y104.549 E26.89807
G1 X51.895 Y103.372 E27.04144
G1 X51.706 Y102.180 E27.18482
G1 X51.598 Y100.978 E27.32819
G1 X51.572 Y99.771 E27.47156
G1 X51.598 Y99.022 E27.56051
G1 X51.694 Y97.931 E27.69064
G1 X51.768 Y97.366 E27.75831
G1 X51.895 Y96.628 E27.84725
G1 X52.166 Y95.451 E27.99063
G1 X52.516 Y94.296 E28.13400
G1 X52.944 Y93.167 E28.27737
G1 X53.449 Y92.071 E28.42074
G1 X54.027 Y91.011 E28.56412
G1 X54.676 Y89.993 E28.70748
G1 X55.393 Y89.022 E28.85085
G1 X56.174 Y88.102 E28.99421
G1 X57.016 Y87.237 E29.13759
G1 X57.916 Y86.432 E29.28097
G1 X58.272 Y86.143 E29.33541
G1 X59.194 Y85.460 E29.47165
G1 E27.47165 F2400.00000
G92 E0
G1 X74.155 Y108.065 F11400.000
G1 E2.00000 F2400.00000
G1 X73.593 Y108.381 E2.07655 F1800.000
G1 X73.011 Y108.658 E2.15310
G1 X72.411 Y108.895 E2.22966
G1 X71.797 Y109.090 E2.30621
G1 X71.171 Y109.242 E2.38276
G1 X70.535 Y109.352 E2.45931
G1 X69.894 Y109.418 E2.53586
G1 X69.250 Y109.440 E2.61241
G1 X68.606 Y109.418 E2.68897
G1 X67.965 Y109.352 E2.76552
G1 X67.329 Y109.242 E2.84207
G1 X66.900 Y109.138 E2.89461
G1 X66.092 Y108.896 E2.99473
G1 X65.489 Y108.658 E3.07168
G1 X64.907 Y108.381 E3.14823
G1 X64.345 Y108.065 E3.22479
G1 X63.806 Y107.712 E3.30134
G1 X63.454 Y107.445 E3.35388
G1 X62.809 Y106.901 E3.45400
G1 X62.351 Y106.443 E3.53095
G1 X61.928 Y105.957 E3.60750
G1 X61.538 Y105.444 E3.68405
G1 X61.185 Y104.905 E3.76060
G1 X60.869 Y104.343 E3.83716
G1 X60.592 Y103.761 E3.91371
G1 X60.355 Y103.161 E3.99026
G1 X60.160 Y102.547 E4.06681
G1 X60.008 Y101.921 E4.14336
G1 X59.898 Y101.285 E4.21991
G1 X59.832 Y100.644 E4.29647
G1 X59.810 Y100.000 E4.37302
G1 X59.832 Y99.352 E4.44996
G1 X59.933 Y98.515 E4.55009
G1 X60.008 Y98.079 E4.60263
G1 X60.160 Y97.453 E4.67918
G1 X60.355 Y96.839 E4.75573
G1 X60.592 Y96.239 E4.83229
G1 X60.869 Y95.657 E4.90884
G1 X61.185 Y95.095 E4.98539
G1 X61.538 Y94.556 E5.06194
G1 X61.928 Y94.043 E5.13849
G1 X62.351 Y93.557 E5.21505
G1 X62.807 Y93.101 E5.29159
G1 X63.293 Y92.678 E5.36815
G1 X63.806 Y92.288 E5.44470
G1 X64.345 Y91.935 E5.52125
G1 X64.907 Y91.619 E5.59780
G1 X65.489 Y91.342 E5.67435
G1 X66.089 Y91.105 E5.75091
G1 X66.703 Y90.910 E5.82746
G1 X67.329 Y90.758 E5.90401
G1 X67.965 Y90.648 E5.98056
G1 X68.606 Y90.582 E6.05711
G1 X69.048 Y90.567 E6.10966 F1800.000
G1 X69.891 Y90.582 E6.20978
G1 X70.535 Y90.648 E6.28673
G1 X71.171 Y90.758 E6.36328
G1 X71.797 Y90.910 E6.43983
G1 X72.411 Y91.105 E6.51638
G1 X73.011 Y91.342 E6.59293
G1 X73.593 Y91.619 E6.66948
G1 X74.155 Y91.935 E6.74604
G1 X74.694 Y92.288 E6.82259
G1 X75.207 Y92.678 E6.89914
G1 X75.693 Y93.101 E6.97569
G1 X76.149 Y93.557 E7.05224
G1 X76.572 Y94.043 E7.12879
G1 X76.964 Y94.559 E7.20574
G1 X77.415 Y95.271 E7.30586
G1 X77.631 Y95.657 E7.35841
G1 X77.908 Y96.239 E7.43496
G1 X78.145 Y96.839 E7.51151
G1 X78.340 Y97.453 E7.58806
G1 X78.492 Y98.079 E7.66461
G1 X78.602 Y98.715 E7.74116
G1 X78.668 Y99.356 E7.81772
G1 X78.690 Y100.000 E7.89427
G1 X78.668 Y100.644 E7.97082
G1 X78.602 Y101.285 E8.04737
G1 X78.492 Y101.921 E8.12392
G1 X78.340 Y102.547 E8.20047
G1 X78.145 Y103.161 E8.27703
G1 X77.908 Y103.761 E8.35358
G1 X77.631 Y104.343 E8.43013
G1 X77.315 Y104.905 E8.50668
G1 X76.962 Y105.444 E8.58323
G1 X76.572 Y105.957 E8.65978
G1 X76.149 Y106.443 E8.73634
G1 X75.693 Y106.899 E8.81289
G1 X75.207 Y107.322 E8.88944
G1 X74.694 Y107.712 E8.96599
G1 X74.205 Y108.033 E9.03541
G1 X79.544 Y102.600 F11400.000
G1 X79.359 Y103.014 E9.08930 F1800.000
G1 X79.205 Y103.543 E9.15477
G1 X78.942 Y104.210 E9.23986
G1 X78.633 Y104.862 E9.32556
G1 X78.279 Y105.491 E9.41125
G1 X77.883 Y106.094 E9.49695
G1 X77.447 Y106.669 E9.58264
G1 X76.973 Y107.213 E9.66834
G1 X76.463 Y107.723 E9.75404
G1 X75.919 Y108.197 E9.83973
G1 X75.344 Y108.633 E9.92543
G1 X74.741 Y109.029 E10.01112
G1 X74.112 Y109.383 E10.09682
G1 X73.460 Y109.692 E10.18251
G1 X72.789 Y109.957 E10.26821
G1 X72.206 Y110.142 E10.34087
G1 X71.398 Y110.347 E10.43979
G1 X70.689 Y110.469 E10.52527
G1 X69.971 Y110.543 E10.61097
G1 X69.250 Y110.567 E10.69666
G1 X68.529 Y110.543 E10.78236
G1 X67.920 Y110.480 E10.85502
G1 X67.098 Y110.346 E10.95393
G1 X66.399 Y110.175 E11.03942
G1 X65.711 Y109.957 E11.12512
G1 X65.040 Y109.692 E11.21081
G1 X64.388 Y109.383 E11.29651
G1 X63.759 Y109.029 E11.38220
G1 X63.156 Y108.633 E11.46790
G1 X62.669 Y108.263 E11.54056
G1 X62.036 Y107.722 E11.63947
G1 X61.527 Y107.213 E11.72496
G1 X61.125 Y106.752 E11.79762
G1 X60.616 Y106.092 E11.89653
G1 X60.221 Y105.491 E11.98202
G1 X59.867 Y104.862 E12.06771
G1 X59.558 Y104.210 E12.15341
G1 X59.293 Y103.539 E12.23911
G1 X59.075 Y102.851 E12.32480
G1 X58.930 Y102.257 E12.39746
G1 X58.781 Y101.437 E12.49638
G1 X58.707 Y100.721 E12.58186
G1 X58.683 Y100.000 E12.66756
G1 X58.707 Y99.279 E12.75325
G1 X58.781 Y98.561 E12.83895
G1 X58.904 Y97.850 E12.92465
G1 X59.075 Y97.149 E13.01034
G1 X59.293 Y96.461 E13.09604
G1 X59.517 Y95.892 E13.16870
G1 X59.868 Y95.137 E13.26761
G1 X60.221 Y94.509 E13.35310
G1 X60.617 Y93.906 E13.43879
G1 X61.053 Y93.331 E13.52449
G1 X61.527 Y92.787 E13.61019
G1 X62.037 Y92.277 E13.69588
G1 X62.581 Y91.803 E13.78158
G1 X63.156 Y91.367 E13.86727
G1 X63.668 Y91.031 E13.93993
G1 X64.390 Y90.617 E14.03885
G1 X65.040 Y90.308 E14.12433
G1 X65.711 Y90.043 E14.21003
G1 X66.399 Y89.825 E14.29573
G1 X67.100 Y89.654 E14.38142
G1 X67.811 Y89.531 E14.46712
G1 X68.529 Y89.457 E14.55281
G1 X69.250 Y89.433 E14.63851
G1 X69.861 Y89.454 E14.71117
G1 X70.691 Y89.531 E14.81008
G1 X71.400 Y89.654 E14.89557
G1 X72.101 Y89.825 E14.98127
G1 X72.789 Y90.043 E15.06696
G1 X73.460 Y90.308 E15.15266
G1 X74.112 Y90.617 E15.23835
G1 X74.741 Y90.971 E15.32405
G1 X75.344 Y91.367 E15.40974
G1 X75.919 Y91.803 E15.49544
G1 X76.463 Y92.277 E15.58114
G1 X76.973 Y92.787 E15.66683
G1 X77.447 Y93.331 E15.75253
G1 X77.883 Y93.906 E15.83823
G1 X78.279 Y94.509 E15.92392
G1 X78.633 Y95.138 E16.00962
G1 X78.942 Y95.790 E16.09531
G1 X79.208 Y96.463 E16.18119
G1 X79.513 Y97.400 E16.29826
G1 X142.850 Y97.400 E23.82051
G1 X142.850 Y102.600 E24.43809
G1 X79.604 Y102.600 E31.94948
G1 X79.039 Y102.243 F11400.000
G1 X78.671 Y103.361 E32.08929 F1800.000
G1 X78.425 Y103.985 E32.16896
G1 X78.128 Y104.608 E32.25092
G1 X77.797 Y105.198 E32.33121
G1 X77.422 Y105.769 E32.41233
G1 X77.005 Y106.318 E32.49429
G1 X76.561 Y106.828 E32.57458
G1 X76.083 Y107.306 E32.65486
G1 X75.563 Y107.760 E32.73682
G1 X75.019 Y108.172 E32.81794
G1 X74.442 Y108.551 E32.89990
G1 X73.852 Y108.882 E32.98019
G1 X73.242 Y109.172 E33.06048
G1 X72.600 Y109.426 E33.14243
G1 X71.941 Y109.631 E33.22437
G1 X71.278 Y109.795 E33.30549
G1 X70.612 Y109.910 E33.38578
G1 X69.933 Y109.980 E33.46690
G1 X69.243 Y110.003 E33.54886
G1 X68.567 Y109.980 E33.62915
G1 X67.995 Y109.921 E33.69753
G1 X67.211 Y109.793 E33.79187
G1 X66.553 Y109.627 E33.87247
G1 X65.916 Y109.431 E33.95158
G1 X65.265 Y109.175 E34.03470
G1 X64.648 Y108.882 E34.11582
G1 X64.046 Y108.543 E34.19778
G1 X63.481 Y108.172 E34.27806
G1 X63.106 Y107.888 E34.33399
G1 X62.422 Y107.310 E34.44035
G1 X61.934 Y106.823 E34.52222
G1 X61.497 Y106.316 E34.60167
G1 X61.082 Y105.774 E34.68277
G1 X60.703 Y105.198 E34.76473
G1 X60.365 Y104.596 E34.84669
G1 X60.075 Y103.985 E34.92697
G1 X59.827 Y103.357 E35.00726
G1 X59.616 Y102.692 E35.09005
G1 X59.460 Y102.041 E35.16950
G1 X59.341 Y101.369 E35.25060
G1 X59.270 Y100.683 E35.33256
G1 X59.247 Y100.000 E35.41368
G1 X59.271 Y99.301 E35.49680
G1 X59.345 Y98.639 E35.57591
G1 X59.455 Y97.972 E35.65618
G1 X59.618 Y97.301 E35.73813
G1 X59.824 Y96.650 E35.81926
G1 X60.075 Y96.022 E35.89954
G1 X60.365 Y95.404 E35.98064
G1 X60.699 Y94.808 E36.06176
G1 X61.078 Y94.231 E36.14372
G1 X61.495 Y93.682 E36.22568
G1 X61.939 Y93.172 E36.30597
G1 X62.417 Y92.694 E36.38625
G1 X62.937 Y92.240 E36.46821
G1 X63.487 Y91.824 E36.55017
G1 X64.048 Y91.459 E36.62962
G1 X64.642 Y91.122 E36.71072
G1 X65.265 Y90.825 E36.79268
G1 X65.907 Y90.572 E36.87464
G1 X66.551 Y90.368 E36.95492
G1 X67.208 Y90.207 E37.03521
G1 X67.888 Y90.090 E37.11717
G1 X68.574 Y90.020 E37.19913
G1 X69.250 Y90.002 E37.27939
G1 X69.825 Y90.017 E37.34776
G1 X70.616 Y90.090 E37.44210
G1 X71.292 Y90.207 E37.52355
G1 X71.949 Y90.368 E37.60384
G1 X72.593 Y90.572 E37.68412
G1 X73.235 Y90.825 E37.76608
G1 X73.858 Y91.122 E37.84804
G1 X74.448 Y91.453 E37.92833
G1 X75.019 Y91.828 E38.00945
G1 X75.563 Y92.240 E38.09057
G1 X76.083 Y92.694 E38.17253
G1 X76.561 Y93.172 E38.25282
G1 X77.005 Y93.682 E38.33310
G1 X77.423 Y94.231 E38.41506
G1 X77.793 Y94.805 E38.49617
G1 X78.128 Y95.392 E38.57644
G1 X78.425 Y96.015 E38.65839
G1 X78.677 Y96.653 E38.73994
G1 X79.015 Y97.757 E38.87702
G1 X78.988 Y101.473 F11400.000
G1 X79.340 Y101.825 E38.93627 F1800.000
G1 X80.690 Y102.165 E39.10177
G1 X79.098 Y100.572 E39.36943
G1 X79.116 Y99.580 E39.48745
G1 X81.701 Y102.165 E39.92199
G1 X82.712 Y102.165 E40.04217
G1 X79.032 Y98.485 E40.66079
G1 X79.573 Y98.014 E40.74597
G1 X83.723 Y102.165 E41.44371
G1 X84.734 Y102.165 E41.56389
G1 X80.405 Y97.835 E42.29167
G1 X81.416 Y97.835 E42.41185
G1 X85.745 Y102.165 E43.13963
G1 X86.756 Y102.165 E43.25981
G1 X82.427 Y97.835 E43.98759
G1 X83.438 Y97.835 E44.10777
G1 X87.767 Y102.165 E44.83555
G1 X88.778 Y102.165 E44.95573
G1 X84.449 Y97.835 E45.68351
G1 X85.460 Y97.835 E45.80369
G1 X89.789 Y102.165 E46.53147
G1 X90.799 Y102.165 E46.65165
G1 X86.470 Y97.835 E47.37943
G1 X87.481 Y97.835 E47.49961
G1 X91.810 Y102.165 E48.22739
G1 X92.821 Y102.165 E48.34757
G1 X88.492 Y97.835 E49.07535
G1 X89.503 Y97.835 E49.19553
G1 X93.832 Y102.165 E49.92331
G1 X94.843 Y102.165 E50.04349
G1 X90.514 Y97.835 E50.77127
G1 X91.525 Y97.835 E50.89145
G1 X95.854 Y102.165 E51.61923
G1 X96.865 Y102.165 E51.73941
G1 X92.536 Y97.835 E52.46719
G1 X93.547 Y97.835 E52.58737
G1 X97.876 Y102.165 E53.31515
G1 X98.887 Y102.165 E53.43533
G1 X94.558 Y97.835 E54.16311
G1 X95.569 Y97.835 E54.28329
G1 X99.898 Y102.165 E55.01107
G1 X100.909 Y102.165 E55.13125
G1 X96.580 Y97.835 E55.85903
G1 X97.591 Y97.835 E55.97921
G1 X101.920 Y102.165 E56.70699
G1 X102.931 Y102.165 E56.82717
G1 X98.602 Y97.835 E57.55495
G1 X99.613 Y97.835 E57.67513
G1 X103.942 Y102.165 E58.40291
G1 X104.952 Y102.165 E58.52309
G1 X100.623 Y97.835 E59.25087
G1 X101.634 Y97.835 E59.37105
G1 X105.963 Y102.165 E60.09883
G1 X106.974 Y102.165 E60.21901
G1 X102.645 Y97.835 E60.94679
G1 X103.656 Y97.835 E61.06697
G1 X107.985 Y102.165 E61.79475
G1 X108.996 Y102.165 E61.91493
G1 X104.667 Y97.835 E62.64271
G1 X105.678 Y97.835 E62.76289
G1 X110.007 Y102.165 E63.49067
G1 X111.018 Y102.165 E63.61085
G1 X106.689 Y97.835 E64.33863
G1 X107.700 Y97.835 E64.45881
G1 X112.029 Y102.165 E65.18659
G1 X113.040 Y102.165 E65.30677
G1 X108.711 Y97.835 E66.03455
G1 X109.722 Y97.835 E66.15473
G1 X114.051 Y102.165 E66.88251
G1 X115.062 Y102.165 E67.00269
G1 X110.733 Y97.835 E67.73047
G1 X111.744 Y97.835 E67.85065
G1 X116.073 Y102.165 E68.57843
G1 X117.084 Y102.165 E68.69861
G1 X112.755 Y97.835 E69.42639
G1 X113.766 Y97.835 E69.54657
G1 X118.095 Y102.165 E70.27435
G1 X119.105 Y102.165 E70.39453
G1 X114.776 Y97.835 E71.12231
G1 X115.787 Y97.835 E71.24249
G1 X120.116 Y102.165 E71.97027
G1 X121.127 Y102.165 E72.09045
G1 X116.798 Y97.835 E72.81824
G1 X117.809 Y97.835 E72.93841
G1 X122.138 Y102.165 E73.66620
G1 X123.149 Y102.165 E73.78637
G1 X118.820 Y97.835 E74.51416
G1 X119.831 Y97.835 E74.63433
G1 X124.160 Y102.165 E75.36212
G1 X125.171 Y102.165 E75.48229
G1 X120.842 Y97.835 E76.21008
G1 X121.853 Y97.835 E76.33025
G1 X126.182 Y102.165 E77.05804
G1 X127.193 Y102.165 E77.17821
G1 X122.864 Y97.835 E77.90600
G1 X123.875 Y97.835 E78.02617
G1 X128.204 Y102.165 E78.75396
G1 X129.215 Y102.165 E78.87413
G1 X124.886 Y97.835 E79.60192
G1 X125.897 Y97.835 E79.72209
G1 X130.226 Y102.165 E80.44988
G1 X131.237 Y102.165 E80.57005
G1 X126.908 Y97.835 E81.29784
G1 X127.919 Y97.835 E81.41801
G1 X132.248 Y102.165 E82.14580
G1 X133.258 Y102.165 E82.26597
G1 X128.929 Y97.835 E82.99376
G1 X129.940 Y97.835 E83.11393
G1 X134.269 Y102.165 E83.84172
G1 X135.280 Y102.165 E83.96189
G1 X130.951 Y97.835 E84.68968
G1 X131.962 Y97.835 E84.80985
G1 X136.291 Y102.165 E85.53764
G1 X137.302 Y102.165 E85.65781
G1 X132.973 Y97.835 E86.38560
G1 X133.984 Y97.835 E86.50577
G1 X138.313 Y102.165 E87.23356
G1 X139.324 Y102.165 E87.35374
G1 X134.995 Y97.835 E88.08152
G1 X136.006 Y97.835 E88.20170
G1 X140.335 Y102.165 E88.92948
G1 X141.346 Y102.165 E89.04966
G1 X137.017 Y97.835 E89.77744
G1 X138.028 Y97.835 E89.89762
G1 X142.357 Y102.165 E90.62540
G1 X142.414 Y101.211 E90.73892
G1 X139.039 Y97.835 E91.30645
G1 X140.050 Y97.835 E91.42663
G1 X142.414 Y100.200 E91.82420
G1 X142.414 Y99.189 E91.94438
G1 X141.061 Y97.835 E92.17200
G1 X142.072 Y97.835 E92.29218
G1 X142.415 Y98.178 E92.34984
G1 Z0.400 F11400.000
G1 Z0.600 F11400.000
G1 E90.34984 F2400.00000
G92 E0
G1 X77.681 Y102.146 F11400.000
G1 E2.00000 F2400.00000
G1 X77.452 Y102.915 E2.04192 F3600.000
G1 X77.234 Y103.468 E2.07297
G1 X76.978 Y104.005 E2.10403
G1 X76.687 Y104.523 E2.13510
G1 X76.339 Y105.050 E2.16809
G1 X76.002 Y105.493 E2.19718
G1 X75.611 Y105.941 E2.22823
G1 X75.191 Y106.361 E2.25928
G1 X74.743 Y106.752 E2.29033
G1 X74.270 Y107.111 E2.32138
G1 X73.773 Y107.437 E2.35244
G1 X73.255 Y107.728 E2.38349
G1 X72.718 Y107.984 E2.41454
G1 X72.165 Y108.202 E2.44561
G1 X71.562 Y108.390 E2.47860
G1 X71.021 Y108.522 E2.50769
G1 X70.435 Y108.623 E2.53874
G1 X69.844 Y108.684 E2.56980
G1 X69.250 Y108.704 E2.60085
G1 X68.656 Y108.684 E2.63190
G1 X68.065 Y108.623 E2.66295
G1 X67.479 Y108.522 E2.69403
G1 X66.866 Y108.370 E2.72701
G1 X66.335 Y108.202 E2.75610
G1 X65.782 Y107.984 E2.78716
G1 X65.245 Y107.728 E2.81821
G1 X64.727 Y107.437 E2.84926
G1 X64.230 Y107.111 E2.88031
G1 X63.757 Y106.752 E2.91136
G1 X63.309 Y106.361 E2.94242
G1 X62.889 Y105.941 E2.97347
G1 X62.498 Y105.493 E3.00454
G1 X62.118 Y104.988 E3.03753
G1 X61.813 Y104.523 E3.06662
G1 X61.521 Y104.004 E3.09769
G1 X61.252 Y103.433 E3.13068
G1 X61.048 Y102.915 E3.15977
G1 X60.868 Y102.348 E3.19082
G1 X60.728 Y101.771 E3.22187
G1 X60.628 Y101.193 E3.25251
G1 X60.566 Y100.594 E3.28398
G1 X60.546 Y100.000 E3.31503
G1 X60.566 Y99.406 E3.34608
