; generated by Slic3r 1.2.9 on 2016-06-11 at 20:33:01

; external perimeters extrusion width = 0.40mm
; perimeters extrusion width = 0.67mm
; infill extrusion width = 0.67mm
; solid infill extrusion width = 0.67mm
; top infill extrusion width = 0.67mm
; support material extrusion width = 0.40mm

M107
M190 S55 ; set bed temperature
M104 S200 ; set temperature
G28 ; home all axes
G1 Z5 F5000 ; lift nozzle

M109 S200 ; wait for temperature to be reached
G21 ; set units to millimeters
G90 ; use absolute coordinates
M82 ; use absolute distances for extrusion
G92 E0
G1 Z0.400 F11400.000
G1 E-2.00000 F2400.00000
G92 E0
G1 X18.142 Y53.690 F11400.000
G1 E2.00000 F2400.00000
G1 X19.392 Y53.573 E2.14908 F1800.000
G1 X170.525 Y53.573 E20.09840
G1 X173.060 Y54.070 E20.40527
G1 X178.712 Y56.375 E21.13018 F1800.000
G1 X179.547 Y56.751 E21.23889
G1 X180.441 Y57.241 E21.35998
G1 X181.132 Y57.688 E21.45772
G1 X181.734 Y58.136 E21.54689
G1 X182.309 Y58.619 E21.63607
G1 X183.135 Y59.433 E21.77383
G1 X183.795 Y60.211 E21.89495
G1 X184.280 Y60.875 E21.99267
G1 X184.885 Y61.865 E22.13044
G1 X185.338 Y62.779 E22.25153
G1 X185.648 Y63.541 E22.34929
G1 X185.996 Y64.648 E22.48705
G1 X186.228 Y65.715 E22.61676
G1 X186.332 Y66.458 E22.70593
G1 X186.402 Y67.555 E22.83642
G1 X186.990 Y132.384 E30.53615
G1 X186.919 Y133.542 E30.67391
G1 X186.753 Y134.621 E30.80361
G1 X186.584 Y135.353 E30.89280
G1 X186.392 Y136.003 E30.97332
G1 X186.236 Y136.459 E31.03057
G1 X185.955 Y137.155 E31.11974
G1 X185.473 Y138.135 E31.24941
G1 X185.092 Y138.782 E31.33860
G1 X184.672 Y139.404 E31.42778
G1 X183.951 Y140.313 E31.56552
G1 X183.248 Y141.052 E31.68660
G1 X182.639 Y141.605 E31.78437
G1 X182.051 Y142.073 E31.87356
G1 X181.091 Y142.723 E32.01130
G1 X180.134 Y143.249 E32.14099
G1 X179.451 Y143.561 E32.23018
G1 X173.648 Y145.930 E32.97461
G1 X171.112 Y146.427 E33.28148
G1 X131.112 Y146.427 E38.03209
G1 X19.250 Y145.230 E51.31823
G1 X16.979 Y144.808 E51.59246
G1 X14.986 Y143.643 E51.86668
G1 X13.506 Y141.871 E52.14091
G1 X12.713 Y139.702 E52.41513
G1 X12.607 Y138.516 E52.55659
G1 X12.607 Y123.508 E54.33896
G1 X12.678 Y60.279 E61.84837
G1 X13.077 Y58.005 E62.12259
G1 X14.224 Y56.001 E62.39682
G1 X15.981 Y54.504 E62.67104
G1 X18.086 Y53.711 E62.93814
G1 E60.93814 F2400.00000
G92 E0
G1 X172.377 Y70.610 F11400.000
G1 E2.00000 F2400.00000
G1 X172.001 Y70.343 E2.05477 F1800.000
G1 X171.653 Y70.013 E2.11170
G1 X171.396 Y69.692 E2.16054
G1 X171.132 Y69.252 E2.22140
G1 X170.958 Y68.826 E2.27608
G1 X170.840 Y68.360 E2.33321
G1 X170.793 Y67.911 E2.38689
G1 X170.793 Y67.663 E2.41626
G1 X170.841 Y67.207 E2.47078
G1 X170.955 Y66.754 E2.52624
G1 X171.129 Y66.330 E2.58066
G1 X171.401 Y65.876 E2.64350
G1 X171.655 Y65.559 E2.69175
G1 X171.863 Y65.352 E2.72654
G1 X172.175 Y65.097 E2.77449
G1 X172.381 Y64.962 E2.80375
G1 X172.783 Y64.754 E2.85743
G1 X173.013 Y64.665 E2.88681
G1 X173.459 Y64.544 E2.94158
G1 X173.968 Y64.486 E3.00245 F1800.000
G1 X174.379 Y64.496 E3.05129
G1 X174.623 Y64.526 E3.08056
G1 X175.064 Y64.629 E3.13424
G1 X175.295 Y64.709 E3.16331
G1 X175.667 Y64.879 E3.21190
G1 X175.917 Y65.032 E3.24669
G1 X176.276 Y65.306 E3.30037
G1 X176.457 Y65.478 E3.32999
G1 X176.781 Y65.866 E3.39002
G1 X176.999 Y66.214 E3.43886
G1 X177.109 Y66.435 E3.46813
G1 X177.265 Y66.860 E3.52181
G1 X177.325 Y67.099 E3.55118
G1 X177.389 Y67.547 E3.60486
G1 X177.389 Y68.027 E3.66188
G1 X177.325 Y68.474 E3.71556
G1 X177.265 Y68.714 E3.74493
G1 X177.106 Y69.144 E3.79935
G1 X176.913 Y69.507 E3.84814
G1 X176.750 Y69.751 E3.88303
G1 X176.455 Y70.097 E3.93702
G1 X176.277 Y70.267 E3.96628
G1 X175.951 Y70.518 E4.01513
G1 X175.508 Y70.773 E4.07589
G1 X175.124 Y70.925 E4.12493
G1 X174.848 Y71.003 E4.15899
G1 X174.609 Y71.050 E4.18782
G1 X174.152 Y71.091 E4.24234
G1 X173.694 Y71.066 E4.29686
G1 X173.224 Y70.974 E4.35379
G1 X172.835 Y70.840 E4.40263
G1 X172.430 Y70.637 E4.45637
G1 X170.125 Y71.305 F11400.000
G1 X170.125 Y74.887 E4.88178 F1800.000
G1 X130.925 Y74.887 E9.53737
G1 X130.925 Y60.687 E11.22384
G1 X170.125 Y60.687 E15.87943
G1 X170.125 Y64.269 E16.30484
G1 X171.183 Y63.482 E16.46148
G1 X171.445 Y63.316 E16.49825
G1 X172.014 Y63.025 E16.57421
G1 X172.609 Y62.807 E16.64946
G1 X173.232 Y62.662 E16.72543
G1 X173.851 Y62.596 E16.79932
G1 X174.426 Y62.603 E16.86767
G1 X175.111 Y62.691 E16.94970
G1 X175.730 Y62.855 E17.02567
G1 X176.318 Y63.091 E17.10091
G1 X176.873 Y63.396 E17.17616
G1 X177.386 Y63.767 E17.25140
G1 X177.856 Y64.202 E17.32737
G1 X178.059 Y64.429 E17.36356
G1 X178.442 Y64.941 E17.43953
G1 X178.756 Y65.492 E17.51478
G1 X179.003 Y66.082 E17.59075
G1 X179.094 Y66.373 E17.62703
G1 X179.218 Y66.935 E17.69538
G1 X179.269 Y67.314 E17.74080
G1 X179.288 Y67.622 E17.77747
G1 X179.268 Y68.268 E17.85416
G1 X179.231 Y68.571 E17.89044
G1 X179.111 Y69.134 E17.95880
G1 X179.000 Y69.500 E18.00421
G1 X178.890 Y69.788 E18.04088
G1 X178.604 Y70.367 E18.11758
G1 X178.445 Y70.628 E18.15385
G1 X178.103 Y71.091 E18.22221
G1 X177.626 Y71.599 E18.30496
G1 X177.391 Y71.804 E18.34197
G1 X176.925 Y72.142 E18.41033
G1 X176.323 Y72.481 E18.49235
G1 X175.730 Y72.719 E18.56832
G1 X175.117 Y72.881 E18.64357
G1 X174.484 Y72.969 E18.71954
G1 X174.179 Y72.983 E18.75573
G1 X173.534 Y72.953 E18.83243
G1 X173.232 Y72.911 E18.86871
G1 X172.671 Y72.783 E18.93706
G1 X172.020 Y72.551 E19.01909
G1 X171.445 Y72.257 E19.09578
G1 X171.183 Y72.092 E19.13255
G1 X170.173 Y71.341 E19.28207
G1 X169.777 Y70.354 F11400.000
G1 X160.546 Y61.122 E20.86119 F1800.000
G1 X159.517 Y61.122 E20.98560
G1 X169.689 Y71.295 E22.72557
G1 X169.689 Y72.323 E22.84998
G1 X158.488 Y61.122 E24.76590
G1 X157.460 Y61.122 E24.89030
G1 X169.689 Y73.352 E26.98216
G1 X169.689 Y74.380 E27.10656
G1 X156.431 Y61.122 E29.37436
G1 X155.403 Y61.122 E29.49876
G1 X168.732 Y74.451 E31.77870
G1 X167.703 Y74.451 E31.90311
G1 X154.374 Y61.122 E34.18305
G1 X153.346 Y61.122 E34.30746
G1 X166.675 Y74.451 E36.58740
G1 X165.646 Y74.451 E36.71180
G1 X152.317 Y61.122 E38.99174
G1 X151.288 Y61.122 E39.11615
G1 X164.617 Y74.451 E41.39609
G1 X163.589 Y74.451 E41.52050
G1 X150.260 Y61.122 E43.80043
G1 X149.231 Y61.122 E43.92484
G1 X162.560 Y74.451 E46.20478
G1 X161.532 Y74.451 E46.32919
G1 X148.203 Y61.122 E48.60913
G1 X147.174 Y61.122 E48.73353
G1 X160.503 Y74.451 E51.01347
G1 X159.475 Y74.451 E51.13788
G1 X146.146 Y61.122 E53.41782
G1 X145.117 Y61.122 E53.54223
G1 X158.446 Y74.451 E55.82217
G1 X157.417 Y74.451 E55.94657
G1 X144.088 Y61.122 E58.22651
G1 X143.060 Y61.122 E58.35092
G1 X156.389 Y74.451 E60.63086
G1 X155.360 Y74.451 E60.75527
G1 X142.031 Y61.122 E63.03521
G1 X141.003 Y61.122 E63.15961
G1 X154.332 Y74.451 E65.43955
G1 X153.303 Y74.451 E65.56396
G1 X139.974 Y61.122 E67.84390
G1 X138.946 Y61.122 E67.96830
G1 X152.275 Y74.451 E70.24824
G1 X151.246 Y74.451 E70.37265
G1 X137.917 Y61.122 E72.65259
G1 X136.888 Y61.122 E72.77700
G1 X150.217 Y74.451 E75.05694
G1 X149.189 Y74.451 E75.18134
G1 X135.860 Y61.122 E77.46128
G1 X134.831 Y61.122 E77.58569
G1 X148.160 Y74.451 E79.86563
G1 X147.132 Y74.451 E79.99004
G1 X133.803 Y61.122 E82.26997
G1 X132.774 Y61.122 E82.39438
G1 X146.103 Y74.451 E84.67432
G1 X145.075 Y74.451 E84.79873
G1 X131.746 Y61.122 E87.07867
G1 X131.360 Y61.766 E87.16936
G1 X144.046 Y74.451 E89.33928
G1 X143.017 Y74.451 E89.46369
G1 X131.360 Y62.794 E91.45767
G1 X131.360 Y63.823 E91.58208
G1 X141.989 Y74.451 E93.40013
G1 X140.960 Y74.451 E93.52453
G1 X131.360 Y64.851 E95.16664
G1 X131.360 Y65.880 E95.29105
G1 X139.932 Y74.451 E96.75722
G1 X138.903 Y74.451 E96.88162
G1 X131.360 Y66.908 E98.17186
G1 X131.360 Y67.937 E98.29626
G1 X137.875 Y74.451 E99.41056
G1 X136.846 Y74.451 E99.53497
G1 X131.360 Y68.966 E100.47332
G1 X131.360 Y69.994 E100.59773
G1 X135.817 Y74.451 E101.36015
G1 X134.789 Y74.451 E101.48455
G1 X131.360 Y71.023 E102.07103
G1 X131.360 Y72.051 E102.19544
G1 X133.760 Y74.451 E102.60598
G1 X132.732 Y74.451 E102.73039
G1 X131.360 Y73.080 E102.96499
G1 X131.360 Y74.108 E103.08940
G1 X131.703 Y74.451 E103.14807
G1 X161.574 Y61.122 F11400.000
G1 X172.730 Y72.279 E105.05638 F1800.000
G1 X172.845 Y71.365 E105.16776
G1 X174.012 Y72.532 E105.36734
G1 X174.988 Y72.479 E105.48551
G1 X174.034 Y71.525 E105.64862
G1 X174.926 Y71.389 E105.75774
G1 X175.806 Y72.268 E105.90819
G1 X176.507 Y71.941 E106.00179
G1 X175.679 Y71.113 E106.14335
G1 X176.309 Y70.715 E106.23352
G1 X177.126 Y71.532 E106.37328
G1 X177.647 Y71.024 E106.46125
G1 X176.842 Y70.219 E106.59897
G1 X177.281 Y69.629 E106.68789
G1 X178.106 Y70.455 E106.82912
G1 X178.464 Y69.783 E106.92110
G1 X177.605 Y68.925 E107.06792
G1 X177.800 Y68.091 E107.17152
G1 X178.721 Y69.012 E107.32905
G1 X178.842 Y68.105 E107.43976
G1 X177.780 Y67.043 E107.62138
G1 X178.745 Y66.979 E107.73833
G1 X176.957 Y65.191 E108.04423
G1 X177.784 Y64.989 F11400.000
G1 X176.900 Y64.106 E108.19536 F1800.000
G1 X176.671 Y64.905 E108.29595
G1 X174.896 Y63.130 E108.59965
G1 X174.830 Y64.093 E108.71639
G1 X173.770 Y63.032 E108.89776
G1 X172.871 Y63.162 E109.00758
G1 X173.793 Y64.084 E109.16527
G1 X172.950 Y64.270 E109.26964
G1 X172.095 Y63.414 E109.41601
G1 X171.427 Y63.775 E109.50781
G1 X172.250 Y64.599 E109.64866
G1 X171.659 Y65.036 E109.73760
G1 X170.833 Y64.210 E109.87893
G1 X170.243 Y64.648 E109.96785
G1 X171.166 Y65.571 E110.12568
G1 X170.765 Y66.199 E110.21578
G1 X165.688 Y61.122 E111.08417
G1 X164.660 Y61.122 E111.20858
G1 X170.490 Y66.952 E112.20578
G1 X170.357 Y67.848 E112.31533
G1 X163.631 Y61.122 E113.46579
G1 X162.603 Y61.122 E113.59020
G1 X170.520 Y69.039 E114.94441
G1 X169.689 Y64.095 F11400.000
G1 X166.717 Y61.122 E115.45282 F1800.000
G1 X167.746 Y61.122 E115.57723
G1 X169.689 Y63.066 E115.90970
G1 X169.689 Y62.038 E116.03411
G1 X168.774 Y61.122 E116.19064
G1 E114.19064 F2400.00000
G92 E0
G1 X170.605 Y76.287 F11400.000
G1 X170.929 Y78.287 F11400.000
G1 X171.091 Y78.287 F11400.000
G1 X170.764 Y80.313 F11400.000
G1 X171.653 Y91.013 F11400.000
G1 E2.00000 F2400.00000
G1 X171.396 Y90.692 E2.04884 F1800.000
G1 X171.132 Y90.252 E2.10971
G1 X170.958 Y89.826 E2.16439
G1 X170.840 Y89.360 E2.22151
G1 X170.793 Y88.911 E2.27519
G1 X170.793 Y88.663 E2.30456
G1 X170.841 Y88.207 E2.35909
G1 X170.955 Y87.754 E2.41454
G1 X171.129 Y87.330 E2.46897
G1 X171.244 Y87.116 E2.49780
G1 X171.401 Y86.876 E2.53186
G1 X171.655 Y86.559 E2.58011
G1 X171.863 Y86.352 E2.61490
G1 X172.175 Y86.097 E2.66285
G1 X172.381 Y85.962 E2.69211
G1 X172.783 Y85.754 E2.74579
G1 X173.013 Y85.665 E2.77516
G1 X173.459 Y85.544 E2.82994
G1 X173.968 Y85.486 E2.89080 F1800.000
G1 X174.379 Y85.496 E2.93965
G1 X174.623 Y85.526 E2.96891
G1 X175.064 Y85.629 E3.02259
G1 X175.295 Y85.709 E3.05167
G1 X175.667 Y85.879 E3.10026
G1 X175.917 Y86.032 E3.13505
G1 X176.276 Y86.306 E3.18873
G1 X176.457 Y86.478 E3.21835
G1 X176.781 Y86.866 E3.27838
G1 X176.999 Y87.214 E3.32722
G1 X177.109 Y87.435 E3.35649
G1 X177.265 Y87.860 E3.41016
G1 X177.325 Y88.099 E3.43954
G1 X177.389 Y88.547 E3.49322
G1 X177.389 Y89.027 E3.55024
G1 X177.325 Y89.474 E3.60392
G1 X177.265 Y89.714 E3.63329
G1 X177.106 Y90.144 E3.68771
G1 X176.913 Y90.507 E3.73650
G1 X176.750 Y90.751 E3.77139
G1 X176.455 Y91.097 E3.82538
G1 X176.277 Y91.267 E3.85464
G1 X175.951 Y91.518 E3.90349
G1 X175.508 Y91.773 E3.96425
G1 X175.124 Y91.925 E4.01329
G1 X174.848 Y92.003 E4.04734
G1 X174.609 Y92.050 E4.07618
G1 X174.152 Y92.091 E4.13070
G1 X173.694 Y92.066 E4.18522
G1 X173.224 Y91.974 E4.24214
G1 X172.835 Y91.840 E4.29099
G1 X172.377 Y91.610 E4.35186
G1 X172.001 Y91.343 E4.40663
G1 X171.695 Y91.056 E4.45643
G1 X170.125 Y92.305 F11400.000
G1 X170.125 Y95.887 E4.88184 F1800.000
G1 X130.925 Y95.887 E9.53743
G1 X130.925 Y81.687 E11.22390
G1 X170.125 Y81.687 E15.87949
G1 X170.125 Y85.269 E16.30490
G1 X171.183 Y84.482 E16.46154
G1 X171.445 Y84.316 E16.49831
G1 X172.014 Y84.025 E16.57427
G1 X172.609 Y83.807 E16.64952
G1 X173.232 Y83.662 E16.72549
G1 X173.851 Y83.596 E16.79937
G1 X174.426 Y83.603 E16.86773
G1 X175.111 Y83.691 E16.94976
G1 X175.730 Y83.855 E17.02573
G1 X176.318 Y84.091 E17.10097
G1 X176.873 Y84.396 E17.17622
G1 X177.386 Y84.767 E17.25146
G1 X177.856 Y85.202 E17.32743
G1 X178.059 Y85.429 E17.36362
G1 X178.442 Y85.941 E17.43959
G1 X178.756 Y86.492 E17.51484
G1 X179.003 Y87.082 E17.59081
G1 X179.094 Y87.373 E17.62709
G1 X179.218 Y87.935 E17.69544
G1 X179.269 Y88.314 E17.74086
G1 X179.288 Y88.622 E17.77752
G1 X179.268 Y89.268 E17.85422
G1 X179.231 Y89.571 E17.89050
G1 X179.111 Y90.134 E17.95886
G1 X179.000 Y90.500 E18.00427
G1 X178.890 Y90.788 E18.04094
G1 X178.604 Y91.367 E18.11763
G1 X178.445 Y91.628 E18.15391
G1 X178.103 Y92.091 E18.22227
G1 X177.626 Y92.599 E18.30502
G1 X177.391 Y92.804 E18.34203
G1 X176.925 Y93.142 E18.41038
G1 X176.323 Y93.481 E18.49241
G1 X175.730 Y93.719 E18.56838
G1 X175.117 Y93.881 E18.64363
G1 X174.484 Y93.969 E18.71960
G1 X174.179 Y93.983 E18.75579
G1 X173.534 Y93.953 E18.83249
G1 X173.232 Y93.911 E18.86876
G1 X172.671 Y93.783 E18.93712
G1 X172.020 Y93.551 E19.01915
G1 X171.445 Y93.257 E19.09584
G1 X171.183 Y93.092 E19.13261
G1 X170.173 Y92.341 E19.28213
G1 X169.777 Y91.354 F11400.000
G1 X160.546 Y82.122 E20.86125 F1800.000
G1 X159.517 Y82.122 E20.98566
G1 X169.689 Y92.295 E22.72563
G1 X169.689 Y93.323 E22.85004
G1 X158.488 Y82.122 E24.76596
G1 X157.460 Y82.122 E24.89036
G1 X169.689 Y94.352 E26.98222
G1 X169.689 Y95.380 E27.10662
G1 X156.431 Y82.122 E29.37442
G1 X155.403 Y82.122 E29.49882
G1 X168.732 Y95.451 E31.77876
G1 X167.703 Y95.451 E31.90317
G1 X154.374 Y82.122 E34.18311
G1 X153.346 Y82.122 E34.30752
G1 X166.675 Y95.451 E36.58745
G1 X165.646 Y95.451 E36.71186
G1 X152.317 Y82.122 E38.99180
G1 X151.288 Y82.122 E39.11621
G1 X164.617 Y95.451 E41.39615
G1 X163.589 Y95.451 E41.52055
G1 X150.260 Y82.122 E43.80049
G1 X149.231 Y82.122 E43.92490
G1 X162.560 Y95.451 E46.20484
G1 X161.532 Y95.451 E46.32925
G1 X148.203 Y82.122 E48.60919
G1 X147.174 Y82.122 E48.73359
G1 X160.503 Y95.451 E51.01353
G1 X159.475 Y95.451 E51.13794
G1 X146.146 Y82.122 E53.41788
G1 X145.117 Y82.122 E53.54229
G1 X158.446 Y95.451 E55.82223
G1 X157.417 Y95.451 E55.94663
G1 X144.088 Y82.122 E58.22657
G1 X143.060 Y82.122 E58.35098
G1 X156.389 Y95.451 E60.63092
G1 X155.360 Y95.451 E60.75533
G1 X142.031 Y82.122 E63.03527
G1 X141.003 Y82.122 E63.15967
G1 X154.332 Y95.451 E65.43961
G1 X153.303 Y95.451 E65.56402
G1 X139.974 Y82.122 E67.84396
G1 X138.946 Y82.122 E67.96836
G1 X152.275 Y95.451 E70.24830
G1 X151.246 Y95.451 E70.37271
G1 X137.917 Y82.122 E72.65265
G1 X136.888 Y82.122 E72.77706
G1 X150.217 Y95.451 E75.05700
G1 X149.189 Y95.451 E75.18140
G1 X135.860 Y82.122 E77.46134
G1 X134.831 Y82.122 E77.58575
G1 X148.160 Y95.451 E79.86569
G1 X147.132 Y95.451 E79.99010
G1 X133.803 Y82.122 E82.27003
G1 X132.774 Y82.122 E82.39444
G1 X146.103 Y95.451 E84.67438
G1 X145.075 Y95.451 E84.79879
G1 X131.746 Y82.122 E87.07873
G1 X131.360 Y82.766 E87.16942
G1 X144.046 Y95.451 E89.33934
G1 X143.017 Y95.451 E89.46375
G1 X131.360 Y83.794 E91.45773
G1 X131.360 Y84.823 E91.58214
G1 X141.989 Y95.451 E93.40018
G1 X140.960 Y95.451 E93.52459
G1 X131.360 Y85.851 E95.16670
G1 X131.360 Y86.880 E95.29111
G1 X139.932 Y95.451 E96.75728
G1 X138.903 Y95.451 E96.88168
G1 X131.360 Y87.908 E98.17192
G1 X131.360 Y88.937 E98.29632
G1 X137.875 Y95.451 E99.41062
G1 X136.846 Y95.451 E99.53502
G1 X131.360 Y89.966 E100.47338
G1 X131.360 Y90.994 E100.59779
G1 X135.817 Y95.451 E101.36021
G1 X134.789 Y95.451 E101.48461
G1 X131.360 Y92.023 E102.07109
G1 X131.360 Y93.051 E102.19550
G1 X133.760 Y95.451 E102.60604
G1 X132.732 Y95.451 E102.73045
G1 X131.360 Y94.080 E102.96505
G1 X131.360 Y95.108 E103.08946
G1 X131.703 Y95.451 E103.14813
G1 X161.574 Y82.122 F11400.000
G1 X172.730 Y93.279 E105.05644 F1800.000
G1 X172.845 Y92.365 E105.16782
G1 X174.012 Y93.532 E105.36740
G1 X174.988 Y93.479 E105.48557
G1 X174.034 Y92.525 E105.64867
G1 X174.926 Y92.389 E105.75780
G1 X175.806 Y93.268 E105.90825
G1 X176.507 Y92.941 E106.00185
G1 X175.679 Y92.113 E106.14341
G1 X176.309 Y91.715 E106.23358
G1 X177.126 Y92.532 E106.37334
G1 X177.647 Y92.024 E106.46131
G1 X176.842 Y91.219 E106.59903
G1 X177.281 Y90.629 E106.68795
G1 X178.106 Y91.455 E106.82918
G1 X178.464 Y90.783 E106.92116
G1 X177.605 Y89.925 E107.06798
