; generated by Slic3r 1.2.9 on 2016-06-09 at 15:51:35

; external perimeters extrusion width = 0.40mm
; perimeters extrusion width = 0.42mm
; infill extrusion width = 0.42mm
; solid infill extrusion width = 0.42mm
; top infill extrusion width = 0.42mm
; support material extrusion width = 0.40mm

M107
M190 S55 ; set bed temperature
M104 S200 ; set temperature
G28 ; home all axes
G1 Z5 F5000 ; lift nozzle

M109 S200 ; wait for temperature to be reached
G21 ; set units to millimeters
G90 ; use absolute coordinates
M82 ; use absolute distances for extrusion
G92 E0
G1 Z0.400 F11400.000
G1 E-2.00000 F2400.00000
G92 E0
G1 X71.800 Y86.720 F11400.000
G1 E2.00000 F2400.00000
G1 X73.960 Y85.905 E2.27422 F1800.000
G1 X75.217 Y85.786 E2.42419
G1 X115.217 Y85.786 E7.17480
G1 X117.752 Y86.283 E7.48167
G1 X123.404 Y88.588 E8.20658 F1800.000
G1 X123.869 Y88.789 E8.26666
G1 X124.543 Y89.119 E8.35584
G1 X125.541 Y89.710 E8.49359
G1 X126.427 Y90.349 E8.62328
G1 X127.001 Y90.833 E8.71246
G1 X127.827 Y91.646 E8.85022
G1 X128.532 Y92.481 E8.97992
G1 X128.972 Y93.089 E9.06906
G1 X129.375 Y93.723 E9.15824
G1 X129.738 Y94.380 E9.24742
G1 X130.030 Y94.992 E9.32797
G1 X130.218 Y95.436 E9.38520
G1 X130.475 Y96.141 E9.47438
G1 X130.771 Y97.192 E9.60407
G1 X130.982 Y98.333 E9.74183
G1 X131.061 Y99.079 E9.83098
G1 X131.094 Y99.829 E9.92016
G1 X131.061 Y100.921 E10.04986
G1 X130.920 Y102.072 E10.18762
G1 X130.688 Y103.139 E10.31732
G1 X130.475 Y103.859 E10.40648
G1 X130.218 Y104.564 E10.49563
G1 X129.738 Y105.620 E10.63339
G1 X129.196 Y106.569 E10.76309
G1 X128.777 Y107.191 E10.85227
G1 X128.365 Y107.730 E10.93280
G1 X128.055 Y108.100 E10.99005
G1 X127.544 Y108.650 E11.07921
G1 X126.743 Y109.392 E11.20890
G1 X126.156 Y109.860 E11.29809
G1 X125.195 Y110.509 E11.43583
G1 X124.239 Y111.036 E11.56552
G1 X123.404 Y111.412 E11.67422
G1 X117.752 Y113.717 E12.39913
G1 X115.217 Y114.214 E12.70600
G1 X75.217 Y114.214 E17.45661
G1 X72.942 Y113.817 E17.73084
G1 X70.937 Y112.673 E18.00506
G1 X69.437 Y110.917 E18.27929
G1 X68.621 Y108.757 E18.55351
G1 X68.503 Y107.500 E18.70348
G1 X68.503 Y92.500 E20.48495
G1 X68.900 Y90.225 E20.75918
G1 X70.044 Y88.220 E21.03340
G1 X71.754 Y86.759 E21.30050
G1 E19.30050 F2400.00000
G92 E0
G1 X119.816 Y103.138 F11400.000
G1 E2.00000 F2400.00000
G1 X119.302 Y103.263 E2.06284 F1800.000
G1 X118.844 Y103.304 E2.11736
G1 X118.386 Y103.279 E2.17188
G1 X117.916 Y103.187 E2.22880
G1 X117.527 Y103.053 E2.27764
G1 X117.069 Y102.823 E2.33851
G1 X116.693 Y102.556 E2.39328
G1 X116.513 Y102.397 E2.42182
G1 X116.345 Y102.226 E2.45024
G1 X116.088 Y101.905 E2.49908
G1 X115.824 Y101.466 E2.55995
G1 X115.650 Y101.039 E2.61463
G1 X115.581 Y100.802 E2.64399
G1 X115.509 Y100.405 E2.69194
G1 X115.484 Y100.112 E2.72683
G1 X115.500 Y99.658 E2.78082
G1 X115.535 Y99.413 E2.81019
G1 X115.647 Y98.967 E2.86481
G1 X115.821 Y98.543 E2.91923
G1 X115.936 Y98.329 E2.94807
G1 X116.093 Y98.089 E2.98212
G1 X116.347 Y97.772 E3.03038
G1 X116.555 Y97.566 E3.06516
G1 X116.868 Y97.310 E3.11311
G1 X117.073 Y97.175 E3.14238
G1 X117.475 Y96.968 E3.19606
G1 X117.705 Y96.878 E3.22543
G1 X118.151 Y96.757 E3.28020
G1 X118.660 Y96.700 E3.34107 F1800.000
G1 X119.071 Y96.709 E3.38991
G1 X119.316 Y96.739 E3.41918
G1 X119.756 Y96.842 E3.47286
G1 X119.987 Y96.922 E3.50193
G1 X120.359 Y97.093 E3.55052
G1 X120.609 Y97.245 E3.58531
G1 X120.968 Y97.520 E3.63899
G1 X121.149 Y97.691 E3.66861
G1 X121.473 Y98.079 E3.72864
G1 X121.691 Y98.428 E3.77748
G1 X121.801 Y98.649 E3.80675
G1 X121.957 Y99.073 E3.86043
G1 X122.017 Y99.312 E3.88980
G1 X122.081 Y99.760 E3.94348
G1 X122.081 Y100.240 E4.00050
G1 X122.017 Y100.688 E4.05418
G1 X121.957 Y100.926 E4.08345
G1 X121.817 Y101.313 E4.13229
G1 X121.582 Y101.760 E4.19232
G1 X121.441 Y101.966 E4.22194
G1 X121.147 Y102.310 E4.27562
G1 X120.969 Y102.480 E4.30489
G1 X120.643 Y102.731 E4.35373
G1 X120.200 Y102.986 E4.41449
G1 X119.871 Y103.116 E4.45641
G1 X114.817 Y103.518 F11400.000
G1 X114.817 Y107.100 E4.88181 F1800.000
G1 X75.617 Y107.100 E9.53741
G1 X75.617 Y92.900 E11.22388
G1 X114.817 Y92.900 E15.87948
G1 X114.817 Y96.482 E16.30488
G1 X115.875 Y95.695 E16.46152
G1 X116.137 Y95.529 E16.49829
G1 X116.706 Y95.238 E16.57425
G1 X117.302 Y95.020 E16.64958
G1 X117.856 Y94.889 E16.71721
G1 X118.228 Y94.834 E16.76191
G1 X118.871 Y94.804 E16.83835
G1 X119.176 Y94.818 E16.87454
G1 X119.809 Y94.906 E16.95051
G1 X120.422 Y95.068 E17.02575
G1 X121.010 Y95.304 E17.10100
G1 X121.565 Y95.609 E17.17624
G1 X122.079 Y95.980 E17.25149
G1 X122.548 Y96.415 E17.32746
G1 X122.751 Y96.642 E17.36365
G1 X123.134 Y97.155 E17.43962
G1 X123.448 Y97.705 E17.51486
G1 X123.695 Y98.295 E17.59083
G1 X123.786 Y98.586 E17.62711
G1 X123.910 Y99.148 E17.69547
G1 X123.961 Y99.527 E17.74089
G1 X123.980 Y99.835 E17.77755
G1 X123.960 Y100.481 E17.85425
G1 X123.923 Y100.784 E17.89052
G1 X123.803 Y101.347 E17.95888
G1 X123.692 Y101.713 E18.00430
G1 X123.582 Y102.001 E18.04096
G1 X123.296 Y102.581 E18.11766
G1 X123.137 Y102.841 E18.15394
G1 X122.795 Y103.304 E18.22230
G1 X122.318 Y103.812 E18.30505
G1 X122.083 Y104.016 E18.34197
G1 X121.565 Y104.391 E18.41794
G1 X121.010 Y104.696 E18.49318
G1 X120.422 Y104.932 E18.56843
G1 X119.809 Y105.094 E18.64367
G1 X119.176 Y105.182 E18.71964
G1 X118.871 Y105.196 E18.75583
G1 X118.226 Y105.166 E18.83253
G1 X117.924 Y105.124 E18.86881
G1 X117.363 Y104.996 E18.93716
G1 X116.712 Y104.765 E19.01919
G1 X116.137 Y104.471 E19.09589
G1 X115.875 Y104.305 E19.13265
G1 X114.865 Y103.554 E19.28217
G1 X114.470 Y102.567 F11400.000
G1 X105.238 Y93.336 E20.86130 F1800.000
G1 X104.209 Y93.336 E20.98571
G1 X114.381 Y103.508 E22.72569
G1 X114.381 Y104.536 E22.85010
G1 X103.180 Y93.336 E24.76602
G1 X102.152 Y93.336 E24.89043
G1 X114.381 Y105.565 E26.98228
G1 X114.381 Y106.593 E27.10669
G1 X101.123 Y93.336 E29.37449
G1 X100.095 Y93.336 E29.49890
G1 X113.424 Y106.664 E31.77884
G1 X112.395 Y106.664 E31.90325
G1 X99.066 Y93.336 E34.18319
G1 X98.038 Y93.336 E34.30760
G1 X111.367 Y106.664 E36.58754
G1 X110.338 Y106.664 E36.71195
G1 X97.009 Y93.336 E38.99189
G1 X95.980 Y93.336 E39.11630
G1 X109.309 Y106.664 E41.39625
G1 X108.281 Y106.664 E41.52065
G1 X94.952 Y93.336 E43.80060
G1 X93.923 Y93.336 E43.92500
G1 X107.252 Y106.664 E46.20495
G1 X106.224 Y106.664 E46.32936
G1 X92.895 Y93.336 E48.60930
G1 X91.866 Y93.336 E48.73371
G1 X105.195 Y106.664 E51.01365
G1 X104.167 Y106.664 E51.13806
G1 X90.838 Y93.336 E53.41800
G1 X89.809 Y93.336 E53.54241
G1 X103.138 Y106.664 E55.82236
G1 X102.109 Y106.664 E55.94676
G1 X88.781 Y93.336 E58.22671
G1 X87.752 Y93.336 E58.35111
G1 X101.081 Y106.664 E60.63106
G1 X100.052 Y106.664 E60.75547
G1 X86.723 Y93.336 E63.03541
G1 X85.695 Y93.336 E63.15982
G1 X99.024 Y106.664 E65.43976
G1 X97.995 Y106.664 E65.56417
G1 X84.666 Y93.336 E67.84411
G1 X83.638 Y93.336 E67.96852
G1 X96.967 Y106.664 E70.24846
G1 X95.938 Y106.664 E70.37287
G1 X82.609 Y93.336 E72.65282
G1 X81.581 Y93.336 E72.77722
G1 X94.910 Y106.664 E75.05717
G1 X93.881 Y106.664 E75.18157
G1 X80.552 Y93.336 E77.46152
G1 X79.523 Y93.336 E77.58593
G1 X92.852 Y106.664 E79.86587
G1 X91.824 Y106.664 E79.99028
G1 X78.495 Y93.336 E82.27022
G1 X77.466 Y93.336 E82.39463
G1 X90.795 Y106.664 E84.67457
G1 X89.767 Y106.664 E84.79898
G1 X76.438 Y93.336 E87.07892
G1 X76.052 Y93.979 E87.16961
G1 X88.738 Y106.664 E89.33954
G1 X87.710 Y106.664 E89.46395
G1 X76.052 Y95.007 E91.45793
G1 X76.052 Y96.036 E91.58234
G1 X86.681 Y106.664 E93.40039
G1 X85.652 Y106.664 E93.52480
G1 X76.052 Y97.064 E95.16691
G1 X76.052 Y98.093 E95.29132
G1 X84.624 Y106.664 E96.75749
G1 X83.595 Y106.664 E96.88190
G1 X76.052 Y99.122 E98.17213
G1 X76.052 Y100.150 E98.29654
G1 X82.567 Y106.664 E99.41083
G1 X81.538 Y106.664 E99.53524
G1 X76.052 Y101.179 E100.47360
G1 X76.052 Y102.207 E100.59800
G1 X80.510 Y106.664 E101.36042
G1 X79.481 Y106.664 E101.48483
G1 X76.052 Y103.236 E102.07131
G1 X76.052 Y104.264 E102.19572
G1 X78.452 Y106.664 E102.60626
G1 X77.424 Y106.664 E102.73067
G1 X76.052 Y105.293 E102.96527
G1 X76.052 Y106.322 E103.08968
G1 X76.395 Y106.664 E103.14835
G1 X115.182 Y99.165 F11400.000
G1 X109.352 Y93.336 E104.14555 F1800.000
G1 X108.323 Y93.336 E104.26996
G1 X115.055 Y100.067 E105.42144
G1 X115.207 Y101.248 E105.56537
G1 X107.295 Y93.336 E106.91874
G1 X106.266 Y93.336 E107.04315
G1 X117.423 Y104.492 E108.95147
G1 X117.537 Y103.578 E109.06285
G1 X118.704 Y104.745 E109.26244
G1 X119.680 Y104.692 E109.38061
G1 X118.726 Y103.738 E109.54372
G1 X119.618 Y103.602 E109.65284
G1 X120.498 Y104.481 E109.80330
G1 X121.201 Y104.156 E109.89701
G1 X120.371 Y103.326 E110.03889
G1 X121.001 Y102.928 E110.12906
G1 X121.818 Y103.745 E110.26878
G1 X122.339 Y103.237 E110.35676
G1 X121.534 Y102.432 E110.49447
G1 X121.971 Y101.841 E110.58343
G1 X122.799 Y102.668 E110.72491
G1 X123.156 Y101.997 E110.81689
G1 X122.298 Y101.139 E110.96363
G1 X122.492 Y100.304 E111.06728
G1 X123.413 Y101.225 E111.22481
G1 X123.534 Y100.318 E111.33552
G1 X122.472 Y99.256 E111.51714
G1 X123.437 Y99.192 E111.63410
G1 X121.649 Y97.404 E111.94003
G1 X122.476 Y97.202 F11400.000
G1 X121.592 Y96.319 E112.09115 F1800.000
G1 X121.363 Y97.118 E112.19176
G1 X119.588 Y95.343 E112.49547
G1 X119.522 Y96.306 E112.61222
G1 X118.468 Y95.252 E112.79251
G1 X117.562 Y95.375 E112.90308
G1 X118.485 Y96.297 E113.06092
G1 X117.642 Y96.483 E113.16530
G1 X116.787 Y95.627 E113.31167
G1 X116.119 Y95.988 E113.40347
G1 X116.942 Y96.812 E113.54432
G1 X116.351 Y97.249 E113.63327
G1 X115.525 Y96.423 E113.77460
G1 X114.935 Y96.861 E113.86352
G1 X115.858 Y97.784 E114.02135
G1 X115.457 Y98.412 E114.11145
G1 X110.380 Y93.336 E114.97984
G1 X111.409 Y93.336 E115.10425
G1 X114.381 Y96.308 E115.61267
G1 X114.381 Y95.279 E115.73707
G1 X112.438 Y93.336 E116.06955
G1 X113.466 Y93.336 E116.19395
G1 X114.381 Y94.251 E116.35049
G1 Z0.400 F11400.000
G1 Z0.800 F11400.000
G1 E114.35049 F2400.00000
G92 E0
G1 X116.729 Y101.879 F11400.000
G1 E2.00000 F2400.00000
G1 X116.486 Y101.573 E2.02041 F900.000
G1 X116.268 Y101.190 E2.04344
G1 X116.085 Y100.684 E2.07151
G1 X116.016 Y100.298 E2.09201
G1 X116.005 Y99.853 E2.11528
G1 X116.043 Y99.510 E2.13328
G1 X116.139 Y99.129 E2.15381
G1 X116.287 Y98.769 E2.17414
G1 X116.383 Y98.590 E2.18478
G1 X116.601 Y98.271 E2.20495
G1 X116.733 Y98.116 E2.21559
G1 X117.013 Y97.851 E2.23576
G1 X117.340 Y97.619 E2.25666
G1 X117.686 Y97.440 E2.27701
G1 X118.054 Y97.312 E2.29736
G1 X118.255 Y97.265 E2.30816
G1 X118.786 Y97.215 E2.33604 F900.000
G1 X119.226 Y97.249 E2.35907
G1 X119.606 Y97.337 E2.37948
G1 X119.798 Y97.404 E2.39010
G1 X120.107 Y97.548 E2.40791
G1 X120.482 Y97.789 E2.43118
G1 X120.773 Y98.047 E2.45151
G1 X120.998 Y98.308 E2.46950
G1 X121.140 Y98.510 E2.48242
G1 X121.304 Y98.811 E2.50031
G1 X121.401 Y99.039 E2.51326
G1 X121.510 Y99.414 E2.53368
G1 X121.565 Y99.800 E2.55403
G1 X121.565 Y100.200 E2.57493
G1 X121.510 Y100.586 E2.59528
G1 X121.400 Y100.963 E2.61582
G1 X121.240 Y101.318 E2.63617
G1 X120.998 Y101.692 E2.65944
G1 X120.773 Y101.953 E2.67744
G1 X120.482 Y102.211 E2.69776
G1 X120.107 Y102.452 E2.72104
G1 X119.798 Y102.596 E2.73885
G1 X119.606 Y102.663 E2.74946
G1 X119.227 Y102.751 E2.76982
G1 X118.835 Y102.786 E2.79035
G1 X118.446 Y102.765 E2.81070
G1 X118.010 Y102.674 E2.83398
G1 X117.685 Y102.560 E2.85197
G1 X117.338 Y102.380 E2.87237
G1 X117.133 Y102.241 E2.88532
G1 X116.771 Y101.921 E2.91058
G1 E0.91058 F2400.00000
G92 E0
G1 X115.017 Y104.342 F11400.000
G1 E2.00000 F2400.00000
G1 X115.017 Y107.300 E2.15456 F1800.000
G1 X75.417 Y107.300 E4.22346
G1 X75.417 Y92.700 E4.98623
G1 X115.017 Y92.700 E7.05513
G1 X115.017 Y95.658 E7.20969
G1 X115.878 Y95.081 E7.26388
G1 X116.501 Y94.763 E7.30040
G1 X116.902 Y94.608 E7.32288
G1 X117.490 Y94.435 E7.35488
G1 X118.180 Y94.318 E7.39146
G1 X118.870 Y94.287 E7.42754
G1 X119.571 Y94.340 E7.46426
G1 X119.908 Y94.397 E7.48215
G1 X120.585 Y94.577 E7.51871
G1 X121.233 Y94.837 E7.55520
G1 X121.614 Y95.037 E7.57768
G1 X122.130 Y95.367 E7.60969
G1 X122.672 Y95.811 E7.64627
G1 X122.916 Y96.051 E7.66416
G1 X123.367 Y96.585 E7.70071
G1 X123.749 Y97.168 E7.73711
G1 X124.057 Y97.795 E7.77361
G1 X124.207 Y98.199 E7.79609
G1 X124.371 Y98.791 E7.82819
G1 X124.444 Y99.215 E7.85069
G1 X124.498 Y99.828 E7.88285
G1 X124.498 Y100.171 E7.90076
G1 X124.433 Y100.871 E7.93748
G1 X124.371 Y101.208 E7.95537
G1 X124.180 Y101.884 E7.99209
G1 X124.058 Y102.204 E8.00998
G1 X123.749 Y102.832 E8.04654
G1 X123.367 Y103.415 E8.08294
G1 X122.918 Y103.947 E8.11933
G1 X122.404 Y104.422 E8.15589
G1 X122.133 Y104.631 E8.17378
G1 X121.540 Y105.006 E8.21044
G1 X121.155 Y105.198 E8.23292
G1 X120.585 Y105.423 E8.26492
G1 X119.908 Y105.603 E8.30150
G1 X119.571 Y105.660 E8.31939
G1 X118.871 Y105.713 E8.35604
G1 X118.441 Y105.702 E8.37853
G1 X117.832 Y105.634 E8.41053
G1 X117.152 Y105.475 E8.44704
G1 X116.745 Y105.335 E8.46953
G1 X116.182 Y105.086 E8.50169
G1 X115.881 Y104.921 E8.51962
G1 X115.067 Y104.375 E8.57083
G1 X114.832 Y104.458 F11400.000
G1 X114.497 Y104.399 E8.59341 F3600.000
G1 X114.141 Y103.828 E8.63814
G1 X115.385 Y104.047 E8.72206
G1 X115.432 Y103.546 E8.75545
G1 X114.340 Y103.354 E8.82915
G1 X114.478 Y102.869 E8.86261
G1 X115.479 Y103.046 E8.93018
G1 X115.526 Y102.545 E8.96357
G1 X113.924 Y102.263 E9.07162
G1 X114.222 Y101.807 E9.10780
G1 X116.709 Y102.245 E9.27557
G1 X116.269 Y101.659 E9.32425
G1 X114.519 Y101.350 E9.44231
G1 X114.816 Y100.894 E9.47848
G1 X115.155 Y100.954 E9.50136
G1 X114.808 Y100.581 F11400.000
G1 X114.694 Y100.269 E9.52466 F3600.000
G1 X114.457 Y101.119 E9.58649
G1 X113.931 Y99.673 E9.69428
G1 X113.636 Y100.362 E9.74680
G1 X114.107 Y101.657 E9.84329
G1 X113.636 Y101.863 E9.87930
G1 X113.748 Y102.171 E9.90231
G1 X115.688 Y102.563 F11400.000
G1 X121.603 Y104.716 E10.27519 F3600.000
G1 X121.014 Y105.008 E10.31414
G1 X115.625 Y103.047 E10.65386
G1 X115.579 Y103.537 E10.68300
G1 X120.292 Y105.252 E10.98013
G1 X119.346 Y105.414 E11.03697
G1 X115.533 Y104.026 E11.27738
G1 X116.442 Y104.864 F11400.000
G1 X117.483 Y105.243 E11.34301 F3600.000
G1 X118.392 Y103.041 F11400.000
G1 X121.852 Y104.300 E11.56115 F3600.000
G1 X121.820 Y103.782 E11.59189
G1 X119.500 Y102.938 E11.73819
G1 X120.198 Y102.686 E11.78217
G1 X121.789 Y103.264 E11.88245
G1 X121.434 Y102.629 E11.92556
G1 X121.757 Y102.747 E11.94593
G1 X122.207 Y102.161 F11400.000
G1 X121.870 Y102.102 E11.96875 F3600.000
G1 X121.905 Y102.617 E12.00314
G1 X122.340 Y102.694 E12.03256
G1 X122.472 Y103.227 E12.06910
G1 X121.936 Y103.132 E12.10536
G1 X121.967 Y103.647 E12.13969
G1 X122.605 Y103.759 E12.18279
G1 X122.310 Y104.216 E12.21901
G1 X121.999 Y104.162 E12.24006
G1 X122.700 Y103.497 F11400.000
G1 X123.017 Y103.497 E12.26469 F3600.000
G1 X122.949 Y102.959 E12.30685
G1 X122.566 Y102.959 E12.33662
G1 X122.453 Y102.421 E12.37937
G1 X122.744 Y102.421 E12.40202
G1 X123.132 Y103.018 F11400.000
G1 X123.426 Y102.867 E12.42427 F3600.000
G1 X122.951 Y102.544 E12.46292
G1 X123.472 Y102.277 E12.50229
G1 X123.208 Y101.846 E12.53631
G1 X122.771 Y102.070 E12.56938
G1 X122.590 Y101.596 E12.60350
G1 X122.945 Y101.415 E12.63028
G1 X122.681 Y100.984 E12.66430
G1 X122.130 Y101.265 E12.70591
G1 X122.307 Y100.829 F11400.000
G1 X122.307 Y100.509 E12.72940 F3600.000
G1 X122.832 Y100.366 E12.76934
G1 X122.832 Y100.838 E12.80399
G1 X123.356 Y100.950 E12.84338
G1 X123.356 Y101.695 E12.89814
G1 X123.880 Y101.533 E12.93845
G1 X123.880 Y101.900 E12.96540
G1 X123.865 Y101.199 F11400.000
G1 X124.180 Y101.171 E12.98420 F3600.000
G1 X124.265 Y100.685 E13.01354
G1 X123.466 Y100.755 E13.06119
G1 X123.068 Y100.312 E13.09666
G1 X124.307 Y100.203 E13.17064
G1 X124.285 Y99.726 E13.19901
G1 X121.753 Y99.948 E13.35015
G1 X121.703 Y99.474 E13.37851
G1 X124.244 Y99.252 E13.53014
G1 X124.173 Y98.779 E13.55854
G1 X121.584 Y99.006 E13.71308
G1 X121.387 Y98.544 E13.74291
G1 X124.043 Y98.312 E13.90142
G1 X123.868 Y97.849 E13.93087
G1 X121.346 Y98.069 E14.08139
G1 X121.308 Y97.594 E14.10974
G1 X123.643 Y97.390 E14.24908
G1 X123.084 Y96.960 E14.29100
G1 X121.279 Y97.118 E14.39872
G1 E12.39872 F2400.00000
G92 E0
G1 X121.720 Y100.429 F11400.000
G1 E2.00000 F2400.00000
G1 X122.088 Y100.397 E2.02194 F3600.000
G1 X121.424 Y101.812 F11400.000
