; generated by Slic3r 1.2.9 on 2016-07-04 at 01:43:33

; external perimeters extrusion width = 0.40mm
; perimeters extrusion width = 0.67mm
; infill extrusion width = 0.67mm
; solid infill extrusion width = 0.67mm
; top infill extrusion width = 0.67mm
; support material extrusion width = 0.40mm

M107
M190 S50 ; set bed temperature
M104 S210 ; set temperature
G28 ; home all axes
G1 Z5 F5000 ; lift nozzle

M109 S210 ; wait for temperature to be reached
G21 ; set units to millimeters
G90 ; use absolute coordinates
M82 ; use absolute distances for extrusion
G92 E0
G1 Z0.400 F11400.000
G1 E-2.00000 F2400.00000
G92 E0
G1 X91.286 Y91.465 F11400.000
G1 E2.00000 F2400.00000
G1 X92.010 Y90.763 E2.11973 F1800.000
G1 X93.196 Y89.718 E2.30748
G1 X94.041 Y89.046 E2.43566
G1 X95.335 Y88.121 E2.62460
G1 X96.261 Y87.529 E2.75509
G1 X97.626 Y86.749 E2.94179
G1 X98.608 Y86.252 E3.07253
G1 X99.938 Y85.659 E3.24547
G1 X101.077 Y85.219 E3.39054
G1 X102.563 Y84.733 E3.57621
G1 X103.642 Y84.440 E3.70899
G1 X105.047 Y84.131 E3.87986
G1 X106.265 Y83.927 E4.02651
G1 X107.692 Y83.763 E4.19705
G1 X108.854 Y83.686 E4.33544
G1 X109.862 Y83.662 E4.45518
G1 X110.756 Y83.672 E4.56135 F1800.000
G1 X112.138 Y83.748 E4.72572
G1 X113.137 Y83.848 E4.84498
G1 X114.288 Y84.012 E4.98305
G1 X115.192 Y84.178 E5.09214
G1 X116.524 Y84.482 E5.25440
G1 X117.680 Y84.806 E5.39706
G1 X118.639 Y85.118 E5.51677
G1 X119.478 Y85.426 E5.62294
G1 X120.723 Y85.943 E5.78308
G1 X121.825 Y86.465 E5.92786
G1 X122.717 Y86.934 E6.04757
G1 X123.868 Y87.608 E6.20602
G1 X124.712 Y88.153 E6.32529
G1 X125.688 Y88.842 E6.46720
G1 X126.760 Y89.682 E6.62895
G1 X127.523 Y90.335 E6.74821
G1 X128.407 Y91.160 E6.89177
G1 X129.346 Y92.127 E7.05188
G1 X130.014 Y92.877 E7.17116
G1 X130.743 Y93.768 E7.30791
G1 X131.330 Y94.548 E7.42381
G1 X132.077 Y95.636 E7.58055
G1 X132.609 Y96.488 E7.69984
G1 X133.186 Y97.505 E7.83873
G1 X133.639 Y98.385 E7.95628
G1 X134.179 Y99.554 E8.10924
G1 X134.560 Y100.483 E8.22851
G1 X134.964 Y101.600 E8.36952
G1 X135.249 Y102.501 E8.48177
G1 X135.592 Y103.770 E8.63791
G1 X135.811 Y104.750 E8.75719
G1 X136.033 Y105.995 E8.90731
G1 X136.198 Y107.277 E9.06085
G1 X136.283 Y108.278 E9.18014
G1 X136.334 Y109.496 E9.32497
G1 X136.334 Y110.504 E9.44468
G1 X136.283 Y111.722 E9.58953
G1 X136.198 Y112.723 E9.70881
G1 X136.041 Y113.951 E9.85577
G1 X135.871 Y114.944 E9.97549
G1 X135.618 Y116.119 E10.11821
G1 X135.366 Y117.091 E10.23748
G1 X134.980 Y118.350 E10.39387
G1 X134.664 Y119.242 E10.50630
G1 X134.224 Y120.341 E10.64689
G1 X133.812 Y121.257 E10.76616
G1 X133.240 Y122.395 E10.91737
G1 X132.749 Y123.275 E11.03710
G1 X132.077 Y124.364 E11.18910
G1 X131.349 Y125.426 E11.34201
G1 X130.775 Y126.191 E11.45550
G1 X130.014 Y127.123 E11.59849
G1 X129.346 Y127.873 E11.71777
G1 X128.437 Y128.810 E11.87280
G1 X127.758 Y129.452 E11.98378
G1 X126.848 Y130.246 E12.12716
G1 X126.064 Y130.873 E12.24646
G1 X124.995 Y131.654 E12.40361
G1 X124.200 Y132.184 E12.51714
G1 X123.202 Y132.791 E12.65586
G1 X122.324 Y133.278 E12.77513
G1 X121.123 Y133.875 E12.93442
G1 X120.201 Y134.283 E13.05414
G1 X119.181 Y134.687 E13.18451
G1 X118.233 Y135.019 E13.30381
G1 X116.920 Y135.414 E13.46661
G1 X115.954 Y135.657 E13.58495
G1 X114.897 Y135.880 E13.71319
G1 X113.907 Y136.047 E13.83247
G1 X112.540 Y136.216 E13.99600
G1 X111.535 Y136.294 E14.11575
G1 X110.474 Y136.335 E14.24189
G1 X109.469 Y136.333 E14.36116
G1 X108.065 Y136.268 E14.52815
G1 X107.072 Y136.176 E14.64656
G1 X106.037 Y136.039 E14.77058
G1 X105.047 Y135.869 E14.88982
G1 X103.657 Y135.564 E15.05886
G1 X102.563 Y135.267 E15.19347
G1 X101.605 Y134.965 E15.31276
G1 X100.236 Y134.462 E15.48595
G1 X99.336 Y134.084 E15.60198
G1 X98.419 Y133.656 E15.72217
G1 X97.525 Y133.197 E15.84144
G1 X96.272 Y132.478 E16.01305
G1 X95.422 Y131.937 E16.13279
G1 X94.605 Y131.371 E16.25079
G1 X93.801 Y130.768 E16.37012
G1 X92.673 Y129.837 E16.54385
G1 X91.926 Y129.160 E16.66355
G1 X91.229 Y128.477 E16.77951
G1 X90.538 Y127.747 E16.89879
G1 X89.563 Y126.615 E17.07634
G1 X88.909 Y125.778 E17.20244
G1 X88.324 Y124.962 E17.32171
G1 X87.505 Y123.701 E17.50026
G1 X86.975 Y122.790 E17.62546
G1 X86.505 Y121.903 E17.74465
G1 X85.861 Y120.538 E17.92389
G1 X85.475 Y119.607 E18.04359
G1 X85.114 Y118.627 E18.16758
G1 X84.657 Y117.174 E18.34852
G1 X84.427 Y116.305 E18.45525
G1 X84.201 Y115.306 E18.57689
G1 X84.018 Y114.318 E18.69625
G1 X83.810 Y112.791 E18.87932
G1 X83.730 Y111.897 E18.98591
G1 X83.680 Y110.997 E19.09300
G1 X83.662 Y109.889 E19.22459
G1 X83.715 Y108.327 E19.41020
G1 X83.787 Y107.434 E19.51652
G1 X83.903 Y106.434 E19.63610
G1 X84.059 Y105.440 E19.75562
G1 X84.369 Y103.936 E19.93795
G1 X84.618 Y102.965 E20.05704
G1 X84.880 Y102.079 E20.16680
G1 X85.202 Y101.124 E20.28651
G1 X85.754 Y99.711 E20.46661
G1 X86.163 Y98.795 E20.58579
G1 X86.579 Y97.950 E20.69762
G1 X87.054 Y97.070 E20.81643
G1 X87.830 Y95.779 E20.99529
G1 X88.388 Y94.945 E21.11450
G1 X88.950 Y94.168 E21.22838
G1 X89.572 Y93.374 E21.34811
G1 X90.538 Y92.253 E21.52395
G1 X91.244 Y91.507 E21.64588
G1 E19.64588 F2400.00000
G92 E0
G1 X123.262 Y123.206 F11400.000
G1 E2.00000 F2400.00000
G1 X122.822 Y123.643 E2.07364 F1800.000
G1 X122.216 Y124.192 E2.17082
G1 X121.194 Y125.010 E2.32624
G1 X120.108 Y125.762 E2.48316
G1 X119.010 Y126.415 E2.63488
G1 X118.398 Y126.736 E2.71693
G1 X117.759 Y127.041 E2.80109
G1 X116.600 Y127.524 E2.95017
G1 X115.973 Y127.747 E3.02916
G1 X115.300 Y127.959 E3.11298
G1 X114.075 Y128.276 E3.26327
G1 X112.793 Y128.516 E3.41818
G1 X112.131 Y128.603 E3.49745
G1 X111.433 Y128.670 E3.58071
G1 X110.164 Y128.725 E3.73157
G1 X108.862 Y128.690 E3.88626
G1 X108.195 Y128.638 E3.96574
G1 X107.504 Y128.558 E4.04837
G1 X106.258 Y128.347 E4.19840
G1 X105.570 Y128.193 E4.28220
G1 X104.348 Y127.852 E4.43288
G1 X103.074 Y127.397 E4.59356
G1 X101.909 Y126.887 E4.74454
G1 X100.707 Y126.256 E4.90581
G1 X99.617 Y125.583 E5.05799
G1 X99.051 Y125.190 E5.13970
G1 X98.036 Y124.405 E5.29214
G1 X97.517 Y123.957 E5.37360
G1 X96.597 Y123.076 E5.52490
G1 X96.120 Y122.569 E5.60752
G1 X95.294 Y121.592 E5.75944
G1 X94.501 Y120.508 E5.91902
G1 X93.819 Y119.423 E6.07116
G1 X93.489 Y118.833 E6.15147
G1 X92.918 Y117.671 E6.30528
G1 X92.652 Y117.049 E6.38564
G1 X92.197 Y115.804 E6.54298
G1 X91.841 Y114.570 E6.69550
G1 X91.688 Y113.911 E6.77587
G1 X91.460 Y112.624 E6.93114
G1 X91.378 Y111.965 E7.00997
G1 X91.295 Y110.816 E7.14683
G1 X91.275 Y110.001 E7.24363
G1 X91.288 Y109.307 E7.32602
G1 X91.378 Y108.035 E7.47754
G1 X91.464 Y107.346 E7.55998
G1 X91.684 Y106.106 E7.70954
G1 X92.016 Y104.784 E7.87144
G1 X92.408 Y103.586 E8.02115
G1 X92.654 Y102.948 E8.10231
G1 X92.924 Y102.318 E8.18378
G1 X93.489 Y101.167 E8.33607
G1 X93.825 Y100.567 E8.41768
G1 X94.498 Y99.497 E8.56783
G1 X95.300 Y98.401 E8.72910
G1 X96.118 Y97.434 E8.87957
G1 X96.601 Y96.919 E8.96343
G1 X97.516 Y96.044 E9.11371
G1 X98.562 Y95.174 E9.27534
G1 X99.595 Y94.432 E9.42634
G1 X100.744 Y93.722 E9.58681
G1 X101.873 Y93.131 E9.73814
G1 X102.508 Y92.839 E9.82119
G1 X103.691 Y92.370 E9.97231
G1 X104.342 Y92.150 E10.05390
G1 X105.579 Y91.804 E10.20649
G1 X106.905 Y91.533 E10.36718
G1 X108.192 Y91.362 E10.52138
G1 X108.861 Y91.310 E10.60114
G1 X110.005 Y91.277 E10.73707 F1800.000
G1 X110.820 Y91.293 E10.83383
G1 X111.481 Y91.334 E10.91246
G1 X112.780 Y91.482 E11.06772
G1 X114.079 Y91.724 E11.22465
G1 X115.344 Y92.054 E11.37991
G1 X115.977 Y92.254 E11.45880
G1 X117.200 Y92.715 E11.61406
G1 X117.809 Y92.981 E11.69295
G1 X118.981 Y93.569 E11.84864
G1 X120.123 Y94.247 E12.00643
G1 X121.158 Y94.963 E12.15591
G1 X121.714 Y95.391 E12.23923
G1 X122.676 Y96.219 E12.38995
G1 X123.182 Y96.701 E12.47299
G1 X123.651 Y97.183 E12.55280
G1 X124.482 Y98.131 E12.70253
G1 X125.307 Y99.214 E12.86429
G1 X125.999 Y100.271 E13.01427
G1 X126.353 Y100.878 E13.09777
G1 X126.933 Y102.007 E13.24845
G1 X127.220 Y102.645 E13.33152
G1 X127.471 Y103.262 E13.41072
G1 X127.897 Y104.492 E13.56530
G1 X128.082 Y105.135 E13.64470
G1 X128.370 Y106.371 E13.79540
G1 X128.584 Y107.705 E13.95592
G1 X128.699 Y109.011 E14.11163
G1 X128.722 Y109.675 E14.19052
G1 X128.699 Y110.982 E14.34578
G1 X128.584 Y112.298 E14.50265
G1 X128.405 Y113.436 E14.63952
G1 X128.240 Y114.234 E14.73627
G1 X128.079 Y114.876 E14.81485
G1 X127.743 Y115.978 E14.95171
G1 X127.467 Y116.748 E15.04889
G1 X126.953 Y117.952 E15.20431
G1 X126.662 Y118.545 E15.28278
G1 X126.350 Y119.127 E15.36126
G1 X125.671 Y120.249 E15.51694
G1 X124.914 Y121.323 E15.67303
G1 X124.085 Y122.339 E15.82870
G1 X123.639 Y122.830 E15.90754
G1 X123.304 Y123.163 E15.96363
G1 X123.365 Y123.592 F11400.000
G1 X123.622 Y123.563 F11400.000
G1 X122.945 Y124.213 E16.07510 F1800.000
G1 X122.275 Y124.796 E16.18057
G1 X121.431 Y125.458 E16.30798
G1 X120.715 Y125.962 E16.41192
G1 X119.799 Y126.540 E16.54060
G1 X119.046 Y126.964 E16.64327
G1 X118.066 Y127.451 E16.77323
G1 X117.283 Y127.792 E16.87462
G1 X116.250 Y128.181 E17.00575
G1 X115.446 Y128.437 E17.10597
G1 X114.368 Y128.722 E17.23838
G1 X113.553 Y128.894 E17.33732
G1 X112.441 Y129.069 E17.47100
G1 X111.623 Y129.156 E17.56867
G1 X110.489 Y129.219 E17.70362
G1 X109.677 Y129.222 E17.80001
G1 X108.530 Y129.169 E17.93634
G1 X107.734 Y129.091 E18.03136
G1 X106.588 Y128.920 E18.16897
G1 X105.814 Y128.764 E18.26271
G1 X104.681 Y128.475 E18.40159
G1 X103.938 Y128.244 E18.49406
G1 X102.830 Y127.838 E18.63418
G1 X101.638 Y127.311 E18.78895
G1 X100.957 Y126.965 E18.87962
G1 X99.919 Y126.370 E19.02180
G1 X99.287 Y125.964 E19.11097
G1 X98.306 Y125.259 E19.25442
G1 X97.727 Y124.798 E19.34232
G1 X96.815 Y123.991 E19.48705
G1 X96.293 Y123.481 E19.57366
G1 X95.460 Y122.577 E19.71967
G1 X95.000 Y122.025 E19.80501
G1 X94.256 Y121.033 E19.95228
G1 X93.861 Y120.446 E20.03635
G1 X93.215 Y119.374 E20.18490
G1 X92.887 Y118.759 E20.26770
G1 X92.349 Y117.618 E20.41755
G1 X92.103 Y117.020 E20.49439
G1 X91.657 Y115.755 E20.65366
G1 X91.315 Y114.525 E20.80521
G1 X91.169 Y113.873 E20.88460
G1 X90.952 Y112.601 E21.03783
G1 X90.820 Y111.308 E21.19220
G1 X90.775 Y109.999 E21.34776
G1 X90.820 Y108.692 E21.50313
G1 X90.952 Y107.399 E21.65750
G1 X91.169 Y106.127 E21.81073
G1 X91.315 Y105.475 E21.89012
G1 X91.658 Y104.242 E22.04207
G1 X91.873 Y103.598 E22.12274
G1 X92.334 Y102.416 E22.27342
G1 X92.617 Y101.788 E22.35526
G1 X93.192 Y100.668 E22.50476
G1 X93.543 Y100.062 E22.58788
G1 X94.222 Y99.015 E22.73610
G1 X94.639 Y98.440 E22.82049
G1 X95.415 Y97.475 E22.96745
G1 X95.897 Y96.935 E23.05347
G1 X96.814 Y96.010 E23.20823
G1 X97.727 Y95.202 E23.35301
G1 X98.305 Y94.741 E23.44081
G1 X99.287 Y94.036 E23.58436
G1 X99.918 Y93.631 E23.67343
G1 X100.957 Y93.035 E23.81571
G1 X101.636 Y92.690 E23.90605
G1 X102.720 Y92.207 E24.04705
G1 X103.440 Y91.929 E24.13867
G1 X104.557 Y91.562 E24.27840
G1 X105.312 Y91.356 E24.37129
G1 X106.451 Y91.106 E24.50975
G1 X107.233 Y90.975 E24.60401
G1 X108.380 Y90.843 E24.74109
G1 X109.183 Y90.792 E24.83664
G1 X110.326 Y90.778 E24.97244
G1 X111.140 Y90.809 E25.06916
G1 X112.269 Y90.910 E25.20379 F1800.000
G1 X113.086 Y91.024 E25.30178
G1 X114.189 Y91.237 E25.43514
G1 X115.000 Y91.437 E25.53441
G1 X116.065 Y91.757 E25.66649
G1 X116.863 Y92.042 E25.76703
G1 X117.880 Y92.464 E25.89784
G1 X118.655 Y92.833 E25.99975
G1 X119.613 Y93.351 E26.12919
G1 X120.355 Y93.802 E26.23228
G1 X121.248 Y94.409 E26.36054
G1 X121.949 Y94.940 E26.46490
G1 X122.768 Y95.627 E26.59189
G1 X123.421 Y96.235 E26.69778
G1 X124.322 Y97.175 E26.85254
G1 X125.002 Y97.978 E26.97746
G1 X125.553 Y98.699 E27.08522
G1 X126.141 Y99.557 E27.20881
G1 X126.621 Y100.340 E27.31785
G1 X127.115 Y101.244 E27.44016
G1 X127.518 Y102.081 E27.55047
G1 X127.913 Y103.020 E27.67151
G1 X128.233 Y103.904 E27.78319
G1 X128.527 Y104.868 E27.90286
G1 X128.758 Y105.790 E28.01572
G1 X128.951 Y106.768 E28.13421
G1 X129.089 Y107.720 E28.24844
G1 X129.181 Y108.702 E28.36556
G1 X129.222 Y109.675 E28.48117
G1 X129.200 Y110.978 E28.63594
G1 X129.126 Y111.945 E28.75113
G1 X129.001 Y112.927 E28.86876
G1 X128.831 Y113.870 E28.98248
G1 X128.605 Y114.844 E29.10129
G1 X128.343 Y115.755 E29.21383
G1 X128.015 Y116.712 E29.33401
G1 X127.667 Y117.581 E29.44518
G1 X127.239 Y118.510 E29.56664
G1 X126.809 Y119.329 E29.67653
G1 X126.284 Y120.218 E29.79917
G1 X125.779 Y120.982 E29.90788
G1 X125.160 Y121.822 E30.03179
G1 X124.588 Y122.522 E30.13923
G1 X123.664 Y123.520 E30.30071
G1 X123.235 Y123.459 F11400.000
G1 Z0.400 F11400.000
M140 S30 ; wait for bed temperature to be reached
G1 Z0.600 F11400.000
G1 X123.123 Y123.060 F11400.000
G1 X122.573 Y123.605 E30.32371 F1800.000
G1 X122.086 Y124.040 E30.34310
G1 X121.379 Y124.615 E30.37017
G1 X120.544 Y125.232 E30.40099
G1 X119.451 Y125.933 E30.43954
G1 X118.307 Y126.558 E30.47825
G1 X117.136 Y127.095 E30.51650
G1 X116.411 Y127.379 E30.53961
G1 X115.303 Y127.750 E30.57431
G1 X114.663 Y127.929 E30.59403
G1 X113.923 Y128.104 E30.61661
G1 X112.771 Y128.317 E30.65141
G1 X112.107 Y128.405 E30.67128
G1 X110.833 Y128.506 E30.70925
G1 X110.161 Y128.524 E30.72920
G1 X108.885 Y128.491 E30.76709
G1 X108.214 Y128.439 E30.78707
G1 X107.480 Y128.352 E30.80902
G1 X106.310 Y128.154 E30.84425
G1 X105.571 Y127.987 E30.86674
G1 X104.424 Y127.666 E30.90211
G1 X103.783 Y127.451 E30.92220
G1 X103.106 Y127.193 E30.94371
G1 X102.008 Y126.713 E30.97928
G1 X101.402 Y126.409 E30.99941
G1 X100.774 Y126.063 E31.02070
G1 X99.726 Y125.415 E31.05728
G1 X99.141 Y125.008 E31.07845
G1 X98.163 Y124.250 E31.11519
G1 X97.627 Y123.787 E31.13621
G1 X96.751 Y122.947 E31.17224
G1 X96.250 Y122.413 E31.19398
G1 X95.464 Y121.484 E31.23013
G1 X95.051 Y120.941 E31.25036
G1 X94.651 Y120.372 E31.27103
G1 X94.000 Y119.337 E31.30733
G1 X93.666 Y118.740 E31.32763
G1 X93.108 Y117.604 E31.36523
G1 X92.839 Y116.976 E31.38549
G1 X92.592 Y116.334 E31.40592
G1 X92.210 Y115.165 E31.44243
G1 X92.031 Y114.505 E31.46274
G1 X91.834 Y113.615 E31.48981
G1 X91.657 Y112.594 E31.52058
G1 X91.577 Y111.945 E31.53998
G1 X91.486 Y110.652 E31.57848
G1 X91.475 Y110.000 E31.59785
G1 X91.490 Y109.269 E31.61955
G1 X91.577 Y108.054 E31.65571
G1 X91.669 Y107.331 E31.67734
G1 X91.873 Y106.181 E31.71203
G1 X92.031 Y105.494 E31.73297
G1 X92.221 Y104.798 E31.75438
G1 X92.585 Y103.685 E31.78917
G1 X92.839 Y103.024 E31.81019
G1 X93.121 Y102.367 E31.83141
G1 X93.639 Y101.311 E31.86633
G1 X93.984 Y100.691 E31.88741
G1 X94.352 Y100.086 E31.90843
G1 X95.016 Y99.108 E31.94352
G1 X95.445 Y98.540 E31.96467
G1 X96.244 Y97.594 E32.00142
G1 X96.730 Y97.073 E32.02258
G1 X97.624 Y96.216 E32.05934
G1 X98.162 Y95.751 E32.08045
G1 X98.702 Y95.319 E32.10099
G1 X99.675 Y94.620 E32.13657
G1 X100.272 Y94.235 E32.15766
G1 X100.863 Y93.885 E32.17804
G1 X101.930 Y93.326 E32.21382
G1 X102.603 Y93.016 E32.23583
G1 X103.728 Y92.570 E32.27175
G1 X104.401 Y92.341 E32.29284
G1 X105.595 Y92.007 E32.32968
G1 X106.286 Y91.851 E32.35071
G1 X106.949 Y91.728 E32.37073
G1 X108.213 Y91.561 E32.40857
G1 X108.883 Y91.509 E32.42854
G1 X109.775 Y91.479 E32.45502 F1800.000
G1 X110.811 Y91.493 E32.48580
G1 X111.463 Y91.533 E32.50520
G1 X112.752 Y91.680 E32.54370
G1 X114.033 Y91.919 E32.58241
G1 X115.289 Y92.246 E32.62094
G1 X116.157 Y92.531 E32.64806
G1 X117.126 Y92.901 E32.67887
G1 X117.959 Y93.275 E32.70597
G1 X118.884 Y93.744 E32.73675
G1 X119.483 Y94.086 E32.75725
G1 X120.465 Y94.715 E32.79189
G1 X121.072 Y95.148 E32.81399
G1 X121.613 Y95.567 E32.83433
G1 X122.499 Y96.328 E32.86901
G1 X123.041 Y96.843 E32.89121
G1 X123.515 Y97.331 E32.91140
G1 X124.288 Y98.211 E32.94619
G1 X124.754 Y98.798 E32.96843
G1 X125.152 Y99.343 E32.98846
G1 X125.797 Y100.327 E33.02340
G1 X126.178 Y100.974 E33.04569
G1 X126.727 Y102.041 E33.08133
G1 X127.036 Y102.723 E33.10356
G1 X127.287 Y103.341 E33.12335
G1 X127.706 Y104.553 E33.16143
G1 X127.890 Y105.191 E33.18116
G1 X128.161 Y106.352 E33.21656
G1 X128.294 Y107.086 E33.23869
G1 X128.386 Y107.732 E33.25806
G1 X128.499 Y109.023 E33.29656
G1 X128.522 Y109.677 E33.31597
G1 X128.499 Y110.973 E33.35447
G1 X128.454 Y111.625 E33.37386
G1 X128.349 Y112.530 E33.40092
G1 X128.181 Y113.554 E33.43174
G1 X127.887 Y114.819 E33.47029
G1 X127.706 Y115.447 E33.48970
G1 X127.281 Y116.674 E33.52826
G1 X126.771 Y117.868 E33.56681
G1 X126.483 Y118.455 E33.58620
