; generated by Slic3r 1.2.9 on 2016-07-25 at 23:58:39

; external perimeters extrusion width = 0.40mm
; perimeters extrusion width = 0.42mm
; infill extrusion width = 0.42mm
; solid infill extrusion width = 0.42mm
; top infill extrusion width = 0.42mm
; support material extrusion width = 0.40mm

M107
M190 S50 ; set bed temperature
M104 S210 ; set temperature
G28 ; home all axes
G1 Z5 F5000 ; lift nozzle

M109 S210 ; wait for temperature to be reached
G21 ; set units to millimeters
G90 ; use absolute coordinates
M82 ; use absolute distances for extrusion
G92 E0
G1 Z0.400 F11400.000
G1 E-2.00000 F2400.00000
G92 E0
G1 X101.328 Y101.250 F11400.000
G1 E2.00000 F2400.00000
G1 X102.131 Y100.522 E2.12873 F1800.000
G1 X102.682 Y100.091 E2.21180
G1 X103.141 Y99.769 E2.27842
G1 X103.819 Y99.344 E2.37347
G1 X104.276 Y99.093 E2.43531
G1 X104.752 Y98.855 E2.49856
G1 X105.446 Y98.553 E2.58840
G1 X106.440 Y98.205 E2.71351
G1 X107.108 Y98.025 E2.79570
G1 X107.649 Y97.907 E2.86141
G1 X108.152 Y97.818 E2.92217
G1 X108.956 Y97.724 E3.01830
G1 X109.533 Y97.688 E3.08697
G1 X110.233 Y97.680 E3.17011
G1 X111.297 Y97.746 E3.29668 F1800.000
G1 X112.343 Y97.902 E3.42225
G1 X113.369 Y98.147 E3.54758
G1 X114.369 Y98.478 E3.67269
G1 X115.285 Y98.868 E3.79088
G1 X116.166 Y99.330 E3.90908
G1 X116.633 Y99.612 E3.97379
G1 X117.273 Y100.051 E4.06596
G1 X118.052 Y100.670 E4.18415
G1 X118.822 Y101.393 E4.30957
G1 X119.527 Y102.180 E4.43513
G1 X120.164 Y103.027 E4.56095
G1 X120.696 Y103.872 E4.67954
G1 X121.194 Y104.837 E4.80850
G1 X121.496 Y105.551 E4.90055
G1 X121.839 Y106.570 E5.02831
G1 X122.090 Y107.601 E5.15430
G1 X122.242 Y108.571 E5.27095
G1 X122.319 Y109.613 E5.39501
G1 X122.307 Y110.656 E5.51895
G1 X122.200 Y111.743 E5.64865
G1 X122.018 Y112.731 E5.76793
G1 X121.759 Y113.692 E5.88610
G1 X121.501 Y114.435 E5.97950
G1 X121.297 Y114.929 E6.04297
G1 X120.863 Y115.824 E6.16115
G1 X120.337 Y116.713 E6.28388
G1 X119.719 Y117.580 E6.41021
G1 X119.035 Y118.384 E6.53561
G1 X118.287 Y119.124 E6.66062
G1 X117.530 Y119.757 E6.77780
G1 X116.663 Y120.369 E6.90382
G1 X115.737 Y120.908 E7.03109
G1 X114.761 Y121.366 E7.15911
G1 X113.805 Y121.720 E7.28026
G1 X112.846 Y121.989 E7.39843
G1 X112.061 Y122.149 E7.49367
G1 X111.547 Y122.224 E7.55532
G1 X110.555 Y122.309 E7.67353
G1 X109.553 Y122.313 E7.79259
G1 X108.479 Y122.227 E7.92052
G1 X107.417 Y122.047 E8.04845
G1 X106.387 Y121.779 E8.17488
G1 X105.456 Y121.451 E8.29210
G1 X104.497 Y121.022 E8.41691
G1 X103.578 Y120.512 E8.54176
G1 X102.701 Y119.922 E8.66726
G1 X101.879 Y119.260 E8.79259
G1 X101.157 Y118.575 E8.91079
G1 X100.617 Y117.981 E9.00618
G1 X100.291 Y117.578 E9.06767
G1 X99.711 Y116.770 E9.18585
G1 X99.187 Y115.897 E9.30674
G1 X98.723 Y114.951 E9.43195
G1 X98.341 Y113.971 E9.55677
G1 X98.044 Y112.961 E9.68180
G1 X97.834 Y111.923 E9.80759
G1 X97.718 Y110.927 E9.92667
G1 X97.686 Y110.239 E10.00846
G1 X97.686 Y109.755 E10.06595
G1 X97.735 Y108.877 E10.17045
G1 X97.864 Y107.902 E10.28717
G1 X98.019 Y107.145 E10.37898
G1 X98.112 Y106.787 E10.42297
G1 X98.282 Y106.210 E10.49433
G1 X98.513 Y105.565 E10.57578
G1 X98.937 Y104.591 E10.70190
G1 X99.392 Y103.745 E10.81602
G1 X99.944 Y102.889 E10.93689
G1 X100.595 Y102.045 E11.06352
G1 X101.286 Y101.293 E11.18484
G1 E9.18484 F2400.00000
G92 E0
G1 X113.267 Y113.089 F11400.000
G1 E2.00000 F2400.00000
G1 X113.005 Y113.344 E2.04339 F1800.000
G1 X112.720 Y113.580 E2.08731
G1 X112.413 Y113.793 E2.13176
G1 X111.866 Y114.090 E2.20562
G1 X111.520 Y114.230 E2.25001
G1 X111.171 Y114.339 E2.29335
G1 X110.746 Y114.431 E2.34508
G1 X110.129 Y114.492 E2.41869
G1 X109.755 Y114.487 E2.46305
G1 X109.393 Y114.452 E2.50626
G1 X108.965 Y114.370 E2.55797
G1 X108.373 Y114.186 E2.63164
G1 X108.031 Y114.035 E2.67601
G1 X107.710 Y113.862 E2.71937
G1 X107.347 Y113.620 E2.77118
G1 X106.872 Y113.222 E2.84478
G1 X106.620 Y112.955 E2.88837
G1 X106.351 Y112.613 E2.94008
G1 X106.178 Y112.354 E2.97698
G1 X105.864 Y111.742 E3.05868
G1 X105.736 Y111.401 E3.10201
G1 X105.635 Y111.045 E3.14593
G1 X105.563 Y110.678 E3.19029
G1 X105.527 Y110.370 E3.22716
G1 X105.513 Y110.060 E3.26405
G1 X105.525 Y109.655 E3.31219
G1 X105.563 Y109.325 E3.35158
G1 X105.650 Y108.900 E3.40315
G1 X105.745 Y108.574 E3.44349
G1 X106.013 Y107.942 E3.52499
G1 X106.208 Y107.599 E3.57184
G1 X106.420 Y107.293 E3.61607
G1 X106.615 Y107.050 E3.65300
G1 X106.827 Y106.823 E3.68994
G1 X107.102 Y106.570 E3.73431
G1 X107.390 Y106.346 E3.77759
G1 X107.756 Y106.111 E3.82930
G1 X108.313 Y105.838 E3.90296
G1 X108.665 Y105.712 E3.94741
G1 X109.022 Y105.616 E3.99131
G1 X109.386 Y105.549 E4.03515
G1 X109.753 Y105.514 E4.07895
G1 X110.121 Y105.508 E4.12277
G1 X110.495 Y105.534 E4.16721
G1 X111.108 Y105.645 E4.24118 F1800.000
G1 X111.467 Y105.752 E4.28567
G1 X111.811 Y105.886 E4.32957
G1 X112.139 Y106.046 E4.37285
G1 X112.511 Y106.271 E4.42455
G1 X112.763 Y106.452 E4.46134
G1 X113.001 Y106.651 E4.49820
G1 X113.268 Y106.911 E4.54255
G1 X113.508 Y107.186 E4.58586
G1 X113.763 Y107.540 E4.63766
G1 X113.926 Y107.804 E4.67453
G1 X114.068 Y108.079 E4.71126
G1 X114.212 Y108.422 E4.75541
G1 X114.328 Y108.776 E4.79962
G1 X114.401 Y109.077 E4.83643
G1 X114.452 Y109.384 E4.87337
G1 X114.492 Y109.819 E4.92527
G1 X114.492 Y110.184 E4.96865
G1 X114.462 Y110.556 E5.01298
G1 X114.413 Y110.862 E5.04980
G1 X114.342 Y111.165 E5.08675
G1 X114.211 Y111.581 E5.13850
G1 X114.070 Y111.915 E5.18159
G1 X113.897 Y112.245 E5.22584
G1 X113.733 Y112.509 E5.26271
G1 X113.550 Y112.758 E5.29947
G1 X113.306 Y113.044 E5.34412
G1 X113.809 Y113.554 F11400.000
G1 X113.482 Y113.876 E5.39864 F1800.000
G1 X113.152 Y114.149 E5.44954
G1 X112.799 Y114.395 E5.50062
G1 X112.485 Y114.580 E5.54385
G1 X112.159 Y114.742 E5.58707
G1 X111.761 Y114.903 E5.63814
G1 X111.353 Y115.031 E5.68883
G1 X110.869 Y115.135 E5.74769
G1 X110.509 Y115.184 E5.79084
G1 X110.146 Y115.206 E5.83406
G1 X109.716 Y115.200 E5.88511
G1 X109.291 Y115.159 E5.93575
G1 X108.805 Y115.066 E5.99460
G1 X108.454 Y114.971 E6.03778
G1 X108.111 Y114.850 E6.08098
G1 X107.717 Y114.678 E6.13204
G1 X107.342 Y114.475 E6.18274
G1 X106.929 Y114.200 E6.24162
G1 X106.642 Y113.976 E6.28481
G1 X106.373 Y113.732 E6.32798
G1 X106.079 Y113.422 E6.37876
G1 X105.773 Y113.032 E6.43760
G1 X105.570 Y112.730 E6.48081
G1 X105.423 Y112.471 E6.51615
G1 X105.207 Y112.023 E6.57523
G1 X105.057 Y111.624 E6.62591
G1 X104.940 Y111.211 E6.67681
G1 X104.857 Y110.790 E6.72786
G1 X104.814 Y110.428 E6.77106
G1 X104.798 Y110.065 E6.81426
G1 X104.812 Y109.602 E6.86922
G1 X104.857 Y109.212 E6.91586
G1 X104.956 Y108.728 E6.97459
G1 X105.067 Y108.348 E7.02159
G1 X105.376 Y107.617 E7.11582
G1 X105.603 Y107.218 E7.17032
G1 X105.847 Y106.865 E7.22132
G1 X106.075 Y106.582 E7.26453
G1 X106.324 Y106.316 E7.30775
G1 X106.640 Y106.025 E7.35881
G1 X106.977 Y105.763 E7.40947
G1 X107.394 Y105.495 E7.46832
G1 X107.714 Y105.323 E7.51147
G1 X108.047 Y105.175 E7.55471
G1 X108.451 Y105.030 E7.60579
G1 X108.865 Y104.918 E7.65668
G1 X109.287 Y104.842 E7.70754
G1 X109.713 Y104.800 E7.75840
G1 X110.141 Y104.794 E7.80925
G1 X110.570 Y104.823 E7.86033
G1 X110.930 Y104.875 E7.90358 F1800.000
G1 X111.286 Y104.953 E7.94683
G1 X111.699 Y105.076 E7.99793
G1 X112.098 Y105.231 E8.04882
G1 X112.481 Y105.418 E8.09948
G1 X112.905 Y105.675 E8.15833
G1 X113.200 Y105.887 E8.20150
G1 X113.479 Y106.120 E8.24470
G1 X113.787 Y106.420 E8.29575
G1 X114.068 Y106.742 E8.34642
G1 X114.358 Y107.143 E8.40531
G1 X114.548 Y107.454 E8.44851
G1 X114.715 Y107.776 E8.49166
G1 X114.882 Y108.172 E8.54263
G1 X115.015 Y108.580 E8.59361
G1 X115.101 Y108.933 E8.63678
G1 X115.161 Y109.292 E8.68000
G1 X115.206 Y109.786 E8.73891
G1 X115.206 Y110.213 E8.78961
G1 X115.171 Y110.641 E8.84065
G1 X115.114 Y111.000 E8.88383
G1 X115.031 Y111.354 E8.92705
G1 X114.882 Y111.827 E8.98589
G1 X114.717 Y112.220 E9.03648
G1 X114.518 Y112.600 E9.08750
G1 X114.325 Y112.909 E9.13069
G1 X114.111 Y113.202 E9.17385
G1 X113.848 Y113.509 E9.22176
G1 X113.421 Y113.459 F11400.000
G1 X109.631 Y114.022 F11400.000
G1 X105.989 Y110.380 E9.88723 F1800.000
G1 X105.990 Y109.282 E10.02905
G1 X110.722 Y114.014 E10.89368
G1 X111.589 Y113.782 E11.00962
G1 X106.230 Y108.424 E11.98871
G1 X106.600 Y107.694 E12.09437
G1 X112.311 Y113.406 E13.13803
G1 X112.902 Y112.898 E13.23872
G1 X107.106 Y107.102 E14.29791
G1 X107.700 Y106.597 E14.39863
G1 X113.405 Y112.302 E15.44112
G1 X113.787 Y111.585 E15.54603
G1 X108.420 Y106.218 E16.52685
G1 X109.286 Y105.985 E16.64273
G1 X114.014 Y110.713 E17.50670
G1 X114.022 Y109.623 E17.64761
G1 X110.386 Y105.987 E18.31203
G1 X112.323 Y106.825 F11400.000
G1 X113.186 Y107.687 E18.46965 F1800.000
G1 X107.605 Y113.095 F11400.000
G1 X106.853 Y112.343 E18.60703 F1800.000
G1 Z0.400 F11400.000
M140 S30 ; wait for bed temperature to be reached
G1 Z0.800 F11400.000
G1 X113.725 Y113.483 F11400.000
G1 X113.375 Y113.827 E18.63426 F900.000
G1 X113.027 Y114.108 E18.65917
G1 X112.657 Y114.357 E18.68394
G1 X112.191 Y114.609 E18.71337
G1 X111.781 Y114.782 E18.73811
G1 X111.360 Y114.918 E18.76270
G1 X110.733 Y115.048 E18.79828
G1 X110.209 Y115.097 E18.82751
G1 X109.764 Y115.096 E18.85226
G1 X109.324 Y115.056 E18.87680
G1 X108.697 Y114.928 E18.91232
G1 X108.197 Y114.767 E18.94155
G1 X107.787 Y114.590 E18.96634
G1 X107.397 Y114.380 E18.99098
G1 X106.868 Y114.019 E19.02657
G1 X106.469 Y113.677 E19.05575
G1 X106.162 Y113.356 E19.08043
G1 X105.886 Y113.008 E19.10511
G1 X105.601 Y112.567 E19.13432
G1 X105.313 Y111.994 E19.16993
G1 X105.157 Y111.579 E19.19457
G1 X105.037 Y111.147 E19.21948
G1 X104.955 Y110.710 E19.24423
G1 X104.908 Y110.185 E19.27352
G1 X104.916 Y109.642 E19.30368
G1 X104.953 Y109.303 E19.32264
G1 X105.083 Y108.675 E19.35828
G1 X105.212 Y108.271 E19.38183
G1 X105.465 Y107.684 E19.41733
G1 X105.733 Y107.217 E19.44727
G1 X105.990 Y106.856 E19.47190
G1 X106.336 Y106.456 E19.50131
G1 X106.659 Y106.150 E19.52602
G1 X107.005 Y105.875 E19.55058
G1 X107.547 Y105.534 E19.58614
G1 X108.020 Y105.304 E19.61539
G1 X108.438 Y105.148 E19.64019
G1 X108.870 Y105.028 E19.66509
G1 X109.310 Y104.946 E19.68994
G1 X109.754 Y104.905 E19.71477
G1 X110.201 Y104.903 E19.73961
G1 X110.646 Y104.941 E19.76438
G1 X111.163 Y105.034 E19.79362 F900.000
G1 X111.777 Y105.218 E19.82919
G1 X112.185 Y105.389 E19.85380
G1 X112.579 Y105.596 E19.87856
G1 X113.022 Y105.887 E19.90800
G1 X113.369 Y106.166 E19.93276
G1 X113.693 Y106.476 E19.95765
G1 X113.984 Y106.809 E19.98226
G1 X114.352 Y107.334 E20.01784
G1 X114.605 Y107.794 E20.04701
G1 X114.778 Y108.202 E20.07165
G1 X114.914 Y108.625 E20.09633
G1 X115.025 Y109.139 E20.12555
G1 X115.093 Y109.776 E20.16119
G1 X115.094 Y110.220 E20.18585
G1 X115.056 Y110.667 E20.21078
G1 X114.979 Y111.113 E20.23594
G1 X114.781 Y111.789 E20.27508
G1 X114.608 Y112.200 E20.29986
G1 X114.398 Y112.592 E20.32455
G1 X114.107 Y113.029 E20.35375
G1 X113.764 Y113.437 E20.38340
G1 X113.973 Y113.692 F11400.000
G1 X113.590 Y114.070 E20.41152 F900.000
G1 X113.219 Y114.369 E20.43641
G1 X112.825 Y114.634 E20.46125
G1 X112.332 Y114.902 E20.49055
G1 X111.894 Y115.086 E20.51538
G1 X111.442 Y115.232 E20.54016
G1 X110.781 Y115.369 E20.57545
G1 X110.224 Y115.421 E20.60468
G1 X109.748 Y115.420 E20.62951
G1 X109.277 Y115.377 E20.65427
G1 X108.615 Y115.242 E20.68953
G1 X108.083 Y115.071 E20.71876
G1 X107.646 Y114.882 E20.74360
G1 X107.228 Y114.658 E20.76840
G1 X106.670 Y114.276 E20.80369
G1 X106.246 Y113.912 E20.83289
G1 X105.918 Y113.569 E20.85770
G1 X105.622 Y113.198 E20.88250
G1 X105.319 Y112.728 E20.91172
G1 X105.016 Y112.124 E20.94702
G1 X104.849 Y111.680 E20.97181
G1 X104.721 Y111.221 E20.99670
G1 X104.633 Y110.754 E21.02153
G1 X104.584 Y110.196 E21.05078
G1 X104.593 Y109.622 E21.08079
G1 X104.632 Y109.252 E21.10021
G1 X104.769 Y108.592 E21.13543
G1 X104.908 Y108.157 E21.15929
G1 X105.174 Y107.539 E21.19447
G1 X105.460 Y107.042 E21.22441
G1 X105.735 Y106.655 E21.24919
G1 X106.102 Y106.232 E21.27847
G1 X106.446 Y105.905 E21.30329
G1 X106.818 Y105.610 E21.32805
G1 X107.389 Y105.250 E21.36333
G1 X107.892 Y105.006 E21.39257
G1 X108.338 Y104.839 E21.41742
G1 X108.797 Y104.712 E21.44230
G1 X109.265 Y104.625 E21.46717
G1 X109.739 Y104.581 E21.49203
G1 X110.214 Y104.579 E21.51689
G1 X110.688 Y104.619 E21.54173
G1 X111.239 Y104.718 E21.57096 F900.000
G1 X111.886 Y104.912 E21.60626
G1 X112.323 Y105.095 E21.63104
G1 X112.744 Y105.317 E21.65587
G1 X113.213 Y105.624 E21.68518
G1 X113.584 Y105.922 E21.71001
G1 X113.927 Y106.252 E21.73490
G1 X114.240 Y106.609 E21.75969
G1 X114.628 Y107.162 E21.79498
G1 X114.897 Y107.652 E21.82418
G1 X115.082 Y108.089 E21.84897
G1 X115.227 Y108.540 E21.87376
G1 X115.346 Y109.087 E21.90297
G1 X115.417 Y109.759 E21.93827
G1 X115.418 Y110.233 E21.96307
G1 X115.378 Y110.708 E21.98796
G1 X115.297 Y111.179 E22.01293
G1 X115.086 Y111.902 E22.05226
G1 X114.901 Y112.340 E22.07710
G1 X114.677 Y112.759 E22.10191
G1 X114.367 Y113.224 E22.13112
G1 X114.012 Y113.646 E22.15993
G1 X113.584 Y113.598 F11400.000
G1 X113.722 Y113.090 F11400.000
G1 X113.042 Y113.770 E22.21488 F1200.000
G1 X111.795 Y114.531 F11400.000
G1 X114.535 Y111.790 E22.43652 F1200.000
G1 X111.076 Y114.763 F11400.000
G1 X114.763 Y111.077 E22.73465 F1200.000
G1 X114.871 Y110.481 E22.76926
G1 X110.483 Y114.870 E23.12421
G1 X109.963 Y114.903 E23.15398
G1 X114.900 Y109.966 E23.55328
G1 X114.877 Y109.503 E23.57980
G1 X109.497 Y114.884 E24.01495
G1 X109.074 Y114.820 E24.03942
G1 X114.826 Y109.068 E24.50467
G1 X114.739 Y108.668 E24.52806
G1 X108.672 Y114.736 E25.01880
G1 X108.304 Y114.618 E25.04090
G1 X114.625 Y108.297 E25.55213
G1 X114.485 Y107.950 E25.57351
G1 X107.957 Y114.478 E26.10146
G1 X107.632 Y114.316 E26.12221
G1 X114.322 Y107.627 E26.66324
G1 X114.141 Y107.321 E26.68355
G1 X107.329 Y114.133 E27.23455
G1 X107.040 Y113.936 E27.25456
G1 X113.941 Y107.035 E27.81270
G1 X113.723 Y106.767 E27.83248
G1 X106.771 Y113.718 E28.39474
G1 X106.528 Y113.475 E28.41441
G1 X113.480 Y106.523 E28.97667
G1 X113.237 Y106.280 E28.99633
G1 X106.285 Y113.232 E29.55860
G1 X106.063 Y112.967 E29.57834
G1 X112.973 Y106.058 E30.13716
G1 X112.682 Y105.862 E30.15720
G1 X105.869 Y112.676 E30.70826
G1 X105.690 Y112.368 E30.72860
G1 X112.378 Y105.680 E31.26950
G1 X112.053 Y105.519 E31.29025
G1 X105.527 Y112.044 E31.81802
G1 X105.387 Y111.699 E31.83936
G1 X111.705 Y105.380 E32.35042
G1 X111.331 Y105.268 E32.37276
G1 X105.271 Y111.328 E32.86292
G1 X105.181 Y110.932 E32.88617
G1 X110.935 Y105.177 E33.35157
G1 X110.509 Y105.117 E33.37617
G1 X105.124 Y110.502 E33.81172
G1 X105.105 Y110.035 E33.83844
G1 X110.043 Y105.097 E34.23785
G1 X109.526 Y105.127 E34.26744
G1 X105.132 Y109.522 E34.62288
G1 X105.245 Y108.922 E34.65780
G1 X108.934 Y105.233 E34.95617
G1 X108.210 Y105.470 F11400.000
G1 X105.497 Y108.184 E35.17566 F1200.000
G1 X106.274 Y106.921 F11400.000
G1 X106.966 Y106.228 E35.23168 F1200.000
G1 Z1.200 F11400.000
G1 X113.747 Y113.476 F11400.000
G1 X113.545 Y113.688 E35.24796 F900.000
G1 X113.008 Y114.138 E35.28691
G1 X112.630 Y114.389 E35.31209
G1 X112.227 Y114.607 E35.33756
G1 X111.806 Y114.787 E35.36303
G1 X111.375 Y114.927 E35.38821
G1 X110.689 Y115.068 E35.42714
G1 X110.237 Y115.109 E35.45235
G1 X109.778 Y115.110 E35.47784
G1 X109.322 Y115.069 E35.50330
G1 X108.871 Y114.986 E35.52875
G1 X108.429 Y114.863 E35.55426
G1 X108.005 Y114.703 E35.57949
G1 X107.380 Y114.385 E35.61846
G1 X107.000 Y114.136 E35.64368
G1 X106.640 Y113.851 E35.66918
G1 X106.309 Y113.536 E35.69462
G1 X106.008 Y113.191 E35.72005
G1 X105.739 Y112.819 E35.74552
G1 X105.508 Y112.430 E35.77071
G1 X105.218 Y111.791 E35.80967
G1 X105.078 Y111.359 E35.83491
G1 X104.974 Y110.912 E35.86044
G1 X104.912 Y110.464 E35.88557
G1 X104.897 Y109.799 E35.92251
G1 X104.938 Y109.313 E35.94959
G1 X104.996 Y108.981 E35.96834
G1 X105.075 Y108.656 E35.98693
G1 X105.305 Y108.000 E36.02557
G1 X105.617 Y107.382 E36.06405
G1 X105.864 Y107.002 E36.08926
G1 X106.148 Y106.642 E36.11472
G1 X106.463 Y106.310 E36.14014
G1 X106.807 Y106.008 E36.16558
G1 X107.179 Y105.739 E36.19107
G1 X107.568 Y105.507 E36.21628
G1 X108.206 Y105.216 E36.25525
G1 X108.637 Y105.074 E36.28047
G1 X109.084 Y104.970 E36.30598
G1 X109.534 Y104.907 E36.33119
G1 X110.148 Y104.889 E36.36533
