; generated by Slic3r 1.2.9 on 2016-07-25 at 22:50:43

; external perimeters extrusion width = 0.40mm
; perimeters extrusion width = 0.42mm
; infill extrusion width = 0.42mm
; solid infill extrusion width = 0.42mm
; top infill extrusion width = 0.42mm
; support material extrusion width = 0.40mm

M107
M190 S50 ; set bed temperature
M104 S210 ; set temperature
G28 ; home all axes
G1 Z5 F5000 ; lift nozzle

M109 S210 ; wait for temperature to be reached
G21 ; set units to millimeters
G90 ; use absolute coordinates
M82 ; use absolute distances for extrusion
G92 E0
G1 Z0.400 F11400.000
G1 E-2.00000 F2400.00000
G92 E0
G1 X46.727 Y67.420 F11400.000
G1 E2.00000 F2400.00000
G1 X48.887 Y66.605 E2.27422 F1800.000
G1 X50.144 Y66.486 E2.42419
G1 X149.341 Y66.486 E14.20532
G1 X151.616 Y66.883 E14.47954
G1 X153.621 Y68.027 E14.75377 F1800.000
G1 X154.584 Y69.005 E14.91675
G1 X174.157 Y93.478 E18.63855
G1 X174.691 Y94.261 E18.75106
G1 X175.162 Y95.081 E18.86346
G1 X175.569 Y95.937 E18.97596
G1 X175.877 Y96.730 E19.07696
G1 X176.045 Y97.248 E19.14166
G1 X176.287 Y98.181 E19.25622
G1 X176.455 Y99.131 E19.37079
G1 X176.548 Y100.091 E19.48535
G1 X176.565 Y101.094 E19.60447
G1 X176.548 Y101.532 E19.65651
G1 X176.455 Y102.493 E19.77114
G1 X176.287 Y103.443 E19.88578
G1 X176.045 Y104.378 E20.00042
G1 X175.882 Y104.879 E20.06301
G1 X175.535 Y105.764 E20.17589
G1 X155.445 Y149.597 E25.90253
G1 X154.136 Y151.500 E26.17675
G1 X152.260 Y152.846 E26.45098
G1 X149.341 Y153.514 E26.80665
G1 X50.144 Y153.514 E38.58777
G1 X47.870 Y153.117 E38.86200
G1 X45.864 Y151.973 E39.13622
G1 X44.365 Y150.217 E39.41045
G1 X43.549 Y148.057 E39.68467
G1 X43.430 Y146.800 E39.83464
G1 X43.430 Y73.200 E48.57576
G1 X43.827 Y70.925 E48.84998
G1 X44.971 Y68.920 E49.12421
G1 X46.681 Y67.459 E49.39131
G1 E47.39131 F2400.00000
G92 E0
G1 X166.607 Y104.639 F11400.000
G1 E2.00000 F2400.00000
G1 X166.302 Y104.810 E2.04144 F1800.000
G1 X165.984 Y104.957 E2.08308
G1 X165.655 Y105.078 E2.12473
G1 X165.317 Y105.173 E2.16637
G1 X164.974 Y105.242 E2.20802
G1 X164.627 Y105.283 E2.24945
G1 X164.238 Y105.297 E2.29566
G1 X163.886 Y105.283 E2.33751
G1 X163.538 Y105.242 E2.37916
G1 X163.194 Y105.173 E2.42080
G1 X162.857 Y105.078 E2.46245
G1 X162.528 Y104.957 E2.50409
G1 X162.209 Y104.810 E2.54574
G1 X161.903 Y104.638 E2.58738
G1 X161.612 Y104.444 E2.62903
G1 X161.336 Y104.227 E2.67067
G1 X161.079 Y103.989 E2.71232
G1 X160.841 Y103.731 E2.75396
G1 X160.624 Y103.456 E2.79561
G1 X160.429 Y103.164 E2.83725
G1 X160.266 Y102.873 E2.87694
G1 X160.110 Y102.538 E2.92074
G1 X159.989 Y102.211 E2.96218
G1 X159.894 Y101.873 E3.00383
G1 X159.826 Y101.529 E3.04547
G1 X159.785 Y101.183 E3.08691
G1 X159.771 Y100.794 E3.13311
G1 X159.784 Y100.444 E3.17472
G1 X159.829 Y100.079 E3.21838
G1 X159.894 Y99.751 E3.25806
G1 X159.989 Y99.414 E3.29966
G1 X160.110 Y99.086 E3.34125
G1 X160.256 Y98.769 E3.38268
G1 X160.436 Y98.449 E3.42631
G1 X160.621 Y98.171 E3.46595
G1 X160.838 Y97.895 E3.50759
G1 X161.075 Y97.639 E3.54905
G1 X161.344 Y97.390 E3.59265
G1 X161.606 Y97.183 E3.63227
G1 X161.898 Y96.988 E3.67393
G1 X162.202 Y96.817 E3.71542
G1 X162.535 Y96.664 E3.75889
G1 X162.863 Y96.543 E3.80039
G1 X163.199 Y96.449 E3.84190
G1 X163.527 Y96.384 E3.88155
G1 X163.886 Y96.341 E3.92452
G1 X164.288 Y96.327 E3.97231
G1 X164.624 Y96.340 E4.01219
G1 X164.970 Y96.381 E4.05366 F1800.000
G1 X165.313 Y96.449 E4.09511
G1 X165.648 Y96.543 E4.13646
G1 X165.991 Y96.670 E4.17995
G1 X166.308 Y96.817 E4.22144
G1 X166.614 Y96.988 E4.26311
G1 X166.892 Y97.174 E4.30272
G1 X167.180 Y97.401 E4.34631
G1 X167.436 Y97.638 E4.38778
G1 X167.674 Y97.895 E4.42936
G1 X167.890 Y98.171 E4.47100
G1 X168.076 Y98.449 E4.51065
G1 X168.256 Y98.769 E4.55427
G1 X168.402 Y99.086 E4.59571
G1 X168.523 Y99.414 E4.63729
G1 X168.618 Y99.751 E4.67890
G1 X168.683 Y100.079 E4.71857
G1 X168.727 Y100.442 E4.76203
G1 X168.741 Y100.829 E4.80798
G1 X168.727 Y101.181 E4.84984
G1 X168.686 Y101.529 E4.89148
G1 X168.617 Y101.873 E4.93313
G1 X168.522 Y102.211 E4.97477
G1 X168.401 Y102.540 E5.01642
G1 X168.254 Y102.858 E5.05806
G1 X168.083 Y103.164 E5.09971
G1 X167.897 Y103.442 E5.13939
G1 X167.670 Y103.732 E5.18320
G1 X167.433 Y103.989 E5.22464
G1 X167.175 Y104.227 E5.26628
G1 X166.657 Y104.606 E5.34260
G1 X167.005 Y105.232 F11400.000
G1 X166.627 Y105.447 E5.39429 F1800.000
G1 X166.257 Y105.617 E5.44260
G1 X165.876 Y105.758 E5.49091
G1 X165.484 Y105.868 E5.53922
G1 X165.085 Y105.947 E5.58753
G1 X164.682 Y105.995 E5.63576
G1 X164.237 Y106.011 E5.68863
G1 X163.830 Y105.995 E5.73702
G1 X163.426 Y105.947 E5.78533
G1 X163.027 Y105.868 E5.83363
G1 X162.636 Y105.758 E5.88195
G1 X162.254 Y105.617 E5.93025
G1 X161.885 Y105.447 E5.97857
G1 X161.530 Y105.248 E6.02688
G1 X161.192 Y105.022 E6.07519
G1 X160.872 Y104.770 E6.12350
G1 X160.573 Y104.494 E6.17181
G1 X160.297 Y104.195 E6.22012
G1 X160.045 Y103.876 E6.26843
G1 X159.819 Y103.538 E6.31674
G1 X159.629 Y103.198 E6.36295
G1 X159.450 Y102.813 E6.41342
G1 X159.310 Y102.432 E6.46166
G1 X159.199 Y102.040 E6.50997
G1 X159.120 Y101.641 E6.55828
G1 X159.072 Y101.238 E6.60652
G1 X159.056 Y100.793 E6.65938
G1 X159.072 Y100.387 E6.70763
G1 X159.123 Y99.966 E6.75796
G1 X159.199 Y99.585 E6.80417
G1 X159.309 Y99.194 E6.85242
G1 X159.449 Y98.812 E6.90067
G1 X159.619 Y98.444 E6.94885
G1 X159.827 Y98.075 E6.99917
G1 X160.043 Y97.751 E7.04537
G1 X160.294 Y97.432 E7.09363
G1 X160.569 Y97.134 E7.14183
G1 X160.880 Y96.846 E7.19214
G1 X161.186 Y96.605 E7.23833
G1 X161.524 Y96.379 E7.28660
G1 X161.877 Y96.180 E7.33480
G1 X162.262 Y96.003 E7.38507
G1 X162.643 Y95.863 E7.43328
G1 X163.033 Y95.754 E7.48139
G1 X163.414 Y95.678 E7.52759
G1 X163.831 Y95.628 E7.57747
G1 X164.290 Y95.612 E7.63199
G1 X164.680 Y95.628 E7.67828
G1 X165.082 Y95.675 E7.72637 F1800.000
G1 X165.479 Y95.754 E7.77446
G1 X165.868 Y95.863 E7.82252
G1 X166.265 Y96.010 E7.87278
G1 X166.634 Y96.180 E7.92099
G1 X166.988 Y96.379 E7.96926
G1 X167.312 Y96.595 E8.01545
G1 X167.644 Y96.857 E8.06576
G1 X167.942 Y97.133 E8.11396
G1 X168.217 Y97.432 E8.16220
G1 X168.469 Y97.751 E8.21046
G1 X168.685 Y98.075 E8.25666
G1 X168.893 Y98.444 E8.30698
G1 X169.062 Y98.812 E8.35516
G1 X169.203 Y99.194 E8.40341
G1 X169.313 Y99.585 E8.45166
G1 X169.389 Y99.966 E8.49787
G1 X169.439 Y100.386 E8.54812
G1 X169.455 Y100.830 E8.60085
G1 X169.439 Y101.237 E8.64924
G1 X169.392 Y101.641 E8.69755
G1 X169.312 Y102.040 E8.74586
G1 X169.202 Y102.432 E8.79417
G1 X169.061 Y102.813 E8.84248
G1 X168.891 Y103.183 E8.89079
G1 X168.692 Y103.538 E8.93910
G1 X168.476 Y103.861 E8.98532
G1 X168.214 Y104.196 E9.03579
G1 X167.938 Y104.494 E9.08403
G1 X167.639 Y104.770 E9.13233
G1 X167.334 Y105.011 E9.17855
G1 X167.055 Y105.198 E9.21843
G1 X166.656 Y105.038 F11400.000
G1 X163.872 Y104.823 F11400.000
G1 X160.244 Y101.195 E9.88148 F1800.000
G1 X160.247 Y100.100 E10.02302
G1 X164.968 Y104.821 E10.88569
G1 X165.838 Y104.592 E11.00199
G1 X160.475 Y99.229 E11.98213
G1 X160.851 Y98.506 E12.08746
G1 X166.561 Y104.216 E13.13107
G1 X167.155 Y103.710 E13.23181
G1 X161.357 Y97.913 E14.29140
G1 X161.950 Y97.407 E14.39214
G1 X167.661 Y103.117 E15.43581
G1 X168.036 Y102.394 E15.54113
G1 X162.673 Y97.031 E16.52127
G1 X163.544 Y96.803 E16.63761
G1 X168.265 Y101.524 E17.50035
G1 X168.267 Y100.427 E17.64209
G1 X164.639 Y96.799 E18.30502
G1 X166.591 Y97.652 F11400.000
G1 X167.419 Y98.480 E18.45635 F1800.000
G1 X161.923 Y103.974 F11400.000
G1 X161.094 Y103.144 E18.60794 F1800.000
G1 Z0.400 F11400.000
G1 Z0.400 F11400.000
G1 E16.60794 F2400.00000
G92 E0
G1 X161.266 Y106.703 F11400.000
G1 X159.685 Y116.089 F11400.000
G1 X161.450 Y118.299 F11400.000
G1 X161.598 Y138.543 F11400.000
G1 X152.927 Y147.214 F11400.000
G1 X150.341 Y147.214 F11400.000
G1 X148.227 Y138.314 F11400.000
G1 E2.00000 F2400.00000
G1 X148.227 Y145.686 E2.87550 F1800.000
G1 X128.055 Y145.686 E5.27119
G1 X128.055 Y138.314 E6.14669
G1 X148.167 Y138.314 E8.53526
G1 X148.941 Y137.600 F11400.000
G1 X148.941 Y146.400 E9.58040 F1800.000
G1 X127.341 Y146.400 E12.14572
G1 X127.341 Y137.600 E13.19086
G1 X148.881 Y137.600 E15.74906
G1 X148.741 Y137.946 F11400.000
G1 X147.791 Y139.093 F11400.000
G1 X147.448 Y138.750 E15.80875 F1800.000
G1 X146.402 Y138.750 E15.93753
G1 X147.791 Y140.139 E16.17933
G1 X147.791 Y141.186 E16.30811
G1 X145.355 Y138.750 E16.73203
G1 X144.309 Y138.750 E16.86081
G1 X147.791 Y142.232 E17.46685
G1 X147.791 Y143.279 E17.59562
G1 X143.262 Y138.750 E18.38378
G1 X142.216 Y138.750 E18.51256
G1 X147.791 Y144.325 E19.48283
G1 X147.670 Y145.250 E19.59767
G1 X141.170 Y138.750 E20.72897
G1 X140.123 Y138.750 E20.85774
G1 X146.624 Y145.250 E21.98905
G1 X145.577 Y145.250 E22.11782
G1 X139.077 Y138.750 E23.24913
G1 X138.030 Y138.750 E23.37790
G1 X144.531 Y145.250 E24.50921
G1 X143.484 Y145.250 E24.63798
G1 X136.984 Y138.750 E25.76928
G1 X135.937 Y138.750 E25.89806
G1 X142.438 Y145.250 E27.02936
G1 X141.391 Y145.250 E27.15814
G1 X134.891 Y138.750 E28.28944
G1 X133.844 Y138.750 E28.41822
G1 X140.345 Y145.250 E29.54952
G1 X139.298 Y145.250 E29.67830
G1 X132.798 Y138.750 E30.80960
G1 X131.751 Y138.750 E30.93838
G1 X138.252 Y145.250 E32.06968
G1 X137.205 Y145.250 E32.19845
G1 X130.705 Y138.750 E33.32976
G1 X129.658 Y138.750 E33.45853
G1 X136.159 Y145.250 E34.58984
G1 X135.113 Y145.250 E34.71861
G1 X128.612 Y138.750 E35.84992
G1 X128.491 Y139.675 E35.96475
G1 X134.066 Y145.250 E36.93502
G1 X133.020 Y145.250 E37.06380
G1 X128.491 Y140.721 E37.85195
G1 X128.491 Y141.768 E37.98073
G1 X131.973 Y145.250 E38.58677
G1 X130.927 Y145.250 E38.71554
G1 X128.491 Y142.814 E39.13947
G1 X128.491 Y143.861 E39.26824
G1 X129.880 Y145.250 E39.51005
G1 X128.834 Y145.250 E39.63882
G1 X128.491 Y144.907 E39.69851
G1 E37.69851 F2400.00000
G92 E0
G1 X149.341 Y137.200 F11400.000
G1 X149.341 Y137.200 F11400.000
G1 X149.341 Y135.600 F11400.000
G1 X149.341 Y134.000 F11400.000
G1 X148.227 Y132.886 F11400.000
G1 E2.00000 F2400.00000
G1 X128.055 Y132.886 E4.39569 F1800.000
G1 X128.055 Y125.514 E5.27119
G1 X148.227 Y125.514 E7.66688
G1 X148.227 Y132.826 E8.53526
G1 X148.941 Y133.600 F11400.000
G1 X127.341 Y133.600 E11.10059 F1800.000
G1 X127.341 Y124.800 E12.14572
G1 X148.941 Y124.800 E14.71105
G1 X148.941 Y133.540 E15.74906
G1 X148.595 Y133.400 F11400.000
G1 X147.791 Y126.293 F11400.000
G1 X147.448 Y125.950 E15.80875 F1800.000
G1 X146.402 Y125.950 E15.93752
G1 X147.791 Y127.339 E16.17933
G1 X147.791 Y128.386 E16.30811
G1 X145.355 Y125.950 E16.73203
G1 X144.309 Y125.950 E16.86080
G1 X147.791 Y129.432 E17.46684
G1 X147.791 Y130.479 E17.59562
G1 X143.262 Y125.950 E18.38377
G1 X142.216 Y125.950 E18.51255
G1 X147.791 Y131.525 E19.48282
G1 X147.670 Y132.450 E19.59766
G1 X141.170 Y125.950 E20.72896
G1 X140.123 Y125.950 E20.85774
G1 X146.624 Y132.450 E21.98904
G1 X145.577 Y132.450 E22.11781
G1 X139.077 Y125.950 E23.24911
G1 X138.030 Y125.950 E23.37789
G1 X144.531 Y132.450 E24.50919
G1 X143.484 Y132.450 E24.63797
G1 X136.984 Y125.950 E25.76927
G1 X135.937 Y125.950 E25.89804
G1 X142.438 Y132.450 E27.02934
G1 X141.391 Y132.450 E27.15812
G1 X134.891 Y125.950 E28.28942
G1 X133.844 Y125.950 E28.41820
G1 X140.345 Y132.450 E29.54950
G1 X139.298 Y132.450 E29.67827
G1 X132.798 Y125.950 E30.80958
G1 X131.751 Y125.950 E30.93835
G1 X138.252 Y132.450 E32.06965
G1 X137.205 Y132.450 E32.19843
G1 X130.705 Y125.950 E33.32973
G1 X129.658 Y125.950 E33.45850
G1 X136.159 Y132.450 E34.58981
G1 X135.113 Y132.450 E34.71858
G1 X128.612 Y125.950 E35.84988
G1 X128.491 Y126.875 E35.96472
G1 X134.066 Y132.450 E36.93499
G1 X133.020 Y132.450 E37.06377
G1 X128.491 Y127.921 E37.85192
G1 X128.491 Y128.968 E37.98070
G1 X131.973 Y132.450 E38.58673
G1 X130.927 Y132.450 E38.71551
G1 X128.491 Y130.014 E39.13943
G1 X128.491 Y131.061 E39.26821
G1 X129.880 Y132.450 E39.51001
G1 X128.834 Y132.450 E39.63879
G1 X128.491 Y132.107 E39.69848
G1 E37.69848 F2400.00000
G92 E0
G1 X149.341 Y124.400 F11400.000
G1 X149.341 Y124.400 F11400.000
G1 X149.341 Y122.800 F11400.000
G1 X149.341 Y121.200 F11400.000
G1 X148.227 Y120.086 F11400.000
G1 E2.00000 F2400.00000
G1 X128.055 Y120.086 E4.39569 F1800.000
G1 X128.055 Y112.714 E5.27119
G1 X148.227 Y112.714 E7.66688
G1 X148.227 Y120.026 E8.53526
G1 X148.941 Y120.800 F11400.000
G1 X127.341 Y120.800 E11.10059 F1800.000
G1 X127.341 Y112.000 E12.14572
G1 X148.941 Y112.000 E14.71105
G1 X148.941 Y120.740 E15.74905
G1 X148.595 Y120.600 F11400.000
G1 X147.791 Y113.493 F11400.000
G1 X147.448 Y113.150 E15.80875 F1800.000
G1 X146.402 Y113.150 E15.93752
G1 X147.791 Y114.539 E16.17933
G1 X147.791 Y115.586 E16.30810
G1 X145.355 Y113.150 E16.73203
G1 X144.309 Y113.150 E16.86080
G1 X147.791 Y116.632 E17.46684
G1 X147.791 Y117.679 E17.59562
G1 X143.262 Y113.150 E18.38377
G1 X142.216 Y113.150 E18.51255
G1 X147.791 Y118.725 E19.48282
G1 X147.670 Y119.650 E19.59766
G1 X141.170 Y113.150 E20.72896
G1 X140.123 Y113.150 E20.85773
G1 X146.624 Y119.650 E21.98903
G1 X145.577 Y119.650 E22.11781
G1 X139.077 Y113.150 E23.24911
G1 X138.030 Y113.150 E23.37789
G1 X144.531 Y119.650 E24.50919
G1 X143.484 Y119.650 E24.63796
G1 X136.984 Y113.150 E25.76926
G1 X135.937 Y113.150 E25.89804
G1 X142.438 Y119.650 E27.02934
G1 X141.391 Y119.650 E27.15811
G1 X134.891 Y113.150 E28.28941
G1 X133.844 Y113.150 E28.41819
G1 X140.345 Y119.650 E29.54949
G1 X139.298 Y119.650 E29.67827
G1 X132.798 Y113.150 E30.80957
G1 X131.751 Y113.150 E30.93834
G1 X138.252 Y119.650 E32.06964
G1 X137.205 Y119.650 E32.19842
G1 X130.705 Y113.150 E33.32972
G1 X129.658 Y113.150 E33.45849
G1 X136.159 Y119.650 E34.58979
G1 X135.113 Y119.650 E34.71857
G1 X128.612 Y113.150 E35.84987
G1 X128.491 Y114.075 E35.96471
G1 X134.066 Y119.650 E36.93498
G1 X133.020 Y119.650 E37.06375
G1 X128.491 Y115.121 E37.85191
G1 X128.491 Y116.168 E37.98068
G1 X131.973 Y119.650 E38.58672
G1 X130.927 Y119.650 E38.71549
G1 X128.491 Y117.214 E39.13942
G1 X128.491 Y118.261 E39.26819
G1 X129.880 Y119.650 E39.51000
G1 X128.834 Y119.650 E39.63877
G1 X128.491 Y119.307 E39.69846
G1 E37.69846 F2400.00000
G92 E0
G1 X149.341 Y111.600 F11400.000
G1 X149.341 Y111.600 F11400.000
G1 X149.341 Y110.000 F11400.000
G1 X149.341 Y108.400 F11400.000
G1 X148.227 Y107.286 F11400.000
G1 E2.00000 F2400.00000
G1 X128.055 Y107.286 E4.39569 F1800.000
G1 X128.055 Y99.914 E5.27119
G1 X148.227 Y99.914 E7.66688
G1 X148.227 Y107.226 E8.53526
G1 X148.941 Y108.000 F11400.000
G1 X127.341 Y108.000 E11.10058 F1800.000
G1 X127.341 Y99.200 E12.14572
G1 X148.941 Y99.200 E14.71104
G1 X148.941 Y107.940 E15.74905
G1 X148.595 Y107.800 F11400.000
G1 X147.791 Y100.693 F11400.000
G1 X147.448 Y100.350 E15.80874 F1800.000
G1 X146.402 Y100.350 E15.93752
G1 X147.791 Y101.739 E16.17932
G1 X147.791 Y102.786 E16.30810
G1 X145.355 Y100.350 E16.73202
G1 X144.309 Y100.350 E16.86080
G1 X147.791 Y103.832 E17.46684
G1 X147.791 Y104.879 E17.59561
G1 X143.262 Y100.350 E18.38377
G1 X142.216 Y100.350 E18.51254
G1 X147.791 Y105.925 E19.48281
G1 X147.670 Y106.850 E19.59765
G1 X141.170 Y100.350 E20.72895
G1 X140.123 Y100.350 E20.85772
G1 X146.624 Y106.850 E21.98902
G1 X145.577 Y106.850 E22.11780
G1 X139.077 Y100.350 E23.24910
G1 X138.030 Y100.350 E23.37787
G1 X144.531 Y106.850 E24.50917
G1 X143.484 Y106.850 E24.63795
G1 X136.984 Y100.350 E25.76925
G1 X135.937 Y100.350 E25.89802
G1 X142.438 Y106.850 E27.02932
G1 X141.391 Y106.850 E27.15809
G1 X134.891 Y100.350 E28.28939
G1 X133.844 Y100.350 E28.41817
G1 X140.345 Y106.850 E29.54947
G1 X139.298 Y106.850 E29.67824
G1 X132.798 Y100.350 E30.80954
G1 X131.751 Y100.350 E30.93832
G1 X138.252 Y106.850 E32.06962
G1 X137.205 Y106.850 E32.19839
G1 X130.705 Y100.350 E33.32969
G1 X129.658 Y100.350 E33.45846
G1 X136.159 Y106.850 E34.58976
G1 X135.113 Y106.850 E34.71854
G1 X128.612 Y100.350 E35.84984
G1 X128.491 Y101.275 E35.96467
G1 X134.066 Y106.850 E36.93494
G1 X133.020 Y106.850 E37.06372
G1 X128.491 Y102.321 E37.85187
G1 X128.491 Y103.368 E37.98065
G1 X131.973 Y106.850 E38.58668
G1 X130.927 Y106.850 E38.71546
G1 X128.491 Y104.414 E39.13938
G1 X128.491 Y105.461 E39.26816
G1 X129.880 Y106.850 E39.50996
G1 X128.834 Y106.850 E39.63874
G1 X128.491 Y106.507 E39.69843
G1 E37.69843 F2400.00000
G92 E0
G1 X149.341 Y98.800 F11400.000
G1 X149.341 Y98.800 F11400.000
