; generated by Slic3r 1.2.9 on 2016-07-25 at 23:25:50

; external perimeters extrusion width = 0.40mm
; perimeters extrusion width = 0.42mm
; infill extrusion width = 0.42mm
; solid infill extrusion width = 0.42mm
; top infill extrusion width = 0.42mm
; support material extrusion width = 0.40mm

M107
M190 S50 ; set bed temperature
M104 S210 ; set temperature
G28 ; home all axes
G1 Z5 F5000 ; lift nozzle

M109 S210 ; wait for temperature to be reached
G21 ; set units to millimeters
G90 ; use absolute coordinates
M82 ; use absolute distances for extrusion
G92 E0
G1 Z0.400 F11400.000
G1 X20.027 Y17.720 F11400.000
G1 X21.783 Y16.220 E0.27422 F1800.000
G1 X23.943 Y15.405 E0.54845
G1 X25.200 Y15.286 E0.69842
G1 X194.800 Y15.286 E20.84099
G1 X197.075 Y15.683 E21.11521
G1 X199.080 Y16.827 E21.38944 F1800.000
G1 X200.580 Y18.583 E21.66366
G1 X201.395 Y20.743 E21.93789
G1 X201.514 Y22.000 E22.08786
G1 X201.514 Y198.000 E42.99053
G1 X201.117 Y200.275 E43.26475
G1 X199.973 Y202.280 E43.53898
G1 X198.217 Y203.780 E43.81320
G1 X196.057 Y204.595 E44.08743
G1 X194.800 Y204.714 E44.23739
G1 X25.200 Y204.714 E64.37997
G1 X22.925 Y204.317 E64.65419
G1 X20.920 Y203.173 E64.92842
G1 X19.420 Y201.417 E65.20264
G1 X18.605 Y199.257 E65.47687
G1 X18.486 Y198.000 E65.62683
G1 X18.486 Y22.000 E86.52951
G1 X18.883 Y19.725 E86.80373
G1 X19.997 Y17.772 E87.07083
G1 E85.07083 F2400.00000
G92 E0
G1 X26.314 Y23.114 F11400.000
G1 E2.00000 F2400.00000
G1 X193.686 Y23.114 E21.87793 F1800.000
G1 X193.686 Y196.886 E42.51595
G1 X26.314 Y196.886 E62.39388
G1 X26.314 Y23.174 E83.02478
G1 X25.600 Y22.400 F11400.000
G1 X194.400 Y22.400 E103.07234 F1800.000
G1 X194.400 Y197.600 E123.88000
G1 X25.600 Y197.600 E143.92757
G1 X25.600 Y22.460 E164.72810
G1 X25.946 Y22.600 F11400.000
G1 X193.250 Y23.893 F11400.000
G1 X192.907 Y23.550 E164.78577 F1800.000
G1 X191.896 Y23.550 E164.90599
G1 X193.250 Y24.904 E165.13367
G1 X193.250 Y25.915 E165.25389
G1 X190.885 Y23.550 E165.65158
G1 X189.874 Y23.550 E165.77179
G1 X193.250 Y26.926 E166.33950
G1 X193.250 Y27.937 E166.45971
G1 X188.863 Y23.550 E167.19742
G1 X187.852 Y23.550 E167.31764
G1 X193.250 Y28.948 E168.22536
G1 X193.250 Y29.959 E168.34558
G1 X186.841 Y23.550 E169.42331
G1 X185.830 Y23.550 E169.54352
G1 X193.250 Y30.970 E170.79127
G1 X193.250 Y31.981 E170.91148
G1 X184.819 Y23.550 E172.32923
G1 X183.808 Y23.550 E172.44945
G1 X193.250 Y32.992 E174.03721
G1 X193.250 Y34.004 E174.15743
G1 X182.796 Y23.550 E175.91520
G1 X181.785 Y23.550 E176.03541
G1 X193.250 Y35.015 E177.96320
G1 X193.250 Y36.026 E178.08341
G1 X180.774 Y23.550 E180.18120
G1 X179.763 Y23.550 E180.30142
G1 X193.250 Y37.037 E182.56922
G1 X193.250 Y38.048 E182.68944
G1 X178.752 Y23.550 E185.12725
G1 X177.741 Y23.550 E185.24746
G1 X193.250 Y39.059 E187.85529
G1 X193.250 Y40.070 E187.97550
G1 X176.730 Y23.550 E190.75333
G1 X175.719 Y23.550 E190.87355
G1 X193.250 Y41.081 E193.82139
G1 X193.250 Y42.092 E193.94161
G1 X174.708 Y23.550 E197.05946
G1 X173.697 Y23.550 E197.17967
G1 X193.250 Y43.103 E200.46753
G1 X193.250 Y44.114 E200.58775
G1 X172.686 Y23.550 E204.04562
G1 X171.674 Y23.550 E204.16584
G1 X193.250 Y45.126 E207.79372
G1 X193.250 Y46.137 E207.91393
G1 X170.663 Y23.550 E211.71183
G1 X169.652 Y23.550 E211.83204
G1 X193.250 Y47.148 E215.79994
G1 X193.250 Y48.159 E215.92016
G1 X168.641 Y23.550 E220.05807
G1 X167.630 Y23.550 E220.17829
G1 X193.250 Y49.170 E224.48621
G1 X193.250 Y50.181 E224.60642
G1 X166.619 Y23.550 E229.08435
G1 X165.608 Y23.550 E229.20457
G1 X193.250 Y51.192 E233.85251
G1 X193.250 Y52.203 E233.97273
G1 X164.597 Y23.550 E238.79068
G1 X163.586 Y23.550 E238.91089
G1 X193.250 Y53.214 E243.89885
G1 X193.250 Y54.225 E244.01907
G1 X162.575 Y23.550 E249.17704
G1 X161.564 Y23.550 E249.29726
G1 X193.250 Y55.236 E254.62524
G1 X193.250 Y56.248 E254.74545
G1 X160.552 Y23.550 E260.24345
G1 X159.541 Y23.550 E260.36366
G1 X193.250 Y57.259 E266.03166
G1 X193.250 Y58.270 E266.15188
G1 X158.530 Y23.550 E271.98989
G1 X157.519 Y23.550 E272.11010
G1 X193.250 Y59.281 E278.11813
G1 X193.250 Y60.292 E278.23834
G1 X156.508 Y23.550 E284.41637
G1 X155.497 Y23.550 E284.53659
G1 X193.250 Y61.303 E290.88463
G1 X193.250 Y62.314 E291.00484
G1 X154.486 Y23.550 E297.52290
G1 X153.475 Y23.550 E297.64311
G1 X193.250 Y63.325 E304.33117
G1 X193.250 Y64.336 E304.45139
G1 X152.464 Y23.550 E311.30946
G1 X151.453 Y23.550 E311.42967
G1 X193.250 Y65.347 E318.45776
G1 X193.250 Y66.358 E318.57797
G1 X150.442 Y23.550 E325.77606
G1 X149.430 Y23.550 E325.89628
G1 X193.250 Y67.370 E333.26438
G1 X193.250 Y68.381 E333.38459
G1 X148.419 Y23.550 E340.92271
G1 X147.408 Y23.550 E341.04292
G1 X193.250 Y69.392 E348.75104
G1 X193.250 Y70.403 E348.87126
G1 X146.397 Y23.550 E356.74939
G1 X145.386 Y23.550 E356.86960
G1 X193.250 Y71.414 E364.91774
G1 X193.250 Y72.425 E365.03796
G1 X144.375 Y23.550 E373.25611
G1 X143.364 Y23.550 E373.37633
G1 X193.250 Y73.436 E381.76449
G1 X193.250 Y74.447 E381.88470
G1 X142.353 Y23.550 E390.44287
G1 X141.342 Y23.550 E390.56309
G1 X193.250 Y75.458 E399.29127
G1 X193.250 Y76.469 E399.41149
G1 X140.331 Y23.550 E408.30968
G1 X139.320 Y23.550 E408.42989
G1 X193.250 Y77.480 E417.49809
G1 X193.250 Y78.492 E417.61831
G1 X138.308 Y23.550 E426.85652
G1 X137.297 Y23.550 E426.97673
G1 X193.250 Y79.503 E436.38496
G1 X193.250 Y80.514 E436.50517
G1 X136.286 Y23.550 E446.08340
G1 X135.275 Y23.550 E446.20362
G1 X193.250 Y81.525 E455.95186
G1 X193.250 Y82.536 E456.07207
G1 X134.264 Y23.550 E465.99032
G1 X133.253 Y23.550 E466.11054
G1 X193.250 Y83.547 E476.19880
G1 X193.250 Y84.558 E476.31902
G1 X132.242 Y23.550 E486.57729
G1 X131.231 Y23.550 E486.69750
G1 X193.250 Y85.569 E497.12578
G1 X193.250 Y86.580 E497.24600
G1 X130.220 Y23.550 E507.84429
G1 X129.209 Y23.550 E507.96450
G1 X193.250 Y87.591 E518.73281
G1 X193.250 Y88.602 E518.85302
G1 X128.198 Y23.550 E529.79133
G1 X127.186 Y23.550 E529.91155
G1 X193.250 Y89.614 E541.01987
G1 X193.250 Y90.625 E541.14008
G1 X126.175 Y23.550 E552.41841
G1 X125.164 Y23.550 E552.53863
G1 X193.250 Y91.636 E563.98697
G1 X193.250 Y92.647 E564.10718
G1 X124.153 Y23.550 E575.72554
G1 X123.142 Y23.550 E575.84575
G1 X193.250 Y93.658 E587.63411
G1 X193.250 Y94.669 E587.75433
G1 X122.131 Y23.550 E599.71270
G1 X121.120 Y23.550 E599.83291
G1 X193.250 Y95.680 E611.96129
G1 X193.250 Y96.691 E612.08151
G1 X120.109 Y23.550 E624.37990
G1 X119.098 Y23.550 E624.50011
G1 X193.250 Y97.702 E636.96852
G1 X193.250 Y98.713 E637.08873
G1 X118.087 Y23.550 E649.72714
G1 X117.076 Y23.550 E649.84736
G1 X193.250 Y99.724 E662.65578
G1 X193.250 Y100.736 E662.77599
G1 X116.064 Y23.550 E675.75442
G1 X115.053 Y23.550 E675.87464
G1 X193.250 Y101.747 E689.02308
G1 X193.250 Y102.758 E689.14329
G1 X114.042 Y23.550 E702.46174
G1 X113.031 Y23.550 E702.58196
G1 X193.250 Y103.769 E716.07042
G1 X193.250 Y104.780 E716.19063
G1 X112.020 Y23.550 E729.84910
G1 X111.009 Y23.550 E729.96932
G1 X193.250 Y105.791 E743.79780
G1 X193.250 Y106.802 E743.91802
G1 X109.998 Y23.550 E757.91651
G1 X108.987 Y23.550 E758.03672
G1 X193.250 Y107.813 E772.20522
G1 X193.250 Y108.824 E772.32544
G1 X107.976 Y23.550 E786.66395
G1 X106.965 Y23.550 E786.78416
G1 X193.250 Y109.835 E801.29268
G1 X193.250 Y110.846 E801.41290
G1 X105.954 Y23.550 E816.09143
G1 X104.942 Y23.550 E816.21164
G1 X193.250 Y111.858 E831.06018
G1 X193.250 Y112.869 E831.18040
G1 X103.931 Y23.550 E846.19895
G1 X102.920 Y23.550 E846.31916
G1 X193.250 Y113.880 E861.50772
G1 X193.250 Y114.891 E861.62794
G1 X101.909 Y23.550 E876.98651
G1 X100.898 Y23.550 E877.10672
G1 X193.250 Y115.902 E892.63530
G1 X193.250 Y116.913 E892.75552
G1 X99.887 Y23.550 E908.45411
G1 X98.876 Y23.550 E908.57433
G1 X193.250 Y117.924 E924.44293
G1 X193.250 Y118.935 E924.56314
G1 X97.865 Y23.550 E940.60175
G1 X96.854 Y23.550 E940.72197
G1 X193.250 Y119.946 E956.93059
G1 X193.250 Y120.957 E957.05080
G1 X95.843 Y23.550 E973.42943
G1 X94.832 Y23.550 E973.54965
G1 X193.250 Y121.968 E990.09829
G1 X193.250 Y122.980 E990.21850
G1 X93.820 Y23.550 E1006.93715
G1 X92.809 Y23.550 E1007.05737
G1 X193.250 Y123.991 E1023.94603
G1 X193.250 Y125.002 E1024.06624
G1 X91.798 Y23.550 E1041.12491
G1 X90.787 Y23.550 E1041.24513
G1 X193.250 Y126.013 E1058.47381
G1 X193.250 Y127.024 E1058.59402
G1 X89.776 Y23.550 E1075.99271
G1 X88.765 Y23.550 E1076.11293
G1 X193.250 Y128.035 E1093.68163
G1 X193.250 Y129.046 E1093.80184
G1 X87.754 Y23.550 E1111.54055
G1 X86.743 Y23.550 E1111.66077
G1 X193.250 Y130.057 E1129.56949
G1 X193.250 Y131.068 E1129.68970
G1 X85.732 Y23.550 E1147.76843
G1 X84.721 Y23.550 E1147.88865
G1 X193.250 Y132.079 E1166.13739
G1 X193.250 Y133.090 E1166.25760
G1 X83.710 Y23.550 E1184.67635
G1 X82.698 Y23.550 E1184.79657
G1 X193.250 Y134.102 E1203.38533
G1 X193.250 Y135.113 E1203.50554
G1 X81.687 Y23.550 E1222.26431
G1 X80.676 Y23.550 E1222.38453
G1 X193.250 Y136.124 E1241.31331
G1 X193.250 Y137.135 E1241.43352
G1 X79.665 Y23.550 E1260.53231
G1 X78.654 Y23.550 E1260.65253
G1 X193.250 Y138.146 E1279.92133
G1 X193.250 Y139.157 E1280.04154
G1 X77.643 Y23.550 E1299.48035
G1 X76.632 Y23.550 E1299.60056
G1 X193.250 Y140.168 E1319.20938
G1 X193.250 Y141.179 E1319.32960
G1 X75.621 Y23.550 E1339.10843
G1 X74.610 Y23.550 E1339.22864
G1 X193.250 Y142.190 E1359.17748
G1 X193.250 Y143.201 E1359.29770
G1 X73.599 Y23.550 E1379.41655
G1 X72.588 Y23.550 E1379.53676
G1 X193.250 Y144.212 E1399.82562
G1 X193.250 Y145.224 E1399.94584
G1 X71.576 Y23.550 E1420.40471
G1 X70.565 Y23.550 E1420.52492
G1 X193.250 Y146.235 E1441.15380
G1 X193.250 Y147.246 E1441.27402
G1 X69.554 Y23.550 E1462.07291
G1 X68.543 Y23.550 E1462.19312
G1 X193.250 Y148.257 E1483.16202
G1 X193.250 Y149.268 E1483.28224
G1 X67.532 Y23.550 E1504.42114
G1 X66.521 Y23.550 E1504.54136
G1 X193.250 Y150.279 E1525.85028
G1 X193.250 Y151.290 E1525.97049
G1 X65.510 Y23.550 E1547.44942
G1 X64.499 Y23.550 E1547.56964
G1 X193.250 Y152.301 E1569.21858
G1 X193.250 Y153.312 E1569.33879
G1 X63.488 Y23.550 E1591.15774
G1 X62.477 Y23.550 E1591.27796
G1 X193.250 Y154.323 E1613.26692
G1 X193.250 Y155.334 E1613.38713
G1 X61.466 Y23.550 E1635.54610
G1 X60.454 Y23.550 E1635.66632
G1 X193.250 Y156.346 E1657.99530
G1 X193.250 Y157.357 E1658.11551
G1 X59.443 Y23.550 E1680.61450
G1 X58.432 Y23.550 E1680.73472
G1 X193.250 Y158.368 E1703.40371
G1 X193.250 Y159.379 E1703.52393
G1 X57.421 Y23.550 E1726.36294
G1 X56.410 Y23.550 E1726.48315
G1 X193.250 Y160.390 E1749.49217
G1 X193.250 Y161.401 E1749.61239
G1 X55.399 Y23.550 E1772.79142
G1 X54.388 Y23.550 E1772.91163
G1 X193.250 Y162.412 E1796.26067
G1 X193.250 Y163.423 E1796.38089
G1 X53.377 Y23.550 E1819.89993
G1 X52.366 Y23.550 E1820.02015
G1 X193.250 Y164.434 E1843.70921
G1 X193.250 Y165.445 E1843.82942
G1 X51.355 Y23.550 E1867.68849
G1 X50.344 Y23.550 E1867.80871
G1 X193.250 Y166.456 E1891.83779
G1 X193.250 Y167.468 E1891.95800
G1 X49.332 Y23.550 E1916.15709
G1 X48.321 Y23.550 E1916.27731
G1 X193.250 Y168.479 E1940.64641
G1 X193.250 Y169.490 E1940.76662
G1 X47.310 Y23.550 E1965.30573
G1 X46.299 Y23.550 E1965.42594
G1 X193.250 Y170.501 E1990.13506
G1 X193.250 Y171.512 E1990.25528
G1 X45.288 Y23.550 E2015.13441
G1 X44.277 Y23.550 E2015.25462
G1 X193.250 Y172.523 E2040.30376
G1 X193.250 Y173.534 E2040.42398
G1 X43.266 Y23.550 E2065.64313
G1 X42.255 Y23.550 E2065.76334
G1 X193.250 Y174.545 E2091.15250
G1 X193.250 Y175.556 E2091.27271
G1 X41.244 Y23.550 E2116.83188
G1 X40.233 Y23.550 E2116.95210
G1 X193.250 Y176.567 E2142.68128
G1 X193.250 Y177.578 E2142.80149
G1 X39.222 Y23.550 E2168.70068
G1 X38.210 Y23.550 E2168.82090
G1 X193.250 Y178.590 E2194.89009
G1 X193.250 Y179.601 E2195.01031
G1 X37.199 Y23.550 E2221.24952
G1 X36.188 Y23.550 E2221.36973
G1 X193.250 Y180.612 E2247.77895
G1 X193.250 Y181.623 E2247.89917
G1 X35.177 Y23.550 E2274.47840
G1 X34.166 Y23.550 E2274.59861
G1 X193.250 Y182.634 E2301.34785
G1 X193.250 Y183.645 E2301.46806
G1 X33.155 Y23.550 E2328.38731
G1 X32.144 Y23.550 E2328.50753
G1 X193.250 Y184.656 E2355.59679
G1 X193.250 Y185.667 E2355.71700
G1 X31.133 Y23.550 E2382.97627
G1 X30.122 Y23.550 E2383.09648
G1 X193.250 Y186.678 E2410.52576
G1 X193.250 Y187.689 E2410.64598
G1 X29.111 Y23.550 E2438.24527
G1 X28.100 Y23.550 E2438.36548
G1 X193.250 Y188.700 E2466.13478
G1 X193.250 Y189.712 E2466.25500
G1 X27.088 Y23.550 E2494.19430
G1 X26.750 Y24.222 E2494.28382
G1 X193.250 Y190.723 E2522.28008
G1 X193.250 Y191.734 E2522.40030
G1 X26.750 Y25.233 E2550.39657
G1 X26.750 Y26.244 E2550.51678
G1 X193.250 Y192.745 E2578.51305
G1 X193.250 Y193.756 E2578.63326
G1 X26.750 Y27.255 E2606.62953
G1 X26.750 Y28.266 E2606.74975
G1 X193.250 Y194.767 E2634.74601
G1 X193.250 Y195.778 E2634.86623
G1 X26.750 Y29.277 E2662.86249
G1 X26.750 Y30.289 E2662.98271
G1 X192.911 Y196.450 E2690.92200
G1 X191.900 Y196.450 E2691.04221
G1 X26.750 Y31.300 E2718.81149
G1 X26.750 Y32.311 E2718.93171
G1 X190.889 Y196.450 E2746.53097
G1 X189.878 Y196.450 E2746.65119
G1 X26.750 Y33.322 E2774.08045
G1 X26.750 Y34.333 E2774.20066
G1 X188.867 Y196.450 E2801.45991
G1 X187.856 Y196.450 E2801.58012
G1 X26.750 Y35.344 E2828.66936
G1 X26.750 Y36.355 E2828.78958
G1 X186.845 Y196.450 E2855.70880
G1 X185.834 Y196.450 E2855.82902
G1 X26.750 Y37.366 E2882.57824
G1 X26.750 Y38.377 E2882.69845
G1 X184.823 Y196.450 E2909.27766
G1 X183.812 Y196.450 E2909.39788
G1 X26.750 Y39.388 E2935.80707
G1 X26.750 Y40.399 E2935.92729
G1 X182.801 Y196.450 E2962.16648
G1 X181.789 Y196.450 E2962.28669
G1 X26.750 Y41.411 E2988.35587
G1 X26.750 Y42.422 E2988.47608
G1 X180.778 Y196.450 E3014.37525
G1 X179.767 Y196.450 E3014.49547
G1 X26.750 Y43.433 E3040.22463
G1 X26.750 Y44.444 E3040.34484
G1 X178.756 Y196.450 E3065.90399
G1 X177.745 Y196.450 E3066.02420
G1 X26.750 Y45.455 E3091.41334
G1 X26.750 Y46.466 E3091.53356
G1 X176.734 Y196.450 E3116.75269
G1 X175.723 Y196.450 E3116.87290
G1 X26.750 Y47.477 E3141.92202
G1 X26.750 Y48.488 E3142.04223
G1 X174.712 Y196.450 E3166.92134
G1 X173.701 Y196.450 E3167.04156
G1 X26.750 Y49.499 E3191.75066
G1 X26.750 Y50.510 E3191.87087
G1 X172.690 Y196.450 E3216.40996
G1 X171.679 Y196.450 E3216.53017
G1 X26.750 Y51.521 E3240.89925
G1 X26.750 Y52.533 E3241.01947
G1 X170.667 Y196.450 E3265.21854
G1 X169.656 Y196.450 E3265.33875
G1 X26.750 Y53.544 E3289.36781
G1 X26.750 Y54.555 E3289.48802
G1 X168.645 Y196.450 E3313.34707
G1 X167.634 Y196.450 E3313.46729
G1 X26.750 Y55.566 E3337.15633
G1 X26.750 Y56.577 E3337.27654
G1 X166.623 Y196.450 E3360.79557
G1 X165.612 Y196.450 E3360.91578
G1 X26.750 Y57.588 E3384.26480
G1 X26.750 Y58.599 E3384.38502
G1 X164.601 Y196.450 E3407.56403
G1 X163.590 Y196.450 E3407.68424
G1 X26.750 Y59.610 E3430.69324
G1 X26.750 Y60.621 E3430.81345
G1 X162.579 Y196.450 E3453.65244
G1 X161.568 Y196.450 E3453.77266
G1 X26.750 Y61.632 E3476.44164
G1 X26.750 Y62.643 E3476.56185
G1 X160.557 Y196.450 E3499.06082
G1 X159.545 Y196.450 E3499.18104
G1 X26.750 Y63.655 E3521.50999
G1 X26.750 Y64.666 E3521.63021
G1 X158.534 Y196.450 E3543.78916
G1 X157.523 Y196.450 E3543.90937
G1 X26.750 Y65.677 E3565.89831
G1 X26.750 Y66.688 E3566.01853
G1 X156.512 Y196.450 E3587.83746
G1 X155.501 Y196.450 E3587.95767
G1 X26.750 Y67.699 E3609.60659
G1 X26.750 Y68.710 E3609.72680
G1 X154.490 Y196.450 E3631.20571
G1 X153.479 Y196.450 E3631.32593
G1 X26.750 Y69.721 E3652.63483
G1 X26.750 Y70.732 E3652.75504
G1 X152.468 Y196.450 E3673.89393
G1 X151.457 Y196.450 E3674.01415
G1 X26.750 Y71.743 E3694.98303
G1 X26.750 Y72.754 E3695.10324
G1 X150.446 Y196.450 E3715.90211
G1 X149.435 Y196.450 E3716.02232
G1 X26.750 Y73.765 E3736.65118
G1 X26.750 Y74.777 E3736.77140
G1 X148.423 Y196.450 E3757.23025
G1 X147.412 Y196.450 E3757.35046
G1 X26.750 Y75.788 E3777.63930
G1 X26.750 Y76.799 E3777.75952
G1 X146.401 Y196.450 E3797.87835
G1 X145.390 Y196.450 E3797.99856
G1 X26.750 Y77.810 E3817.94738
G1 X26.750 Y78.821 E3818.06760
G1 X144.379 Y196.450 E3837.84640
G1 X143.368 Y196.450 E3837.96662
G1 X26.750 Y79.832 E3857.57542
G1 X26.750 Y80.843 E3857.69563
G1 X142.357 Y196.450 E3877.13442
G1 X141.346 Y196.450 E3877.25464
G1 X26.750 Y81.854 E3896.52342
G1 X26.750 Y82.865 E3896.64363
G1 X140.335 Y196.450 E3915.74240
G1 X139.324 Y196.450 E3915.86262
G1 X26.750 Y83.876 E3934.79138
