; generated by Slic3r 1.2.9 on 2016-07-25 at 23:58:53

; external perimeters extrusion width = 0.40mm
; perimeters extrusion width = 0.42mm
; infill extrusion width = 0.42mm
; solid infill extrusion width = 0.42mm
; top infill extrusion width = 0.42mm
; support material extrusion width = 0.40mm

M107
M190 S50 ; set bed temperature
M104 S210 ; set temperature
G28 ; home all axes
G1 Z5 F5000 ; lift nozzle

M109 S210 ; wait for temperature to be reached
G21 ; set units to millimeters
G90 ; use absolute coordinates
M82 ; use absolute distances for extrusion
G92 E0
G1 Z0.400 F11400.000
G1 E-2.00000 F2400.00000
G92 E0
G1 X92.672 Y92.588 F11400.000
G1 E2.00000 F2400.00000
G1 X93.422 Y91.903 E2.12067 F1800.000
G1 X94.270 Y91.252 E2.24771
G1 X95.163 Y90.682 E2.37345
G1 X95.829 Y90.322 E2.46346
G1 X96.789 Y89.891 E2.58836
G1 X97.783 Y89.543 E2.71347
G1 X98.744 Y89.294 E2.83129
G1 X99.799 Y89.114 E2.95850
G1 X100.567 Y89.040 E3.05013
G1 X101.427 Y89.016 E3.15230
G1 X118.890 Y89.018 E5.22627
G1 X120.021 Y89.091 E5.36090 F1800.000
G1 X120.707 Y89.187 E5.44311
G1 X121.182 Y89.278 E5.50055
G1 X121.739 Y89.407 E5.56852
G1 X122.458 Y89.617 E5.65742
G1 X123.026 Y89.816 E5.72891
G1 X123.671 Y90.080 E5.81167
G1 X124.628 Y90.556 E5.93861
G1 X125.546 Y91.119 E6.06648
G1 X126.404 Y91.753 E6.19322
G1 X126.931 Y92.203 E6.27553
G1 X127.387 Y92.640 E6.35053
G1 X127.730 Y92.996 E6.40926
G1 X128.184 Y93.518 E6.49142
G1 X128.821 Y94.365 E6.61724
G1 X129.386 Y95.269 E6.74388
G1 X129.713 Y95.890 E6.82721
G1 X129.952 Y96.406 E6.89484
G1 X130.152 Y96.889 E6.95685
G1 X130.415 Y97.643 E7.05171
G1 X130.674 Y98.604 E7.16988
G1 X130.792 Y99.194 E7.24135
G1 X130.899 Y99.909 E7.32725
G1 X130.975 Y100.951 E7.45132
G1 X130.976 Y119.027 E9.59814
G1 X130.901 Y120.070 E9.72226
G1 X130.750 Y121.042 E9.83909
G1 X130.501 Y122.075 E9.96533
G1 X130.266 Y122.805 E10.05646
G1 X129.954 Y123.591 E10.15681
G1 X129.669 Y124.197 E10.23633
G1 X129.359 Y124.779 E10.31468
G1 X128.788 Y125.683 E10.44174
G1 X128.190 Y126.474 E10.55949
G1 X127.692 Y127.046 E10.64951
G1 X126.993 Y127.740 E10.76646
G1 X126.410 Y128.240 E10.85771
G1 X125.666 Y128.797 E10.96810
G1 X125.105 Y129.163 E11.04762
G1 X124.394 Y129.570 E11.14499
G1 X123.418 Y130.028 E11.27301
G1 X122.704 Y130.303 E11.36387
G1 X121.752 Y130.591 E11.48197
G1 X121.011 Y130.758 E11.57225
G1 X120.204 Y130.886 E11.66927
G1 X119.599 Y130.947 E11.74148
G1 X118.744 Y130.984 E11.84310
G1 X101.431 Y130.984 E13.89932
G1 X100.524 Y130.957 E14.00708
G1 X99.823 Y130.889 E14.09075
G1 X99.316 Y130.814 E14.15160
G1 X98.760 Y130.709 E14.21870
G1 X98.027 Y130.526 E14.30848
G1 X97.080 Y130.219 E14.42677
G1 X96.521 Y129.997 E14.49813
G1 X95.840 Y129.684 E14.58716
G1 X94.863 Y129.138 E14.72006
G1 X94.342 Y128.798 E14.79399
G1 X93.942 Y128.507 E14.85276
G1 X93.443 Y128.114 E14.92812
G1 X92.922 Y127.650 E15.01102
G1 X92.501 Y127.237 E15.08111
G1 X91.960 Y126.643 E15.17650
G1 X91.301 Y125.793 E15.30418
G1 X90.878 Y125.158 E15.39479
G1 X90.391 Y124.297 E15.51238
G1 X90.066 Y123.613 E15.60231
G1 X89.707 Y122.697 E15.71907
G1 X89.455 Y121.877 E15.82093
G1 X89.321 Y121.333 E15.88756
G1 X89.177 Y120.585 E15.97797
G1 X89.061 Y119.589 E16.09705
G1 X89.025 Y118.662 E16.20725
G1 X89.025 Y101.338 E18.26474
G1 X89.047 Y100.644 E18.34716
G1 X89.139 Y99.688 E18.46127
G1 X89.207 Y99.240 E18.51504
G1 X89.363 Y98.483 E18.60685
G1 X89.625 Y97.548 E18.72219
G1 X89.884 Y96.829 E18.81303
G1 X90.093 Y96.331 E18.87712
G1 X90.574 Y95.366 E19.00522
G1 X90.903 Y94.803 E19.08260
G1 X91.287 Y94.227 E19.16479
G1 X91.938 Y93.383 E19.29143
G1 X92.629 Y92.631 E19.41274
G1 E17.41274 F2400.00000
G92 E0
G1 X121.924 Y104.427 F11400.000
G1 E2.00000 F2400.00000
G1 X121.662 Y104.682 E2.04339 F1800.000
G1 X121.377 Y104.918 E2.08731
G1 X121.069 Y105.131 E2.13176
G1 X120.523 Y105.428 E2.20562
G1 X120.176 Y105.568 E2.25001
G1 X119.828 Y105.677 E2.29335
G1 X119.402 Y105.769 E2.34508
G1 X118.785 Y105.830 E2.41869
G1 X118.412 Y105.825 E2.46305
G1 X118.050 Y105.790 E2.50626
G1 X117.622 Y105.708 E2.55797
G1 X117.030 Y105.524 E2.63164
G1 X116.688 Y105.373 E2.67601
G1 X116.367 Y105.200 E2.71937
G1 X116.003 Y104.958 E2.77118
G1 X115.529 Y104.560 E2.84478
G1 X115.277 Y104.293 E2.88837
G1 X115.008 Y103.951 E2.94008
G1 X114.835 Y103.692 E2.97698
G1 X114.521 Y103.080 E3.05868
G1 X114.393 Y102.739 E3.10201
G1 X114.292 Y102.383 E3.14593
G1 X114.220 Y102.016 E3.19029
G1 X114.183 Y101.708 E3.22716
G1 X114.169 Y101.398 E3.26405
G1 X114.182 Y100.993 E3.31219
G1 X114.220 Y100.663 E3.35158
G1 X114.307 Y100.238 E3.40315
G1 X114.402 Y99.912 E3.44349
G1 X114.669 Y99.280 E3.52499
G1 X114.865 Y98.937 E3.57184
G1 X115.076 Y98.631 E3.61607
G1 X115.272 Y98.388 E3.65300
G1 X115.484 Y98.161 E3.68994
G1 X115.759 Y97.908 E3.73431
G1 X116.047 Y97.684 E3.77759
G1 X116.413 Y97.449 E3.82930
G1 X116.970 Y97.176 E3.90296
G1 X117.322 Y97.050 E3.94741
G1 X117.679 Y96.954 E3.99131
G1 X118.042 Y96.887 E4.03515
G1 X118.409 Y96.852 E4.07895
G1 X118.778 Y96.846 E4.12277
G1 X119.151 Y96.872 E4.16721
G1 X119.764 Y96.983 E4.24118 F1800.000
G1 X120.123 Y97.090 E4.28567
G1 X120.468 Y97.224 E4.32957
G1 X120.795 Y97.384 E4.37285
G1 X121.168 Y97.609 E4.42455
G1 X121.419 Y97.790 E4.46134
G1 X121.657 Y97.989 E4.49820
G1 X121.925 Y98.249 E4.54255
G1 X122.165 Y98.524 E4.58586
G1 X122.420 Y98.878 E4.63766
G1 X122.582 Y99.142 E4.67453
G1 X122.724 Y99.417 E4.71126
G1 X122.869 Y99.760 E4.75541
G1 X122.984 Y100.114 E4.79962
G1 X123.058 Y100.415 E4.83643
G1 X123.109 Y100.722 E4.87337
G1 X123.149 Y101.157 E4.92527
G1 X123.149 Y101.522 E4.96865
G1 X123.119 Y101.894 E5.01298
G1 X123.070 Y102.200 E5.04980
G1 X122.999 Y102.503 E5.08675
G1 X122.868 Y102.919 E5.13850
G1 X122.727 Y103.253 E5.18159
G1 X122.554 Y103.583 E5.22584
G1 X122.390 Y103.847 E5.26271
G1 X122.207 Y104.096 E5.29947
G1 X121.963 Y104.382 E5.34412
G1 X122.466 Y104.892 F11400.000
G1 X122.139 Y105.214 E5.39864 F1800.000
G1 X121.808 Y105.487 E5.44954
G1 X121.455 Y105.733 E5.50062
G1 X121.142 Y105.918 E5.54385
G1 X120.816 Y106.080 E5.58707
G1 X120.417 Y106.241 E5.63814
G1 X120.010 Y106.369 E5.68883
G1 X119.526 Y106.473 E5.74769
G1 X119.166 Y106.522 E5.79084
G1 X118.802 Y106.544 E5.83406
G1 X118.373 Y106.538 E5.88511
G1 X117.948 Y106.497 E5.93575
G1 X117.461 Y106.404 E5.99460
G1 X117.110 Y106.309 E6.03778
G1 X116.767 Y106.188 E6.08098
G1 X116.374 Y106.016 E6.13204
G1 X115.998 Y105.813 E6.18274
G1 X115.585 Y105.538 E6.24162
G1 X115.299 Y105.314 E6.28481
G1 X115.029 Y105.070 E6.32798
G1 X114.735 Y104.760 E6.37876
G1 X114.429 Y104.370 E6.43760
G1 X114.227 Y104.068 E6.48081
G1 X114.080 Y103.809 E6.51615
G1 X113.864 Y103.361 E6.57523
G1 X113.714 Y102.962 E6.62591
G1 X113.597 Y102.549 E6.67681
G1 X113.514 Y102.128 E6.72786
G1 X113.471 Y101.766 E6.77106
G1 X113.455 Y101.403 E6.81426
G1 X113.469 Y100.940 E6.86922
G1 X113.514 Y100.550 E6.91586
G1 X113.613 Y100.066 E6.97459
G1 X113.724 Y99.686 E7.02159
G1 X114.032 Y98.955 E7.11582
G1 X114.260 Y98.556 E7.17032
G1 X114.504 Y98.203 E7.22132
G1 X114.732 Y97.920 E7.26453
G1 X114.981 Y97.654 E7.30775
G1 X115.297 Y97.363 E7.35881
G1 X115.634 Y97.101 E7.40947
G1 X116.051 Y96.833 E7.46832
G1 X116.371 Y96.661 E7.51147
G1 X116.703 Y96.513 E7.55471
G1 X117.108 Y96.368 E7.60579
G1 X117.522 Y96.256 E7.65668
G1 X117.943 Y96.180 E7.70754
G1 X118.369 Y96.138 E7.75840
G1 X118.798 Y96.132 E7.80925
G1 X119.227 Y96.161 E7.86033
G1 X119.587 Y96.213 E7.90358 F1800.000
G1 X119.943 Y96.291 E7.94683
G1 X120.355 Y96.414 E7.99793
G1 X120.754 Y96.569 E8.04882
G1 X121.138 Y96.756 E8.09948
G1 X121.562 Y97.013 E8.15833
G1 X121.857 Y97.225 E8.20150
G1 X122.136 Y97.458 E8.24470
G1 X122.444 Y97.758 E8.29575
G1 X122.724 Y98.080 E8.34642
G1 X123.015 Y98.481 E8.40531
G1 X123.205 Y98.792 E8.44851
G1 X123.372 Y99.114 E8.49166
G1 X123.538 Y99.510 E8.54263
G1 X123.672 Y99.918 E8.59361
G1 X123.758 Y100.271 E8.63678
G1 X123.818 Y100.630 E8.68000
G1 X123.863 Y101.124 E8.73891
G1 X123.863 Y101.551 E8.78961
G1 X123.828 Y101.979 E8.84065
G1 X123.771 Y102.338 E8.88383
G1 X123.688 Y102.692 E8.92705
G1 X123.539 Y103.165 E8.98589
G1 X123.373 Y103.558 E9.03648
G1 X123.174 Y103.938 E9.08750
G1 X122.982 Y104.247 E9.13069
G1 X122.767 Y104.540 E9.17385
G1 X122.505 Y104.847 E9.22176
G1 X122.077 Y104.797 F11400.000
G1 X118.287 Y105.360 F11400.000
G1 X114.646 Y101.718 E9.88723 F1800.000
G1 X114.647 Y100.620 E10.02905
G1 X119.378 Y105.352 E10.89368
G1 X120.245 Y105.120 E11.00962
G1 X114.887 Y99.762 E11.98871
G1 X115.256 Y99.032 E12.09437
G1 X120.968 Y104.744 E13.13803
G1 X121.559 Y104.236 E13.23872
G1 X115.763 Y98.440 E14.29791
G1 X116.356 Y97.935 E14.39863
G1 X122.061 Y103.640 E15.44112
G1 X122.444 Y102.923 E15.54603
G1 X117.076 Y97.556 E16.52685
G1 X117.943 Y97.323 E16.64273
G1 X122.671 Y102.051 E17.50670
G1 X122.679 Y100.961 E17.64761
G1 X119.043 Y97.325 E18.31203
G1 X120.980 Y98.163 F11400.000
G1 X121.842 Y99.025 E18.46965 F1800.000
G1 X116.262 Y104.433 F11400.000
G1 X115.510 Y103.681 E18.60703 F1800.000
G1 E16.60703 F2400.00000
G92 E0
G1 X112.327 Y103.387 F11400.000
G1 X110.006 Y104.167 F11400.000
G1 X110.006 Y104.224 F11400.000
G1 X110.007 Y104.486 F11400.000
G1 X107.592 Y103.657 F11400.000
G1 X104.610 Y104.427 F11400.000
G1 E2.00000 F2400.00000
G1 X104.348 Y104.682 E2.04339 F1800.000
G1 X104.063 Y104.918 E2.08731
G1 X103.756 Y105.131 E2.13176
G1 X103.209 Y105.428 E2.20562
G1 X102.863 Y105.568 E2.25001
G1 X102.515 Y105.677 E2.29335
G1 X102.089 Y105.769 E2.34508
G1 X101.472 Y105.830 E2.41869
G1 X101.099 Y105.825 E2.46305
G1 X100.736 Y105.790 E2.50626
G1 X100.309 Y105.708 E2.55797
G1 X99.716 Y105.524 E2.63164
G1 X99.374 Y105.373 E2.67601
G1 X99.053 Y105.200 E2.71937
G1 X98.690 Y104.958 E2.77118
G1 X98.216 Y104.560 E2.84478
G1 X97.963 Y104.293 E2.88837
G1 X97.694 Y103.951 E2.94008
G1 X97.522 Y103.692 E2.97698
G1 X97.208 Y103.080 E3.05868
G1 X97.080 Y102.739 E3.10201
G1 X96.979 Y102.383 E3.14593
G1 X96.907 Y102.016 E3.19029
G1 X96.870 Y101.708 E3.22716
G1 X96.856 Y101.398 E3.26405
G1 X96.868 Y100.993 E3.31219
G1 X96.907 Y100.663 E3.35158
G1 X96.993 Y100.238 E3.40315
G1 X97.089 Y99.912 E3.44349
G1 X97.356 Y99.280 E3.52499
G1 X97.552 Y98.937 E3.57184
G1 X97.763 Y98.631 E3.61607
G1 X97.958 Y98.388 E3.65300
G1 X98.171 Y98.161 E3.68994
G1 X98.446 Y97.908 E3.73431
G1 X98.733 Y97.684 E3.77759
G1 X99.100 Y97.449 E3.82930
G1 X99.657 Y97.176 E3.90296
G1 X100.009 Y97.050 E3.94741
G1 X100.366 Y96.954 E3.99131
G1 X100.729 Y96.887 E4.03515
G1 X101.096 Y96.852 E4.07895
G1 X101.465 Y96.846 E4.12277
G1 X101.838 Y96.872 E4.16721
G1 X102.451 Y96.983 E4.24118 F1800.000
G1 X102.810 Y97.090 E4.28567
G1 X103.155 Y97.224 E4.32957
G1 X103.482 Y97.384 E4.37285
G1 X103.854 Y97.609 E4.42455
G1 X104.106 Y97.790 E4.46134
G1 X104.344 Y97.989 E4.49820
G1 X104.612 Y98.249 E4.54255
G1 X104.851 Y98.524 E4.58586
G1 X105.107 Y98.878 E4.63766
G1 X105.269 Y99.142 E4.67453
G1 X105.411 Y99.417 E4.71126
G1 X105.555 Y99.760 E4.75541
G1 X105.671 Y100.114 E4.79962
G1 X105.744 Y100.415 E4.83643
G1 X105.796 Y100.722 E4.87337
G1 X105.835 Y101.157 E4.92527
G1 X105.836 Y101.522 E4.96865
G1 X105.805 Y101.894 E5.01298
G1 X105.757 Y102.200 E5.04980
G1 X105.685 Y102.503 E5.08675
G1 X105.554 Y102.919 E5.13850
G1 X105.414 Y103.253 E5.18159
G1 X105.241 Y103.583 E5.22584
G1 X105.076 Y103.847 E5.26271
G1 X104.894 Y104.096 E5.29947
G1 X104.649 Y104.382 E5.34412
G1 X105.153 Y104.892 F11400.000
G1 X104.826 Y105.214 E5.39864 F1800.000
G1 X104.495 Y105.487 E5.44954
G1 X104.142 Y105.733 E5.50062
G1 X103.829 Y105.918 E5.54385
G1 X103.503 Y106.080 E5.58707
G1 X103.104 Y106.241 E5.63814
G1 X102.697 Y106.369 E5.68883
G1 X102.212 Y106.473 E5.74769
G1 X101.852 Y106.522 E5.79084
G1 X101.489 Y106.544 E5.83406
G1 X101.059 Y106.538 E5.88511
G1 X100.635 Y106.497 E5.93575
G1 X100.148 Y106.404 E5.99460
G1 X99.797 Y106.309 E6.03778
G1 X99.454 Y106.188 E6.08098
G1 X99.060 Y106.016 E6.13204
G1 X98.685 Y105.813 E6.18274
G1 X98.272 Y105.538 E6.24162
G1 X97.985 Y105.314 E6.28481
G1 X97.716 Y105.070 E6.32798
G1 X97.422 Y104.760 E6.37876
G1 X97.116 Y104.370 E6.43760
G1 X96.914 Y104.068 E6.48081
G1 X96.767 Y103.809 E6.51615
G1 X96.550 Y103.361 E6.57523
G1 X96.401 Y102.962 E6.62591
G1 X96.284 Y102.549 E6.67681
G1 X96.201 Y102.128 E6.72786
G1 X96.158 Y101.766 E6.77106
G1 X96.141 Y101.403 E6.81426
G1 X96.155 Y100.940 E6.86922
G1 X96.201 Y100.550 E6.91586
G1 X96.300 Y100.066 E6.97459
G1 X96.411 Y99.686 E7.02159
G1 X96.719 Y98.955 E7.11582
G1 X96.947 Y98.556 E7.17032
G1 X97.190 Y98.203 E7.22132
G1 X97.419 Y97.920 E7.26453
G1 X97.667 Y97.654 E7.30775
G1 X97.984 Y97.363 E7.35881
G1 X98.320 Y97.101 E7.40947
G1 X98.737 Y96.833 E7.46832
G1 X99.058 Y96.661 E7.51147
G1 X99.390 Y96.513 E7.55471
G1 X99.795 Y96.368 E7.60579
G1 X100.209 Y96.256 E7.65668
G1 X100.630 Y96.180 E7.70754
G1 X101.056 Y96.138 E7.75840
G1 X101.484 Y96.132 E7.80925
G1 X101.913 Y96.161 E7.86033
G1 X102.274 Y96.213 E7.90358 F1800.000
G1 X102.629 Y96.291 E7.94683
G1 X103.042 Y96.414 E7.99793
G1 X103.441 Y96.569 E8.04882
G1 X103.825 Y96.756 E8.09948
G1 X104.248 Y97.013 E8.15833
G1 X104.544 Y97.225 E8.20150
G1 X104.823 Y97.458 E8.24470
G1 X105.131 Y97.758 E8.29575
G1 X105.411 Y98.080 E8.34642
G1 X105.701 Y98.481 E8.40531
G1 X105.892 Y98.792 E8.44851
G1 X106.058 Y99.114 E8.49166
G1 X106.225 Y99.510 E8.54263
G1 X106.358 Y99.918 E8.59361
G1 X106.444 Y100.271 E8.63678
G1 X106.504 Y100.630 E8.68000
G1 X106.550 Y101.124 E8.73891
G1 X106.550 Y101.551 E8.78961
G1 X106.515 Y101.979 E8.84065
G1 X106.458 Y102.338 E8.88383
G1 X106.374 Y102.692 E8.92705
G1 X106.225 Y103.165 E8.98589
G1 X106.060 Y103.558 E9.03648
G1 X105.861 Y103.938 E9.08750
G1 X105.669 Y104.247 E9.13069
G1 X105.454 Y104.540 E9.17385
G1 X105.192 Y104.847 E9.22176
G1 X104.764 Y104.797 F11400.000
G1 X100.974 Y105.360 F11400.000
G1 X97.332 Y101.718 E9.88723 F1800.000
G1 X97.333 Y100.620 E10.02905
G1 X102.065 Y105.352 E10.89368
G1 X102.932 Y105.120 E11.00962
G1 X97.574 Y99.762 E11.98871
G1 X97.943 Y99.032 E12.09437
G1 X103.655 Y104.744 E13.13803
G1 X104.246 Y104.236 E13.23872
G1 X98.449 Y98.440 E14.29791
G1 X99.043 Y97.935 E14.39863
G1 X104.748 Y103.640 E15.44112
G1 X105.131 Y102.923 E15.54603
G1 X99.763 Y97.556 E16.52685
G1 X100.629 Y97.323 E16.64273
G1 X105.357 Y102.051 E17.50670
G1 X105.366 Y100.961 E17.64761
G1 X101.730 Y97.325 E18.31203
G1 X103.666 Y98.163 F11400.000
G1 X104.529 Y99.025 E18.46965 F1800.000
G1 X98.948 Y104.433 F11400.000
G1 X98.196 Y103.681 E18.60703 F1800.000
G1 E16.60703 F2400.00000
G92 E0
G1 X101.364 Y108.000 F11400.000
G1 X102.986 Y110.001 F11400.000
G1 X104.132 Y110.001 F11400.000
G1 X104.590 Y110.001 F11400.000
G1 X104.949 Y110.001 F11400.000
G1 X105.015 Y110.001 F11400.000
G1 X105.039 Y110.001 F11400.000
G1 X103.965 Y112.537 F11400.000
G1 X104.610 Y121.751 F11400.000
G1 E2.00000 F2400.00000
G1 X104.348 Y122.006 E2.04339 F1800.000
G1 X104.063 Y122.242 E2.08731
G1 X103.756 Y122.455 E2.13176
G1 X103.209 Y122.752 E2.20562
G1 X102.863 Y122.892 E2.25001
G1 X102.515 Y123.001 E2.29335
G1 X102.089 Y123.093 E2.34508
G1 X101.472 Y123.154 E2.41869
G1 X101.099 Y123.149 E2.46305
G1 X100.736 Y123.114 E2.50626
G1 X100.309 Y123.032 E2.55797
G1 X99.716 Y122.848 E2.63164
G1 X99.374 Y122.697 E2.67601
G1 X99.053 Y122.524 E2.71937
G1 X98.690 Y122.282 E2.77118
G1 X98.216 Y121.884 E2.84478
G1 X97.963 Y121.617 E2.88837
G1 X97.694 Y121.275 E2.94008
G1 X97.522 Y121.016 E2.97698
G1 X97.208 Y120.404 E3.05868
G1 X97.080 Y120.063 E3.10201
G1 X96.979 Y119.707 E3.14593
G1 X96.907 Y119.340 E3.19029
G1 X96.870 Y119.032 E3.22716
G1 X96.856 Y118.722 E3.26405
G1 X96.868 Y118.317 E3.31219
G1 X96.907 Y117.987 E3.35158
G1 X96.993 Y117.562 E3.40315
G1 X97.089 Y117.236 E3.44349
G1 X97.356 Y116.604 E3.52499
G1 X97.552 Y116.261 E3.57184
G1 X97.763 Y115.955 E3.61607
G1 X97.958 Y115.712 E3.65300
G1 X98.171 Y115.485 E3.68994
G1 X98.446 Y115.232 E3.73431
G1 X98.733 Y115.008 E3.77759
G1 X99.100 Y114.773 E3.82930
G1 X99.657 Y114.500 E3.90296
G1 X100.009 Y114.374 E3.94741
G1 X100.366 Y114.278 E3.99131
G1 X100.729 Y114.211 E4.03515
G1 X101.096 Y114.176 E4.07895
G1 X101.465 Y114.170 E4.12277
G1 X101.838 Y114.196 E4.16721
G1 X102.451 Y114.307 E4.24118 F1800.000
G1 X102.810 Y114.414 E4.28567
