; generated by Slic3r 1.2.9 on 2016-07-25 at 17:56:42

; external perimeters extrusion width = 0.40mm
; perimeters extrusion width = 0.42mm
; infill extrusion width = 0.42mm
; solid infill extrusion width = 0.42mm
; top infill extrusion width = 0.42mm
; support material extrusion width = 0.40mm

M107
M190 S50 ; set bed temperature
M104 S210 ; set temperature
G28 ; home all axes
G1 Z5 F5000 ; lift nozzle

M109 S210 ; wait for temperature to be reached
G21 ; set units to millimeters
G90 ; use absolute coordinates
M82 ; use absolute distances for extrusion
G92 E0
G1 Z0.400 F11400.000
G1 E-2.00000 F2400.00000
G92 E0
G1 X101.339 Y101.238 F11400.000
G1 E2.00000 F2400.00000
G1 X101.794 Y100.814 E2.07394 F1800.000
G1 X102.208 Y100.460 E2.13866
G1 X102.783 Y100.015 E2.22499
G1 X103.328 Y99.646 E2.30313
G1 X103.793 Y99.362 E2.36784
G1 X104.399 Y99.029 E2.44995
G1 X105.275 Y98.625 E2.56457
G1 X105.923 Y98.380 E2.64686
G1 X106.441 Y98.211 E2.71158
G1 X107.054 Y98.042 E2.78704
G1 X107.925 Y97.862 E2.89272
G1 X108.841 Y97.742 E3.00241
G1 X109.730 Y97.693 E3.10816
G1 X110.254 Y97.692 E3.17036
G1 X111.159 Y97.742 E3.27805 F1800.000
G1 X112.214 Y97.888 E3.40455
G1 X112.947 Y98.042 E3.49344
G1 X113.559 Y98.211 E3.56885
G1 X114.471 Y98.525 E3.68343
G1 X114.974 Y98.733 E3.74813
G1 X115.586 Y99.021 E3.82835
G1 X116.413 Y99.482 E3.94084
G1 X117.217 Y100.015 E4.05542
G1 X117.963 Y100.599 E4.16794
G1 X118.662 Y101.239 E4.28044
G1 X119.309 Y101.930 E4.39287
G1 X119.901 Y102.669 E4.50539
G1 X120.353 Y103.326 E4.60008
G1 X120.638 Y103.790 E4.66477
G1 X121.091 Y104.642 E4.77934
G1 X121.314 Y105.128 E4.84280
G1 X121.621 Y105.920 E4.94380
G1 X121.925 Y106.919 E5.06780
G1 X122.125 Y107.845 E5.18028
G1 X122.254 Y108.783 E5.29273
G1 X122.292 Y109.282 E5.35219
G1 X122.314 Y110.022 E5.44003
G1 X122.292 Y110.723 E5.52339
G1 X122.250 Y111.249 E5.58599
G1 X122.116 Y112.205 E5.70063
G1 X121.908 Y113.147 E5.81528
G1 X121.789 Y113.569 E5.86732
G1 X121.474 Y114.481 E5.98192
G1 X121.089 Y115.366 E6.09658
G1 X120.636 Y116.218 E6.21122
G1 X120.117 Y117.032 E6.32584
G1 X119.535 Y117.803 E6.44051
G1 X118.896 Y118.525 E6.55508
G1 X118.201 Y119.196 E6.66976
G1 X117.456 Y119.809 E6.78437
G1 X117.030 Y120.119 E6.84698
G1 X116.216 Y120.638 E6.96163
G1 X115.364 Y121.091 E7.07623
G1 X114.479 Y121.477 E7.19090
G1 X113.566 Y121.791 E7.30552
G1 X113.144 Y121.910 E7.35760
G1 X112.220 Y122.115 E7.47001
G1 X111.246 Y122.253 E7.58686
G1 X110.283 Y122.311 E7.70145
G1 X109.279 Y122.294 E7.82067
G1 X108.319 Y122.201 E7.93526
G1 X107.368 Y122.033 E8.04994
G1 X106.434 Y121.791 E8.16458
G1 X105.521 Y121.477 E8.27917
G1 X105.034 Y121.275 E8.34182
G1 X104.167 Y120.852 E8.45643
G1 X103.335 Y120.363 E8.57108
G1 X102.544 Y119.809 E8.68570
G1 X101.799 Y119.196 E8.80031
G1 X101.092 Y118.512 E8.91716
G1 X100.464 Y117.803 E9.02959
G1 X100.193 Y117.459 E9.08163
G1 X99.640 Y116.668 E9.19628
G1 X99.150 Y115.836 E9.31092
G1 X98.727 Y114.968 E9.42556
G1 X98.374 Y114.069 E9.54024
G1 X98.092 Y113.147 E9.65480
G1 X97.884 Y112.205 E9.76944
G1 X97.750 Y111.249 E9.88409
G1 X97.708 Y110.723 E9.94669
G1 X97.686 Y110.022 E10.03004
G1 X97.708 Y109.282 E10.11788
G1 X97.746 Y108.784 E10.17729
G1 X97.875 Y107.845 E10.28977
G1 X98.096 Y106.843 E10.41171
G1 X98.346 Y106.012 E10.51478
G1 X98.524 Y105.526 E10.57616
G1 X98.909 Y104.642 E10.69073
G1 X99.157 Y104.157 E10.75544
G1 X99.565 Y103.452 E10.85218
G1 X100.099 Y102.669 E10.96473
G1 X100.691 Y101.930 E11.07720
G1 X101.297 Y101.281 E11.18255
G1 E9.18255 F2400.00000
G92 E0
G1 X113.177 Y113.179 F11400.000
G1 E2.00000 F2400.00000
G1 X112.920 Y113.417 E2.04164 F1800.000
G1 X112.657 Y113.624 E2.08133
G1 X112.351 Y113.830 E2.12514
G1 X112.047 Y114.001 E2.16657
G1 X111.728 Y114.147 E2.20822
G1 X111.399 Y114.269 E2.24986
G1 X111.062 Y114.364 E2.29151
G1 X110.718 Y114.432 E2.33315
G1 X110.371 Y114.473 E2.37459
G1 X109.983 Y114.487 E2.42079
G1 X109.630 Y114.474 E2.46265
G1 X109.282 Y114.432 E2.50429
G1 X108.938 Y114.364 E2.54594
G1 X108.601 Y114.269 E2.58758
G1 X108.272 Y114.147 E2.62923
G1 X107.953 Y114.001 E2.67087
G1 X107.647 Y113.829 E2.71252
G1 X107.356 Y113.634 E2.75416
G1 X107.080 Y113.417 E2.79581
G1 X106.823 Y113.179 E2.83745
G1 X106.585 Y112.922 E2.87910
G1 X106.368 Y112.646 E2.92074
G1 X106.173 Y112.355 E2.96239
G1 X106.010 Y112.063 E3.00207
G1 X105.854 Y111.729 E3.04588
G1 X105.734 Y111.402 E3.08732
G1 X105.638 Y111.064 E3.12896
G1 X105.570 Y110.720 E3.17061
G1 X105.529 Y110.374 E3.21204
G1 X105.515 Y109.985 E3.25825
G1 X105.529 Y109.635 E3.29986
G1 X105.573 Y109.270 E3.34352
G1 X105.638 Y108.942 E3.38319
G1 X105.733 Y108.605 E3.42480
G1 X105.854 Y108.276 E3.46639
G1 X106.000 Y107.960 E3.50782
G1 X106.180 Y107.639 E3.55144
G1 X106.365 Y107.362 E3.59109
G1 X106.582 Y107.086 E3.63273
G1 X106.819 Y106.830 E3.67419
G1 X107.089 Y106.581 E3.71779
G1 X107.351 Y106.374 E3.75740
G1 X107.642 Y106.179 E3.79907
G1 X107.947 Y106.008 E3.84055
G1 X108.279 Y105.855 E3.88403
G1 X108.607 Y105.734 E3.92553
G1 X108.943 Y105.640 E3.96703
G1 X109.271 Y105.574 E4.00669
G1 X109.630 Y105.531 E4.04966
G1 X110.032 Y105.518 E4.09745
G1 X110.368 Y105.531 E4.13733
G1 X110.715 Y105.572 E4.17879 F1800.000
G1 X111.057 Y105.640 E4.22025
G1 X111.392 Y105.734 E4.26159
G1 X111.736 Y105.861 E4.30508
G1 X112.053 Y106.007 E4.34657
G1 X112.359 Y106.179 E4.38825
G1 X112.636 Y106.365 E4.42786
G1 X112.924 Y106.592 E4.47145
G1 X113.180 Y106.829 E4.51291
G1 X113.418 Y107.086 E4.55450
G1 X113.635 Y107.362 E4.59614
G1 X113.820 Y107.639 E4.63578
G1 X114.000 Y107.960 E4.67941
G1 X114.146 Y108.276 E4.72084
G1 X114.267 Y108.605 E4.76243
G1 X114.362 Y108.942 E4.80403
G1 X114.427 Y109.270 E4.84371
G1 X114.471 Y109.633 E4.88716
G1 X114.485 Y110.020 E4.93311
G1 X114.471 Y110.372 E4.97497
G1 X114.430 Y110.720 E5.01662
G1 X114.362 Y111.064 E5.05826
G1 X114.266 Y111.402 E5.09991
G1 X114.145 Y111.731 E5.14156
G1 X113.998 Y112.049 E5.18320
G1 X113.827 Y112.355 E5.22484
G1 X113.641 Y112.633 E5.26453
G1 X113.414 Y112.923 E5.30834
G1 X113.218 Y113.135 E5.34265
G1 X113.662 Y113.704 F11400.000
G1 X113.384 Y113.961 E5.38762 F1800.000
G1 X113.078 Y114.202 E5.43384
G1 X112.725 Y114.439 E5.48431
G1 X112.371 Y114.637 E5.53255
G1 X112.002 Y114.808 E5.58086
G1 X111.620 Y114.949 E5.62917
G1 X111.229 Y115.059 E5.67748
G1 X110.830 Y115.138 E5.72579
G1 X110.426 Y115.186 E5.77402
G1 X109.981 Y115.202 E5.82689
G1 X109.574 Y115.186 E5.87528
G1 X109.170 Y115.138 E5.92359
G1 X108.771 Y115.059 E5.97190
G1 X108.380 Y114.949 E6.02021
G1 X107.998 Y114.808 E6.06852
G1 X107.629 Y114.637 E6.11683
G1 X107.274 Y114.439 E6.16514
G1 X106.936 Y114.213 E6.21345
G1 X106.616 Y113.961 E6.26176
G1 X106.318 Y113.685 E6.31007
G1 X106.042 Y113.386 E6.35838
G1 X105.790 Y113.067 E6.40669
G1 X105.564 Y112.728 E6.45500
G1 X105.374 Y112.389 E6.50121
G1 X105.194 Y112.003 E6.55169
G1 X105.054 Y111.622 E6.59992
G1 X104.943 Y111.231 E6.64823
G1 X104.864 Y110.832 E6.69654
G1 X104.816 Y110.429 E6.74478
G1 X104.800 Y109.984 E6.79764
G1 X104.816 Y109.578 E6.84589
G1 X104.867 Y109.157 E6.89622
G1 X104.943 Y108.776 E6.94244
G1 X105.053 Y108.384 E6.99068
G1 X105.194 Y108.003 E7.03893
G1 X105.363 Y107.635 E7.08711
G1 X105.571 Y107.265 E7.13743
G1 X105.787 Y106.942 E7.18363
G1 X106.038 Y106.623 E7.23189
G1 X106.313 Y106.324 E7.28009
G1 X106.625 Y106.037 E7.33040
G1 X106.930 Y105.796 E7.37659
G1 X107.268 Y105.570 E7.42486
G1 X107.622 Y105.371 E7.47306
G1 X108.006 Y105.194 E7.52333
G1 X108.387 Y105.054 E7.57154
G1 X108.777 Y104.945 E7.61965
G1 X109.159 Y104.869 E7.66585
G1 X109.576 Y104.819 E7.71573
G1 X110.034 Y104.803 E7.77025
G1 X110.424 Y104.819 E7.81654
G1 X110.826 Y104.866 E7.86463 F1800.000
G1 X111.223 Y104.945 E7.91272
G1 X111.613 Y105.054 E7.96078
G1 X112.010 Y105.201 E8.01104
G1 X112.378 Y105.371 E8.05925
G1 X112.732 Y105.570 E8.10752
G1 X113.056 Y105.786 E8.15371
G1 X113.389 Y106.048 E8.20402
G1 X113.686 Y106.324 E8.25222
G1 X113.962 Y106.623 E8.30046
G1 X114.213 Y106.942 E8.34872
G1 X114.429 Y107.265 E8.39492
G1 X114.637 Y107.635 E8.44524
G1 X114.806 Y108.003 E8.49342
G1 X114.947 Y108.384 E8.54167
G1 X115.057 Y108.776 E8.58992
G1 X115.133 Y109.157 E8.63613
G1 X115.184 Y109.577 E8.68638
G1 X115.200 Y110.021 E8.73911
G1 X115.184 Y110.428 E8.78750
G1 X115.136 Y110.832 E8.83581
G1 X115.057 Y111.231 E8.88412
G1 X114.946 Y111.622 E8.93243
G1 X114.805 Y112.004 E8.98074
G1 X114.635 Y112.373 E9.02905
G1 X114.436 Y112.728 E9.07736
G1 X114.220 Y113.052 E9.12358
G1 X113.958 Y113.386 E9.17405
G1 X113.704 Y113.661 E9.21850
G1 X113.297 Y113.600 F11400.000
G1 X109.616 Y114.014 F11400.000
G1 X105.988 Y110.386 E9.88155 F1800.000
G1 X105.992 Y109.291 E10.02308
G1 X110.712 Y114.011 E10.88576
G1 X111.583 Y113.783 E11.00206
G1 X106.219 Y108.420 E11.98219
G1 X106.595 Y107.696 E12.08752
G1 X112.305 Y113.407 E13.13113
G1 X112.899 Y112.901 E13.23188
G1 X107.101 Y107.104 E14.29146
G1 X107.694 Y106.598 E14.39220
G1 X113.405 Y112.308 E15.43587
G1 X113.780 Y111.585 E15.54120
G1 X108.417 Y106.222 E16.52133
G1 X109.288 Y105.994 E16.63768
G1 X114.009 Y110.715 E17.50041
G1 X114.011 Y109.618 E17.64216
G1 X110.384 Y105.990 E18.30508
G1 X112.335 Y106.842 F11400.000
G1 X113.163 Y107.670 E18.45642 F1800.000
G1 X107.667 Y113.165 F11400.000
G1 X106.838 Y112.335 E18.60801 F1800.000
G1 Z0.400 F11400.000
M140 S30 ; wait for bed temperature to be reached
G1 Z0.800 F11400.000
G1 X113.577 Y113.613 F11400.000
G1 X113.303 Y113.866 E18.62878 F900.000
G1 X112.991 Y114.112 E18.65084
G1 X112.705 Y114.304 E18.66999
G1 X112.313 Y114.528 E18.69509
G1 X111.954 Y114.693 E18.71702
G1 X111.582 Y114.830 E18.73908
G1 X111.200 Y114.938 E18.76115
G1 X110.810 Y115.016 E18.78321
G1 X110.417 Y115.062 E18.80523
G1 X109.982 Y115.078 E18.82942
G1 X109.584 Y115.062 E18.85153
G1 X109.190 Y115.016 E18.87359
G1 X108.800 Y114.938 E18.89565
G1 X108.469 Y114.845 E18.91480
G1 X108.044 Y114.692 E18.93990
G1 X107.685 Y114.527 E18.96183
G1 X107.339 Y114.333 E18.98390
G1 X107.009 Y114.112 E19.00596
G1 X106.697 Y113.866 E19.02802
G1 X106.405 Y113.597 E19.05008
G1 X106.136 Y113.305 E19.07215
G1 X105.890 Y112.994 E19.09421
G1 X105.670 Y112.663 E19.11627
G1 X105.501 Y112.363 E19.13542
G1 X105.309 Y111.954 E19.16051
G1 X105.172 Y111.584 E19.18245
G1 X105.079 Y111.252 E19.20159
G1 X104.987 Y110.810 E19.22669
G1 X104.940 Y110.419 E19.24858
G1 X104.925 Y109.984 E19.27278
G1 X104.940 Y109.590 E19.29468
G1 X104.996 Y109.146 E19.31957
G1 X105.063 Y108.808 E19.33871
G1 X105.170 Y108.427 E19.36070
G1 X105.306 Y108.056 E19.38267
G1 X105.470 Y107.698 E19.40454
G1 X105.691 Y107.309 E19.42941
G1 X105.882 Y107.023 E19.44853
G1 X106.126 Y106.711 E19.47054
G1 X106.393 Y106.421 E19.49243
G1 X106.722 Y106.118 E19.51728
G1 X106.992 Y105.905 E19.53639
G1 X107.321 Y105.684 E19.55841
G1 X107.664 Y105.490 E19.58031
G1 X108.069 Y105.303 E19.60509
G1 X108.439 Y105.168 E19.62700
G1 X108.817 Y105.063 E19.64879
G1 X109.155 Y104.996 E19.66793
G1 X109.588 Y104.942 E19.69222
G1 X110.065 Y104.929 E19.71873
G1 X110.410 Y104.942 E19.73792
G1 X110.799 Y104.988 E19.75969 F900.000
G1 X111.184 Y105.063 E19.78145
G1 X111.560 Y105.168 E19.80314
G1 X111.978 Y105.322 E19.82792
G1 X112.335 Y105.489 E19.84983
G1 X112.680 Y105.684 E19.87185
G1 X112.966 Y105.875 E19.89096
G1 X113.318 Y106.151 E19.91581
G1 X113.606 Y106.420 E19.93770
G1 X113.874 Y106.711 E19.95967
G1 X114.118 Y107.023 E19.98167
G1 X114.309 Y107.309 E20.00080
G1 X114.530 Y107.698 E20.02567
G1 X114.694 Y108.056 E20.04754
G1 X114.830 Y108.427 E20.06951
G1 X114.937 Y108.808 E20.09149
G1 X115.004 Y109.146 E20.11064
G1 X115.060 Y109.589 E20.13548
G1 X115.075 Y110.021 E20.15947
G1 X115.060 Y110.418 E20.18158
G1 X115.013 Y110.813 E20.20364
G1 X114.936 Y111.202 E20.22571
G1 X114.828 Y111.584 E20.24777
G1 X114.691 Y111.957 E20.26983
G1 X114.524 Y112.317 E20.29189
G1 X114.330 Y112.663 E20.31395
G1 X114.110 Y112.994 E20.33602
G1 X113.864 Y113.305 E20.35808
G1 X113.619 Y113.570 E20.37810
G1 X113.797 Y113.851 F11400.000
G1 X113.514 Y114.113 E20.39829 F900.000
G1 X113.182 Y114.375 E20.42036
G1 X112.875 Y114.579 E20.43962
G1 X112.461 Y114.816 E20.46455
G1 X112.078 Y114.993 E20.48658
G1 X111.682 Y115.139 E20.50865
G1 X111.275 Y115.254 E20.53072
G1 X110.861 Y115.336 E20.55279
G1 X110.442 Y115.386 E20.57485
G1 X109.981 Y115.402 E20.59893
G1 X109.559 Y115.386 E20.62102
G1 X109.139 Y115.336 E20.64309
G1 X108.725 Y115.254 E20.66516
G1 X108.370 Y115.154 E20.68442
G1 X107.921 Y114.992 E20.70934
G1 X107.538 Y114.816 E20.73137
G1 X107.169 Y114.609 E20.75345
G1 X106.818 Y114.375 E20.77552
G1 X106.486 Y114.113 E20.79759
G1 X106.176 Y113.826 E20.81966
G1 X105.889 Y113.516 E20.84174
G1 X105.628 Y113.184 E20.86381
G1 X105.393 Y112.833 E20.88588
G1 X105.213 Y112.511 E20.90514
G1 X105.009 Y112.080 E20.93006
G1 X104.864 Y111.684 E20.95209
G1 X104.763 Y111.330 E20.97135
G1 X104.666 Y110.862 E20.99627
G1 X104.617 Y110.444 E21.01829
G1 X104.600 Y109.983 E21.04236
G1 X104.617 Y109.564 E21.06432
G1 X104.676 Y109.094 E21.08906
G1 X104.748 Y108.732 E21.10831
G1 X104.861 Y108.327 E21.13030
G1 X105.006 Y107.932 E21.15228
G1 X105.182 Y107.551 E21.17422
G1 X105.415 Y107.139 E21.19895
G1 X105.619 Y106.832 E21.21820
G1 X105.879 Y106.501 E21.24019
G1 X106.163 Y106.192 E21.26214
G1 X106.512 Y105.871 E21.28687
G1 X106.801 Y105.643 E21.30611
G1 X107.150 Y105.408 E21.32811
G1 X107.516 Y105.201 E21.35006
G1 X107.945 Y105.003 E21.37476
G1 X108.340 Y104.859 E21.39671
G1 X108.742 Y104.747 E21.41850
G1 X109.103 Y104.675 E21.43775
G1 X109.564 Y104.619 E21.46201
G1 X110.067 Y104.604 E21.48830
G1 X110.436 Y104.619 E21.50758
G1 X110.850 Y104.667 E21.52935 F900.000
G1 X111.259 Y104.747 E21.55113
G1 X111.660 Y104.859 E21.57287
G1 X112.103 Y105.023 E21.59757
G1 X112.484 Y105.201 E21.61953
G1 X112.850 Y105.408 E21.64153
G1 X113.157 Y105.613 E21.66077
G1 X113.529 Y105.905 E21.68549
G1 X113.836 Y106.191 E21.70744
G1 X114.121 Y106.501 E21.72942
G1 X114.381 Y106.832 E21.75141
G1 X114.585 Y107.139 E21.77066
G1 X114.818 Y107.551 E21.79539
G1 X114.994 Y107.932 E21.81734
G1 X115.139 Y108.327 E21.83932
G1 X115.252 Y108.732 E21.86130
G1 X115.324 Y109.094 E21.88056
G1 X115.383 Y109.563 E21.90528
G1 X115.400 Y110.021 E21.92922
G1 X115.383 Y110.444 E21.95131
G1 X115.334 Y110.863 E21.97338
G1 X115.251 Y111.278 E21.99546
G1 X115.136 Y111.684 E22.01753
G1 X114.990 Y112.081 E22.03960
G1 X114.813 Y112.464 E22.06167
G1 X114.607 Y112.833 E22.08375
G1 X114.372 Y113.184 E22.10582
G1 X114.111 Y113.516 E22.12789
G1 X113.840 Y113.809 E22.14871
G1 X113.426 Y113.745 F11400.000
G1 X113.761 Y113.028 F11400.000
G1 X113.026 Y113.764 E22.20804 F1200.000
G1 X111.787 Y114.517 F11400.000
G1 X114.515 Y111.790 E22.42794 F1200.000
G1 X111.068 Y114.752 F11400.000
G1 X114.749 Y111.070 E22.72471 F1200.000
G1 X114.848 Y110.487 E22.75847
G1 X110.484 Y114.851 E23.11029
G1 X109.968 Y114.882 E23.13979
G1 X114.881 Y109.969 E23.53591
G1 X114.863 Y109.503 E23.56250
G1 X109.500 Y114.866 E23.99484
G1 X109.073 Y114.808 E24.01942
G1 X114.806 Y109.075 E24.48161
G1 X114.717 Y108.679 E24.50475
G1 X108.676 Y114.720 E24.99176
G1 X108.308 Y114.603 E25.01376
G1 X114.602 Y108.309 E25.52116
G1 X114.464 Y107.963 E25.54242
G1 X107.960 Y114.466 E26.06673
G1 X107.635 Y114.307 E26.08737
G1 X114.303 Y107.638 E26.62495
G1 X114.125 Y107.332 E26.64517
G1 X107.330 Y114.127 E27.19301
G1 X107.043 Y113.929 E27.21288
G1 X113.927 Y107.045 E27.76785
G1 X113.707 Y106.781 E27.78748
G1 X106.778 Y113.709 E28.34605
G1 X106.536 Y113.467 E28.36559
G1 X113.464 Y106.538 E28.92416
G1 X113.222 Y106.296 E28.94370
G1 X106.293 Y113.225 E29.50228
G1 X106.073 Y112.960 E29.52190
G1 X112.956 Y106.077 E30.07681
G1 X112.671 Y105.877 E30.09666
G1 X105.875 Y112.673 E30.64451
G1 X105.696 Y112.368 E30.66470
G1 X112.365 Y105.698 E31.20236
G1 X112.040 Y105.539 E31.22301
G1 X105.537 Y112.041 E31.74725
G1 X105.398 Y111.696 E31.76848
G1 X111.693 Y105.401 E32.27596
G1 X111.324 Y105.285 E32.29800
G1 X105.283 Y111.326 E32.78501
G1 X105.195 Y110.929 E32.80820
G1 X110.927 Y105.197 E33.27031
G1 X110.500 Y105.139 E33.29488
G1 X105.137 Y110.503 E33.72728
G1 X105.119 Y110.036 E33.75390
G1 X110.030 Y105.125 E34.14985
G1 X109.515 Y105.155 E34.17927
G1 X105.153 Y109.517 E34.53089
