; generated by Slic3r 1.2.9 on 2016-07-25 at 22:49:50

; external perimeters extrusion width = 0.40mm
; perimeters extrusion width = 0.42mm
; infill extrusion width = 0.42mm
; solid infill extrusion width = 0.42mm
; top infill extrusion width = 0.42mm
; support material extrusion width = 0.40mm

M107
M190 S50 ; set bed temperature
M104 S210 ; set temperature
G28 ; home all axes
G1 Z5 F5000 ; lift nozzle

M109 S210 ; wait for temperature to be reached
G21 ; set units to millimeters
G90 ; use absolute coordinates
M82 ; use absolute distances for extrusion
G92 E0
G1 Z0.400 F11400.000
G1 E-2.00000 F2400.00000
G92 E0
G1 X90.157 Y89.451 F11400.000
G1 E2.00000 F2400.00000
G1 X90.855 Y88.812 E2.11246 F1800.000
G1 X91.601 Y88.228 E2.22498
G1 X92.390 Y87.704 E2.33747
G1 X93.217 Y87.241 E2.44994
G1 X94.077 Y86.844 E2.56246
G1 X94.964 Y86.514 E2.67488
G1 X95.872 Y86.255 E2.78702
G1 X96.743 Y86.075 E2.89270
G1 X97.778 Y85.944 E3.01652
G1 X117.332 Y84.232 E5.34780
G1 X118.119 Y84.193 E5.44137
G1 X118.626 Y84.193 E5.50164
G1 X119.532 Y84.243 E5.60932 F1800.000
G1 X120.432 Y84.360 E5.71709
G1 X121.319 Y84.543 E5.82474
G1 X122.227 Y84.803 E5.93683
G1 X123.114 Y85.132 E6.04928
G1 X123.974 Y85.529 E6.16176
G1 X124.801 Y85.992 E6.27425
G1 X125.575 Y86.506 E6.38464
G1 X126.336 Y87.100 E6.49925
G1 X127.022 Y87.727 E6.60966
G1 X127.682 Y88.430 E6.72418
G1 X128.172 Y89.037 E6.81680
G1 X128.492 Y89.478 E6.88152
G1 X129.011 Y90.291 E6.99606
G1 X129.464 Y91.143 E7.11063
G1 X129.848 Y92.027 E7.22520
G1 X130.026 Y92.512 E7.28657
G1 X130.298 Y93.420 E7.39909
G1 X130.486 Y94.285 E7.50421
G1 X130.572 Y94.823 E7.56893
G1 X133.441 Y121.788 E10.78945
G1 X133.496 Y122.972 E10.93030
G1 X133.474 Y123.674 E11.01366
G1 X133.432 Y124.199 E11.07626
G1 X133.298 Y125.155 E11.19091
G1 X133.213 Y125.585 E11.24295
G1 X132.971 Y126.519 E11.35759
G1 X132.656 Y127.432 E11.47220
G1 X132.454 Y127.919 E11.53483
G1 X132.032 Y128.787 E11.64947
G1 X131.542 Y129.618 E11.76409
G1 X130.989 Y130.409 E11.87874
G1 X130.717 Y130.754 E11.93080
G1 X130.078 Y131.476 E12.04537
G1 X129.383 Y132.146 E12.16006
G1 X128.638 Y132.760 E12.27467
G1 X128.212 Y133.070 E12.33727
G1 X127.398 Y133.589 E12.45192
G1 X126.546 Y134.042 E12.56653
G1 X125.660 Y134.427 E12.68120
G1 X125.249 Y134.579 E12.73324
G1 X124.344 Y134.856 E12.84569
G1 X123.384 Y135.070 E12.96249
G1 X122.428 Y135.204 E13.07715
G1 X121.465 Y135.262 E13.19175
G1 X102.163 Y135.813 E15.48506
G1 X101.231 Y135.793 E15.59571
G1 X100.271 Y135.700 E15.71030
G1 X99.320 Y135.532 E15.82497
G1 X98.404 Y135.295 E15.93742
G1 X97.885 Y135.128 E16.00219
G1 X96.986 Y134.774 E16.11686
G1 X96.588 Y134.591 E16.16890
G1 X95.736 Y134.137 E16.28351
G1 X94.922 Y133.618 E16.39816
G1 X94.496 Y133.308 E16.46076
G1 X93.751 Y132.695 E16.57537
G1 X93.056 Y132.025 E16.69003
G1 X92.759 Y131.703 E16.74210
G1 X92.145 Y130.958 E16.85669
G1 X91.835 Y130.531 E16.91932
G1 X91.317 Y129.717 E17.03394
G1 X91.102 Y129.335 E17.08600
G1 X90.680 Y128.467 E17.20064
G1 X90.478 Y127.980 E17.26325
G1 X90.163 Y127.068 E17.37786
G1 X89.921 Y126.133 E17.49250
G1 X89.836 Y125.704 E17.54454
G1 X89.758 Y125.220 E17.60277
G1 X86.624 Y99.933 E20.62890
G1 X86.526 Y98.936 E20.74792
G1 X86.504 Y98.234 E20.83128
G1 X86.526 Y97.495 E20.91912
G1 X86.567 Y96.979 E20.98062
G1 X86.693 Y96.058 E21.09101
G1 X86.914 Y95.055 E21.21294
G1 X87.164 Y94.224 E21.31601
G1 X87.343 Y93.739 E21.37739
G1 X87.552 Y93.236 E21.44211
G1 X87.912 Y92.485 E21.54099
G1 X88.393 Y91.649 E21.65552
G1 X88.917 Y90.881 E21.76597
G1 X89.279 Y90.419 E21.83571
G1 X89.633 Y90.005 E21.90042
G1 X90.115 Y89.494 E21.98380
G1 E19.98380 F2400.00000
G92 E0
G1 X121.550 Y99.680 F11400.000
G1 E2.00000 F2400.00000
G1 X121.292 Y99.918 E2.04164 F1800.000
G1 X121.030 Y100.125 E2.08133
G1 X120.724 Y100.331 E2.12514
G1 X120.419 Y100.501 E2.16657
G1 X120.101 Y100.648 E2.20822
G1 X119.772 Y100.770 E2.24986
G1 X119.434 Y100.865 E2.29151
G1 X119.091 Y100.933 E2.33315
G1 X118.744 Y100.974 E2.37459
G1 X118.355 Y100.988 E2.42079
G1 X118.003 Y100.974 E2.46265
G1 X117.655 Y100.933 E2.50429
G1 X117.311 Y100.865 E2.54594
G1 X116.974 Y100.770 E2.58758
G1 X116.645 Y100.648 E2.62923
G1 X116.326 Y100.501 E2.67087
G1 X116.020 Y100.330 E2.71252
G1 X115.729 Y100.135 E2.75416
G1 X115.453 Y99.918 E2.79581
G1 X115.196 Y99.680 E2.83745
G1 X114.958 Y99.423 E2.87910
G1 X114.741 Y99.147 E2.92074
G1 X114.546 Y98.856 E2.96239
G1 X114.383 Y98.564 E3.00207
G1 X114.227 Y98.230 E3.04588
G1 X114.106 Y97.902 E3.08732
G1 X114.011 Y97.565 E3.12896
G1 X113.943 Y97.221 E3.17061
G1 X113.902 Y96.875 E3.21204
G1 X113.888 Y96.486 E3.25825
G1 X113.901 Y96.136 E3.29986
G1 X113.946 Y95.771 E3.34352
G1 X114.011 Y95.443 E3.38319
G1 X114.106 Y95.106 E3.42480
G1 X114.227 Y94.777 E3.46639
G1 X114.373 Y94.460 E3.50782
G1 X114.553 Y94.140 E3.55144
G1 X114.738 Y93.863 E3.59109
G1 X114.955 Y93.587 E3.63273
G1 X115.192 Y93.331 E3.67419
G1 X115.461 Y93.082 E3.71779
G1 X115.723 Y92.875 E3.75740
G1 X116.015 Y92.680 E3.79907
G1 X116.319 Y92.509 E3.84055
G1 X116.652 Y92.355 E3.88403
G1 X116.980 Y92.235 E3.92553
G1 X117.316 Y92.140 E3.96703
G1 X117.644 Y92.075 E4.00669
G1 X118.003 Y92.032 E4.04966
G1 X118.405 Y92.019 E4.09745
G1 X118.741 Y92.032 E4.13733
G1 X119.087 Y92.073 E4.17879 F1800.000
G1 X119.430 Y92.141 E4.22025
G1 X119.765 Y92.235 E4.26159
G1 X120.108 Y92.362 E4.30508
G1 X120.425 Y92.508 E4.34657
G1 X120.731 Y92.680 E4.38825
G1 X121.009 Y92.865 E4.42786
G1 X121.297 Y93.092 E4.47145
G1 X121.553 Y93.330 E4.51291
G1 X121.791 Y93.587 E4.55450
G1 X122.007 Y93.863 E4.59614
G1 X122.193 Y94.140 E4.63578
G1 X122.373 Y94.460 E4.67941
G1 X122.519 Y94.777 E4.72084
G1 X122.640 Y95.106 E4.76243
G1 X122.735 Y95.443 E4.80403
G1 X122.800 Y95.771 E4.84371
G1 X122.844 Y96.134 E4.88716
G1 X122.858 Y96.521 E4.93311
G1 X122.844 Y96.873 E4.97497
G1 X122.803 Y97.221 E5.01662
G1 X122.734 Y97.565 E5.05826
G1 X122.639 Y97.902 E5.09991
G1 X122.518 Y98.231 E5.14156
G1 X122.371 Y98.550 E5.18320
G1 X122.200 Y98.856 E5.22484
G1 X122.014 Y99.134 E5.26453
G1 X121.787 Y99.424 E5.30834
G1 X121.590 Y99.636 E5.34265
G1 X122.034 Y100.205 F11400.000
G1 X121.756 Y100.462 E5.38762 F1800.000
G1 X121.451 Y100.703 E5.43384
G1 X121.098 Y100.940 E5.48431
G1 X120.744 Y101.138 E5.53255
G1 X120.374 Y101.309 E5.58086
G1 X119.993 Y101.449 E5.62917
G1 X119.601 Y101.560 E5.67748
G1 X119.202 Y101.639 E5.72579
G1 X118.799 Y101.687 E5.77402
G1 X118.354 Y101.703 E5.82689
G1 X117.947 Y101.687 E5.87528
G1 X117.543 Y101.639 E5.92359
G1 X117.144 Y101.560 E5.97190
G1 X116.753 Y101.449 E6.02021
G1 X116.371 Y101.309 E6.06852
G1 X116.002 Y101.138 E6.11683
G1 X115.647 Y100.940 E6.16514
G1 X115.309 Y100.714 E6.21345
G1 X114.989 Y100.462 E6.26176
G1 X114.690 Y100.186 E6.31007
G1 X114.414 Y99.887 E6.35838
G1 X114.162 Y99.567 E6.40669
G1 X113.936 Y99.229 E6.45500
G1 X113.746 Y98.890 E6.50121
G1 X113.567 Y98.504 E6.55169
G1 X113.427 Y98.123 E6.59992
G1 X113.316 Y97.732 E6.64823
G1 X113.237 Y97.333 E6.69654
G1 X113.189 Y96.929 E6.74478
G1 X113.173 Y96.485 E6.79764
G1 X113.189 Y96.079 E6.84589
G1 X113.240 Y95.658 E6.89622
G1 X113.316 Y95.276 E6.94244
G1 X113.426 Y94.885 E6.99068
G1 X113.566 Y94.504 E7.03893
G1 X113.736 Y94.136 E7.08711
G1 X113.944 Y93.766 E7.13743
G1 X114.160 Y93.443 E7.18363
G1 X114.411 Y93.123 E7.23189
G1 X114.686 Y92.825 E7.28009
G1 X114.997 Y92.538 E7.33040
G1 X115.303 Y92.297 E7.37659
G1 X115.641 Y92.071 E7.42486
G1 X115.994 Y91.872 E7.47306
G1 X116.379 Y91.695 E7.52333
G1 X116.760 Y91.555 E7.57154
G1 X117.150 Y91.445 E7.61965
G1 X117.531 Y91.370 E7.66585
G1 X117.948 Y91.319 E7.71573
G1 X118.407 Y91.304 E7.77025
G1 X118.797 Y91.319 E7.81654
G1 X119.199 Y91.367 E7.86463 F1800.000
G1 X119.596 Y91.445 E7.91272
G1 X119.985 Y91.555 E7.96078
G1 X120.383 Y91.701 E8.01104
G1 X120.751 Y91.872 E8.05925
G1 X121.105 Y92.071 E8.10752
G1 X121.429 Y92.287 E8.15371
G1 X121.761 Y92.549 E8.20402
G1 X122.059 Y92.825 E8.25222
G1 X122.335 Y93.123 E8.30046
G1 X122.586 Y93.443 E8.34872
G1 X122.802 Y93.766 E8.39492
G1 X123.010 Y94.136 E8.44524
G1 X123.179 Y94.504 E8.49342
G1 X123.320 Y94.885 E8.54167
G1 X123.430 Y95.276 E8.58992
G1 X123.506 Y95.658 E8.63613
G1 X123.556 Y96.078 E8.68638
G1 X123.572 Y96.522 E8.73911
G1 X123.556 Y96.929 E8.78750
G1 X123.509 Y97.333 E8.83581
G1 X123.429 Y97.732 E8.88412
G1 X123.319 Y98.123 E8.93243
G1 X123.178 Y98.505 E8.98074
G1 X123.008 Y98.874 E9.02905
G1 X122.809 Y99.229 E9.07736
G1 X122.593 Y99.553 E9.12358
G1 X122.331 Y99.887 E9.17405
G1 X122.077 Y100.162 E9.21850
G1 X121.670 Y100.101 F11400.000
G1 X117.989 Y100.515 F11400.000
G1 X114.361 Y96.887 E9.88155 F1800.000
G1 X114.365 Y95.792 E10.02308
G1 X119.085 Y100.512 E10.88576
G1 X119.955 Y100.284 E11.00206
G1 X114.592 Y94.921 E11.98219
G1 X114.968 Y94.197 E12.08752
G1 X120.678 Y99.908 E13.13113
G1 X121.272 Y99.402 E13.23188
G1 X115.474 Y93.604 E14.29146
G1 X116.067 Y93.098 E14.39220
G1 X121.778 Y98.809 E15.43587
G1 X122.153 Y98.086 E15.54120
G1 X116.790 Y92.723 E16.52133
G1 X117.661 Y92.495 E16.63768
G1 X122.382 Y97.215 E17.50041
G1 X122.384 Y96.119 E17.64216
G1 X118.757 Y92.491 E18.30508
G1 X120.708 Y93.343 F11400.000
G1 X121.536 Y94.171 E18.45642 F1800.000
G1 X116.040 Y99.665 F11400.000
G1 X115.211 Y98.836 E18.60801 F1800.000
G1 E16.60801 F2400.00000
G92 E0
G1 X112.101 Y98.575 F11400.000
G1 X108.812 Y99.834 F11400.000
G1 X108.862 Y100.433 F11400.000
G1 X108.866 Y100.473 F11400.000
G1 X105.241 Y99.751 F11400.000
G1 X101.995 Y101.392 F11400.000
G1 E2.00000 F2400.00000
G1 X101.738 Y101.630 E2.04164 F1800.000
G1 X101.475 Y101.837 E2.08133
G1 X101.169 Y102.043 E2.12514
G1 X100.865 Y102.213 E2.16657
G1 X100.546 Y102.360 E2.20822
G1 X100.217 Y102.481 E2.24986
G1 X99.880 Y102.577 E2.29151
G1 X99.536 Y102.645 E2.33315
G1 X99.190 Y102.686 E2.37459
G1 X98.801 Y102.700 E2.42079
G1 X98.449 Y102.686 E2.46265
G1 X98.100 Y102.645 E2.50429
G1 X97.756 Y102.577 E2.54594
G1 X97.419 Y102.481 E2.58758
G1 X97.090 Y102.360 E2.62923
G1 X96.772 Y102.213 E2.67087
G1 X96.466 Y102.042 E2.71252
G1 X96.174 Y101.847 E2.75416
G1 X95.899 Y101.630 E2.79581
G1 X95.641 Y101.392 E2.83745
G1 X95.403 Y101.135 E2.87910
G1 X95.186 Y100.859 E2.92074
G1 X94.991 Y100.568 E2.96239
G1 X94.828 Y100.276 E3.00207
G1 X94.673 Y99.942 E3.04588
G1 X94.552 Y99.614 E3.08732
G1 X94.457 Y99.277 E3.12896
G1 X94.388 Y98.933 E3.17061
G1 X94.347 Y98.586 E3.21204
G1 X94.333 Y98.198 E3.25825
G1 X94.347 Y97.848 E3.29986
G1 X94.391 Y97.483 E3.34352
G1 X94.456 Y97.155 E3.38319
G1 X94.551 Y96.818 E3.42480
G1 X94.672 Y96.489 E3.46639
G1 X94.818 Y96.172 E3.50782
G1 X94.998 Y95.852 E3.55144
G1 X95.184 Y95.575 E3.59109
G1 X95.400 Y95.299 E3.63273
G1 X95.637 Y95.042 E3.67419
G1 X95.907 Y94.793 E3.71779
G1 X96.169 Y94.587 E3.75740
G1 X96.460 Y94.392 E3.79907
G1 X96.765 Y94.221 E3.84055
G1 X97.097 Y94.067 E3.88403
G1 X97.425 Y93.947 E3.92553
G1 X97.762 Y93.852 E3.96703
G1 X98.089 Y93.787 E4.00669
G1 X98.448 Y93.744 E4.04966
G1 X98.850 Y93.731 E4.09745
G1 X99.186 Y93.744 E4.13733
G1 X99.533 Y93.785 E4.17879 F1800.000
G1 X99.875 Y93.852 E4.22025
G1 X100.210 Y93.947 E4.26159
G1 X100.554 Y94.073 E4.30508
G1 X100.871 Y94.220 E4.34657
G1 X101.177 Y94.392 E4.38825
G1 X101.454 Y94.577 E4.42786
G1 X101.742 Y94.804 E4.47145
G1 X101.999 Y95.042 E4.51291
G1 X102.236 Y95.299 E4.55450
G1 X102.453 Y95.575 E4.59614
G1 X102.638 Y95.852 E4.63578
G1 X102.818 Y96.172 E4.67941
G1 X102.964 Y96.489 E4.72084
G1 X103.085 Y96.818 E4.76243
G1 X103.180 Y97.155 E4.80403
G1 X103.245 Y97.483 E4.84371
G1 X103.289 Y97.846 E4.88716
G1 X103.303 Y98.232 E4.93311
G1 X103.289 Y98.585 E4.97497
G1 X103.248 Y98.933 E5.01662
G1 X103.180 Y99.277 E5.05826
G1 X103.085 Y99.614 E5.09991
G1 X102.963 Y99.943 E5.14156
G1 X102.816 Y100.262 E5.18320
G1 X102.645 Y100.568 E5.22484
G1 X102.459 Y100.845 E5.26453
G1 X102.232 Y101.136 E5.30834
G1 X102.036 Y101.348 E5.34265
G1 X102.480 Y101.917 F11400.000
G1 X102.202 Y102.174 E5.38762 F1800.000
G1 X101.896 Y102.414 E5.43384
G1 X101.544 Y102.652 E5.48431
G1 X101.189 Y102.850 E5.53255
G1 X100.820 Y103.020 E5.58086
G1 X100.438 Y103.161 E5.62917
G1 X100.047 Y103.272 E5.67748
G1 X99.648 Y103.351 E5.72579
G1 X99.244 Y103.399 E5.77402
G1 X98.800 Y103.415 E5.82689
G1 X98.393 Y103.399 E5.87528
G1 X97.989 Y103.351 E5.92359
G1 X97.590 Y103.272 E5.97190
G1 X97.198 Y103.161 E6.02021
G1 X96.816 Y103.020 E6.06852
G1 X96.447 Y102.850 E6.11683
G1 X96.092 Y102.651 E6.16514
G1 X95.754 Y102.425 E6.21345
G1 X95.435 Y102.174 E6.26176
G1 X95.136 Y101.897 E6.31007
G1 X94.860 Y101.599 E6.35838
G1 X94.608 Y101.279 E6.40669
G1 X94.382 Y100.941 E6.45500
G1 X94.192 Y100.602 E6.50121
G1 X94.013 Y100.216 E6.55169
G1 X93.872 Y99.835 E6.59992
G1 X93.762 Y99.444 E6.64823
G1 X93.682 Y99.045 E6.69654
G1 X93.635 Y98.641 E6.74478
G1 X93.618 Y98.197 E6.79764
G1 X93.634 Y97.791 E6.84589
G1 X93.685 Y97.370 E6.89622
G1 X93.761 Y96.988 E6.94244
G1 X93.871 Y96.597 E6.99068
G1 X94.012 Y96.216 E7.03893
G1 X94.181 Y95.847 E7.08711
G1 X94.389 Y95.478 E7.13743
G1 X94.605 Y95.155 E7.18363
G1 X94.856 Y94.835 E7.23189
G1 X95.132 Y94.537 E7.28009
G1 X95.443 Y94.250 E7.33040
G1 X95.748 Y94.009 E7.37659
G1 X96.086 Y93.783 E7.42486
G1 X96.440 Y93.584 E7.47306
G1 X96.824 Y93.407 E7.52333
G1 X97.205 Y93.267 E7.57154
G1 X97.595 Y93.157 E7.61965
G1 X97.977 Y93.081 E7.66585
G1 X98.394 Y93.031 E7.71573
G1 X98.853 Y93.016 E7.77025
G1 X99.242 Y93.031 E7.81654
G1 X99.644 Y93.079 E7.86463 F1800.000
G1 X100.041 Y93.157 E7.91272
G1 X100.431 Y93.267 E7.96078
G1 X100.828 Y93.413 E8.01104
G1 X101.196 Y93.584 E8.05925
G1 X101.551 Y93.783 E8.10752
G1 X101.874 Y93.999 E8.15371
G1 X102.207 Y94.261 E8.20402
G1 X102.504 Y94.537 E8.25222
G1 X102.780 Y94.835 E8.30046
G1 X103.031 Y95.155 E8.34872
G1 X103.247 Y95.478 E8.39492
G1 X103.455 Y95.847 E8.44524
G1 X103.625 Y96.216 E8.49342
G1 X103.765 Y96.597 E8.54167
G1 X103.875 Y96.988 E8.58992
G1 X103.951 Y97.370 E8.63613
G1 X104.002 Y97.790 E8.68638
G1 X104.018 Y98.234 E8.73911
G1 X104.002 Y98.641 E8.78750
G1 X103.954 Y99.045 E8.83581
G1 X103.875 Y99.444 E8.88412
G1 X103.764 Y99.835 E8.93243
G1 X103.624 Y100.217 E8.98074
G1 X103.453 Y100.586 E9.02905
G1 X103.254 Y100.941 E9.07736
G1 X103.038 Y101.265 E9.12358
G1 X102.776 Y101.599 E9.17405
G1 X102.522 Y101.874 E9.21850
G1 X102.116 Y101.813 F11400.000
G1 X98.434 Y102.227 F11400.000
G1 X94.806 Y98.599 E9.88155 F1800.000
G1 X94.810 Y97.504 E10.02308
G1 X99.530 Y102.224 E10.88576
G1 X100.401 Y101.996 E11.00206
G1 X95.038 Y96.633 E11.98219
G1 X95.413 Y95.909 E12.08752
G1 X101.124 Y101.619 E13.13113
G1 X101.717 Y101.114 E13.23188
G1 X95.919 Y95.316 E14.29146
G1 X96.512 Y94.810 E14.39220
G1 X102.223 Y100.521 E15.43587
G1 X102.599 Y99.798 E15.54120
G1 X97.236 Y94.435 E16.52133
G1 X98.107 Y94.207 E16.63768
G1 X102.827 Y98.927 E17.50041
G1 X102.829 Y97.830 E17.64216
G1 X99.202 Y94.203 E18.30508
G1 X101.153 Y95.055 F11400.000
G1 X101.981 Y95.883 E18.45642 F1800.000
G1 X96.485 Y101.377 F11400.000
G1 X95.656 Y100.548 E18.60801 F1800.000
G1 E16.60801 F2400.00000
G92 E0
G1 X99.373 Y104.793 F11400.000
G1 X101.126 Y110.766 F11400.000
G1 X101.924 Y110.670 F11400.000
G1 X102.217 Y110.632 F11400.000
G1 X102.570 Y110.590 F11400.000
G1 X102.604 Y110.586 F11400.000
G1 X102.382 Y116.915 F11400.000
G1 X105.129 Y126.679 F11400.000
G1 E2.00000 F2400.00000
G1 X104.872 Y126.917 E2.04164 F1800.000
G1 X104.609 Y127.123 E2.08133
G1 X104.303 Y127.329 E2.12514
G1 X103.999 Y127.500 E2.16657
G1 X103.680 Y127.647 E2.20822
G1 X103.351 Y127.768 E2.24986
G1 X103.014 Y127.863 E2.29151
G1 X102.670 Y127.932 E2.33315
G1 X102.324 Y127.973 E2.37459
G1 X101.935 Y127.987 E2.42079
G1 X101.583 Y127.973 E2.46265
G1 X101.234 Y127.932 E2.50429
G1 X100.891 Y127.863 E2.54594
G1 X100.553 Y127.768 E2.58758
G1 X100.224 Y127.647 E2.62923
G1 X99.906 Y127.500 E2.67087
G1 X99.600 Y127.328 E2.71252
G1 X99.308 Y127.134 E2.75416
G1 X99.033 Y126.917 E2.79581
G1 X98.775 Y126.679 E2.83745
G1 X98.537 Y126.421 E2.87910
G1 X98.320 Y126.146 E2.92074
G1 X98.125 Y125.854 E2.96239
G1 X97.962 Y125.563 E3.00207
G1 X97.807 Y125.228 E3.04588
G1 X97.686 Y124.901 E3.08732
G1 X97.591 Y124.563 E3.12896
G1 X97.522 Y124.219 E3.17061
G1 X97.481 Y123.873 E3.21204
G1 X97.467 Y123.484 E3.25825
