; generated by Slic3r 1.2.9 on 2016-07-25 at 22:50:24

; external perimeters extrusion width = 0.40mm
; perimeters extrusion width = 0.42mm
; infill extrusion width = 0.42mm
; solid infill extrusion width = 0.42mm
; top infill extrusion width = 0.42mm
; support material extrusion width = 0.40mm

M107
M190 S50 ; set bed temperature
M104 S210 ; set temperature
G28 ; home all axes
G1 Z5 F5000 ; lift nozzle

M109 S210 ; wait for temperature to be reached
G21 ; set units to millimeters
G90 ; use absolute coordinates
M82 ; use absolute distances for extrusion
G92 E0
G1 Z0.400 F11400.000
G1 E-2.00000 F2400.00000
G92 E0
G1 X33.178 Y67.420 F11400.000
G1 E2.00000 F2400.00000
G1 X35.338 Y66.605 E2.27422 F1800.000
G1 X36.595 Y66.486 E2.42419
G1 X135.792 Y66.486 E14.20532
G1 X138.067 Y66.883 E14.47954
G1 X139.145 Y67.383 E14.62065 F1800.000
G1 X183.225 Y92.788 E20.66309
G1 X183.833 Y93.186 E20.74941
G1 X184.274 Y93.506 E20.81413
G1 X184.775 Y93.905 E20.89020
G1 X185.474 Y94.545 E21.00269
G1 X185.997 Y95.098 E21.09317
G1 X186.351 Y95.512 E21.15787
G1 X186.713 Y95.975 E21.22765
G1 X187.247 Y96.757 E21.34016
G1 X187.655 Y97.462 E21.43690
G1 X187.903 Y97.948 E21.50162
G1 X188.126 Y98.433 E21.56507
G1 X188.466 Y99.317 E21.67756
G1 X188.716 Y100.149 E21.78064
G1 X188.843 Y100.678 E21.84534
G1 X188.937 Y101.151 E21.90258
G1 X189.066 Y102.089 E22.01504
G1 X189.121 Y103.017 E22.12539
G1 X190.114 Y129.533 E25.27680
G1 X190.096 Y130.524 E25.39454
G1 X190.003 Y131.485 E25.50916
G1 X189.921 Y132.005 E25.57178
G1 X189.835 Y132.435 E25.62383
G1 X189.593 Y133.370 E25.73847
G1 X189.279 Y134.282 E25.85308
G1 X189.077 Y134.769 E25.91571
G1 X188.894 Y135.167 E25.96775
G1 X188.440 Y136.019 E26.08239
G1 X187.931 Y136.818 E26.19484
G1 X187.611 Y137.260 E26.25964
G1 X187.340 Y137.604 E26.31170
G1 X186.700 Y138.326 E26.42627
G1 X186.327 Y138.699 E26.48894
G1 X185.605 Y139.339 E26.60354
G1 X185.261 Y139.610 E26.65559
G1 X184.470 Y140.163 E26.77021
G1 X183.638 Y140.653 E26.88488
G1 X182.771 Y141.076 E26.99947
G1 X181.872 Y141.429 E27.11414
G1 X180.949 Y141.711 E27.22879
G1 X137.522 Y153.288 E32.56653
G1 X135.792 Y153.514 E32.77367
G1 X36.595 Y153.514 E44.55479
G1 X34.321 Y153.117 E44.82902
G1 X32.315 Y151.973 E45.10324
G1 X30.816 Y150.217 E45.37747
G1 X30.000 Y148.057 E45.65169
G1 X29.881 Y146.800 E45.80166
G1 X29.881 Y73.200 E54.54278
G1 X30.278 Y70.925 E54.81700
G1 X31.422 Y68.920 E55.09123
G1 X33.133 Y67.459 E55.35833
G1 E53.35833 F2400.00000
G92 E0
G1 X152.435 Y104.957 F11400.000
G1 E2.00000 F2400.00000
G1 X152.106 Y105.078 E2.04164 F1800.000
G1 X151.769 Y105.173 E2.08329
G1 X151.425 Y105.242 E2.12493
G1 X151.078 Y105.283 E2.16637
G1 X150.690 Y105.297 E2.21257
G1 X150.337 Y105.283 E2.25443
G1 X149.989 Y105.242 E2.29607
G1 X149.645 Y105.173 E2.33772
G1 X149.308 Y105.078 E2.37936
G1 X148.979 Y104.957 E2.42101
G1 X148.660 Y104.810 E2.46265
G1 X148.354 Y104.638 E2.50430
G1 X148.063 Y104.444 E2.54594
G1 X147.787 Y104.227 E2.58759
G1 X147.530 Y103.989 E2.62923
G1 X147.292 Y103.731 E2.67088
G1 X147.075 Y103.456 E2.71252
G1 X146.880 Y103.164 E2.75417
G1 X146.717 Y102.873 E2.79385
G1 X146.561 Y102.538 E2.83766
G1 X146.441 Y102.211 E2.87910
G1 X146.345 Y101.873 E2.92074
G1 X146.277 Y101.529 E2.96239
G1 X146.236 Y101.183 E3.00382
G1 X146.222 Y100.794 E3.05003
G1 X146.236 Y100.444 E3.09164
G1 X146.280 Y100.079 E3.13530
G1 X146.345 Y99.751 E3.17497
G1 X146.440 Y99.414 E3.21658
G1 X146.561 Y99.086 E3.25817
G1 X146.707 Y98.769 E3.29960
G1 X146.887 Y98.449 E3.34322
G1 X147.072 Y98.171 E3.38287
G1 X147.289 Y97.895 E3.42451
G1 X147.526 Y97.639 E3.46597
G1 X147.796 Y97.390 E3.50957
G1 X148.058 Y97.183 E3.54918
G1 X148.349 Y96.988 E3.59085
G1 X148.654 Y96.817 E3.63233
G1 X148.986 Y96.664 E3.67581
G1 X149.314 Y96.543 E3.71731
G1 X149.650 Y96.449 E3.75881
G1 X149.978 Y96.384 E3.79847
G1 X150.337 Y96.341 E3.84144
G1 X150.739 Y96.327 E3.88923
G1 X151.075 Y96.340 E3.92911
G1 X151.422 Y96.381 E3.97057 F1800.000
G1 X151.764 Y96.449 E4.01203
G1 X152.099 Y96.543 E4.05337
G1 X152.443 Y96.670 E4.09686
G1 X152.760 Y96.817 E4.13835
G1 X153.066 Y96.988 E4.18003
G1 X153.343 Y97.174 E4.21964
G1 X153.631 Y97.401 E4.26323
G1 X153.887 Y97.638 E4.30469
G1 X154.125 Y97.895 E4.34628
G1 X154.342 Y98.171 E4.38792
G1 X154.527 Y98.449 E4.42756
G1 X154.707 Y98.769 E4.47119
G1 X154.853 Y99.086 E4.51262
G1 X154.974 Y99.414 E4.55421
G1 X155.069 Y99.751 E4.59581
G1 X155.134 Y100.079 E4.63549
G1 X155.178 Y100.442 E4.67894
G1 X155.192 Y100.829 E4.72489
G1 X155.178 Y101.181 E4.76675
G1 X155.137 Y101.529 E4.80840
G1 X155.069 Y101.873 E4.85004
G1 X154.973 Y102.211 E4.89169
G1 X154.852 Y102.540 E4.93334
G1 X154.705 Y102.858 E4.97498
G1 X154.534 Y103.164 E5.01662
G1 X154.348 Y103.442 E5.05631
G1 X154.121 Y103.732 E5.10012
G1 X153.884 Y103.989 E5.14156
G1 X153.626 Y104.227 E5.18320
G1 X153.364 Y104.433 E5.22288
G1 X153.058 Y104.639 E5.26669
G1 X152.490 Y104.931 E5.34259
G1 X152.682 Y105.627 F11400.000
G1 X152.327 Y105.758 E5.38757 F1800.000
G1 X151.936 Y105.868 E5.43588
G1 X151.537 Y105.947 E5.48419
G1 X151.133 Y105.995 E5.53242
G1 X150.688 Y106.011 E5.58529
G1 X150.281 Y105.995 E5.63367
G1 X149.877 Y105.947 E5.68198
G1 X149.478 Y105.868 E5.73029
G1 X149.087 Y105.758 E5.77860
G1 X148.705 Y105.617 E5.82691
G1 X148.336 Y105.447 E5.87522
G1 X147.981 Y105.248 E5.92354
G1 X147.643 Y105.022 E5.97185
G1 X147.323 Y104.770 E6.02016
G1 X147.025 Y104.494 E6.06846
G1 X146.749 Y104.195 E6.11678
G1 X146.497 Y103.876 E6.16509
G1 X146.271 Y103.538 E6.21340
G1 X146.081 Y103.198 E6.25961
G1 X145.901 Y102.813 E6.31008
G1 X145.761 Y102.432 E6.35832
G1 X145.650 Y102.040 E6.40663
G1 X145.571 Y101.641 E6.45494
G1 X145.523 Y101.238 E6.50318
G1 X145.507 Y100.793 E6.55604
G1 X145.523 Y100.387 E6.60429
G1 X145.574 Y99.966 E6.65462
G1 X145.650 Y99.585 E6.70083
G1 X145.760 Y99.194 E6.74908
G1 X145.901 Y98.812 E6.79733
G1 X146.070 Y98.444 E6.84551
G1 X146.278 Y98.075 E6.89583
G1 X146.494 Y97.751 E6.94203
G1 X146.745 Y97.432 E6.99029
G1 X147.020 Y97.134 E7.03849
G1 X147.332 Y96.846 E7.08880
G1 X147.637 Y96.605 E7.13499
G1 X147.975 Y96.379 E7.18326
G1 X148.329 Y96.180 E7.23146
G1 X148.713 Y96.003 E7.28173
G1 X149.094 Y95.863 E7.32994
G1 X149.484 Y95.754 E7.37804
G1 X149.866 Y95.678 E7.42425
G1 X150.282 Y95.628 E7.47412
G1 X150.741 Y95.612 E7.52865
G1 X151.131 Y95.628 E7.57494
G1 X151.533 Y95.675 E7.62303 F1800.000
G1 X151.930 Y95.754 E7.67112
G1 X152.320 Y95.863 E7.71917
G1 X152.717 Y96.010 E7.76944
G1 X153.085 Y96.180 E7.81765
G1 X153.439 Y96.379 E7.86592
G1 X153.763 Y96.595 E7.91211
G1 X154.096 Y96.857 E7.96242
G1 X154.393 Y97.133 E8.01062
G1 X154.669 Y97.432 E8.05886
G1 X154.920 Y97.751 E8.10712
G1 X155.136 Y98.075 E8.15332
G1 X155.344 Y98.444 E8.20364
G1 X155.513 Y98.812 E8.25182
G1 X155.654 Y99.194 E8.30007
G1 X155.764 Y99.585 E8.34831
G1 X155.840 Y99.966 E8.39453
G1 X155.891 Y100.386 E8.44478
G1 X155.907 Y100.830 E8.49751
G1 X155.891 Y101.237 E8.54590
G1 X155.843 Y101.641 E8.59421
G1 X155.764 Y102.040 E8.64252
G1 X155.653 Y102.432 E8.69083
G1 X155.512 Y102.813 E8.73914
G1 X155.342 Y103.183 E8.78745
G1 X155.143 Y103.538 E8.83576
G1 X154.927 Y103.861 E8.88198
G1 X154.665 Y104.196 E8.93245
G1 X154.389 Y104.494 E8.98068
G1 X154.091 Y104.770 E9.02899
G1 X153.785 Y105.011 E9.07521
G1 X153.432 Y105.248 E9.12568
G1 X153.078 Y105.447 E9.17392
G1 X152.738 Y105.604 E9.21844
G1 X152.385 Y105.392 F11400.000
G1 X150.323 Y104.823 F11400.000
G1 X146.695 Y101.195 E9.88149 F1800.000
G1 X146.699 Y100.100 E10.02303
G1 X151.419 Y104.821 E10.88570
G1 X152.289 Y104.592 E11.00200
G1 X146.926 Y99.229 E11.98213
G1 X147.302 Y98.506 E12.08747
G1 X153.012 Y104.216 E13.13108
G1 X153.606 Y103.710 E13.23182
G1 X147.808 Y97.913 E14.29141
G1 X148.401 Y97.407 E14.39214
G1 X154.112 Y103.117 E15.43581
G1 X154.487 Y102.394 E15.54114
G1 X149.124 Y97.031 E16.52128
G1 X149.995 Y96.803 E16.63762
G1 X154.716 Y101.524 E17.50035
G1 X154.718 Y100.427 E17.64210
G1 X151.091 Y96.799 E18.30502
G1 X153.042 Y97.652 F11400.000
G1 X153.870 Y98.480 E18.45636 F1800.000
G1 X148.374 Y103.974 F11400.000
G1 X147.545 Y103.144 E18.60795 F1800.000
G1 E16.60795 F2400.00000
G92 E0
G1 X156.979 Y102.883 F11400.000
G1 X163.408 Y105.747 F11400.000
G1 X163.377 Y106.092 F11400.000
G1 X163.362 Y106.243 F11400.000
G1 X170.389 Y104.845 F11400.000
G1 X178.540 Y107.453 F11400.000
G1 E2.00000 F2400.00000
G1 X178.211 Y107.575 E2.04164 F1800.000
G1 X177.874 Y107.670 E2.08329
G1 X177.530 Y107.738 E2.12493
G1 X177.183 Y107.779 E2.16637
G1 X176.795 Y107.793 E2.21257
G1 X176.443 Y107.779 E2.25443
G1 X176.094 Y107.738 E2.29607
G1 X175.750 Y107.670 E2.33772
G1 X175.413 Y107.575 E2.37936
G1 X175.084 Y107.453 E2.42101
G1 X174.766 Y107.307 E2.46265
G1 X174.460 Y107.135 E2.50430
G1 X174.168 Y106.940 E2.54594
G1 X173.893 Y106.723 E2.58759
G1 X173.635 Y106.485 E2.62923
G1 X173.397 Y106.228 E2.67088
G1 X173.180 Y105.952 E2.71252
G1 X172.985 Y105.661 E2.75417
G1 X172.822 Y105.369 E2.79385
G1 X172.666 Y105.035 E2.83766
G1 X172.546 Y104.707 E2.87910
G1 X172.451 Y104.370 E2.92074
G1 X172.382 Y104.026 E2.96239
G1 X172.341 Y103.680 E3.00382
G1 X172.327 Y103.291 E3.05003
G1 X172.341 Y102.941 E3.09164
G1 X172.385 Y102.576 E3.13530
G1 X172.450 Y102.248 E3.17497
G1 X172.545 Y101.911 E3.21658
G1 X172.666 Y101.582 E3.25817
G1 X172.812 Y101.265 E3.29960
G1 X172.992 Y100.945 E3.34322
G1 X173.177 Y100.668 E3.38287
G1 X173.394 Y100.392 E3.42451
G1 X173.631 Y100.136 E3.46597
G1 X173.901 Y99.887 E3.50957
G1 X174.163 Y99.680 E3.54918
G1 X174.454 Y99.485 E3.59085
G1 X174.759 Y99.314 E3.63233
G1 X175.091 Y99.160 E3.67581
G1 X175.419 Y99.040 E3.71731
G1 X175.756 Y98.946 E3.75881
G1 X176.083 Y98.880 E3.79847
G1 X176.442 Y98.837 E3.84144
G1 X176.844 Y98.824 E3.88923
G1 X177.180 Y98.837 E3.92911
G1 X177.527 Y98.878 E3.97057 F1800.000
G1 X177.869 Y98.946 E4.01203
G1 X178.204 Y99.040 E4.05337
G1 X178.548 Y99.167 E4.09686
G1 X178.865 Y99.313 E4.13835
G1 X179.171 Y99.485 E4.18003
G1 X179.448 Y99.671 E4.21964
G1 X179.736 Y99.898 E4.26323
G1 X179.993 Y100.135 E4.30469
G1 X180.230 Y100.392 E4.34628
G1 X180.447 Y100.668 E4.38792
G1 X180.632 Y100.945 E4.42756
G1 X180.812 Y101.265 E4.47119
G1 X180.958 Y101.582 E4.51262
G1 X181.079 Y101.911 E4.55421
G1 X181.174 Y102.248 E4.59581
G1 X181.239 Y102.576 E4.63549
G1 X181.283 Y102.939 E4.67894
G1 X181.297 Y103.326 E4.72489
G1 X181.283 Y103.678 E4.76675
G1 X181.242 Y104.026 E4.80840
G1 X181.174 Y104.370 E4.85004
G1 X181.079 Y104.707 E4.89169
G1 X180.957 Y105.036 E4.93334
G1 X180.810 Y105.355 E4.97498
G1 X180.639 Y105.661 E5.01662
G1 X180.453 Y105.939 E5.05631
G1 X180.226 Y106.229 E5.10012
G1 X179.989 Y106.485 E5.14155
G1 X179.732 Y106.723 E5.18320
G1 X179.469 Y106.930 E5.22288
G1 X179.163 Y107.136 E5.26669
G1 X178.595 Y107.428 E5.34259
G1 X178.787 Y108.123 F11400.000
G1 X178.432 Y108.254 E5.38757 F1800.000
G1 X178.041 Y108.365 E5.43588
G1 X177.642 Y108.444 E5.48419
G1 X177.238 Y108.492 E5.53242
G1 X176.794 Y108.508 E5.58529
G1 X176.386 Y108.492 E5.63367
G1 X175.983 Y108.444 E5.68198
G1 X175.584 Y108.365 E5.73029
G1 X175.192 Y108.254 E5.77860
G1 X174.810 Y108.114 E5.82691
G1 X174.441 Y107.943 E5.87522
G1 X174.086 Y107.745 E5.92353
G1 X173.748 Y107.519 E5.97184
G1 X173.428 Y107.267 E6.02016
G1 X173.130 Y106.991 E6.06846
G1 X172.854 Y106.692 E6.11678
G1 X172.602 Y106.373 E6.16509
G1 X172.376 Y106.034 E6.21340
G1 X172.186 Y105.695 E6.25961
G1 X172.007 Y105.309 E6.31008
G1 X171.866 Y104.928 E6.35832
G1 X171.756 Y104.537 E6.40663
G1 X171.676 Y104.138 E6.45494
G1 X171.628 Y103.735 E6.50318
G1 X171.612 Y103.290 E6.55604
G1 X171.628 Y102.884 E6.60429
G1 X171.679 Y102.463 E6.65462
G1 X171.755 Y102.081 E6.70083
G1 X171.865 Y101.690 E6.74908
G1 X172.006 Y101.309 E6.79733
G1 X172.175 Y100.941 E6.84551
G1 X172.383 Y100.571 E6.89583
G1 X172.599 Y100.248 E6.94203
G1 X172.850 Y99.929 E6.99029
G1 X173.126 Y99.630 E7.03849
G1 X173.437 Y99.343 E7.08880
G1 X173.742 Y99.102 E7.13499
G1 X174.080 Y98.876 E7.18326
G1 X174.434 Y98.677 E7.23146
G1 X174.818 Y98.500 E7.28173
G1 X175.199 Y98.360 E7.32994
G1 X175.589 Y98.250 E7.37804
G1 X175.971 Y98.175 E7.42425
G1 X176.388 Y98.125 E7.47412
G1 X176.846 Y98.109 E7.52865
G1 X177.236 Y98.124 E7.57494
G1 X177.638 Y98.172 E7.62303 F1800.000
G1 X178.035 Y98.251 E7.67112
G1 X178.425 Y98.360 E7.71917
G1 X178.822 Y98.506 E7.76944
G1 X179.190 Y98.677 E7.81765
G1 X179.545 Y98.876 E7.86592
G1 X179.868 Y99.092 E7.91211
G1 X180.201 Y99.354 E7.96242
G1 X180.498 Y99.630 E8.01062
G1 X180.774 Y99.929 E8.05886
G1 X181.025 Y100.248 E8.10712
G1 X181.241 Y100.571 E8.15332
G1 X181.449 Y100.941 E8.20364
G1 X181.619 Y101.309 E8.25182
G1 X181.759 Y101.690 E8.30007
G1 X181.869 Y102.081 E8.34831
G1 X181.945 Y102.463 E8.39453
G1 X181.996 Y102.883 E8.44478
G1 X182.012 Y103.327 E8.49751
G1 X181.996 Y103.734 E8.54590
G1 X181.948 Y104.138 E8.59421
G1 X181.869 Y104.537 E8.64252
G1 X181.758 Y104.928 E8.69083
G1 X181.617 Y105.310 E8.73914
G1 X181.447 Y105.679 E8.78745
G1 X181.248 Y106.034 E8.83576
G1 X181.032 Y106.358 E8.88198
G1 X180.770 Y106.692 E8.93245
G1 X180.494 Y106.991 E8.98068
G1 X180.196 Y107.267 E9.02899
G1 X179.890 Y107.508 E9.07521
G1 X179.538 Y107.745 E9.12568
G1 X179.183 Y107.943 E9.17392
G1 X178.843 Y108.100 E9.21844
G1 X178.490 Y107.888 F11400.000
G1 X176.428 Y107.320 F11400.000
G1 X172.800 Y103.692 E9.88149 F1800.000
G1 X172.804 Y102.597 E10.02303
G1 X177.524 Y107.317 E10.88570
G1 X178.395 Y107.089 E11.00200
G1 X173.032 Y101.726 E11.98213
G1 X173.407 Y101.002 E12.08747
G1 X179.117 Y106.713 E13.13108
G1 X179.711 Y106.207 E13.23182
G1 X173.913 Y100.409 E14.29141
G1 X174.506 Y99.904 E14.39214
G1 X180.217 Y105.614 E15.43581
G1 X180.593 Y104.891 E15.54114
G1 X175.230 Y99.528 E16.52128
G1 X176.100 Y99.300 E16.63762
G1 X180.821 Y104.020 E17.50035
G1 X180.823 Y102.924 E17.64210
G1 X177.196 Y99.296 E18.30502
G1 X179.147 Y100.148 F11400.000
G1 X179.975 Y100.976 E18.45636 F1800.000
G1 X174.479 Y106.470 F11400.000
G1 X173.650 Y105.641 E18.60795 F1800.000
G1 E16.60795 F2400.00000
G92 E0
G1 X176.783 Y109.908 F11400.000
G1 X177.526 Y116.547 F11400.000
G1 X177.890 Y116.535 F11400.000
G1 X178.084 Y116.528 F11400.000
G1 X178.469 Y116.512 F11400.000
G1 X178.234 Y123.217 F11400.000
G1 X179.533 Y133.948 F11400.000
G1 E2.00000 F2400.00000
G1 X179.204 Y134.070 E2.04164 F1800.000
G1 X178.866 Y134.165 E2.08329
G1 X178.522 Y134.233 E2.12493
G1 X178.176 Y134.274 E2.16637
G1 X177.787 Y134.288 E2.21257
G1 X177.435 Y134.274 E2.25443
G1 X177.087 Y134.233 E2.29607
G1 X176.743 Y134.165 E2.33772
G1 X176.405 Y134.070 E2.37936
G1 X176.076 Y133.948 E2.42101
G1 X175.758 Y133.802 E2.46265
G1 X175.452 Y133.630 E2.50430
G1 X175.160 Y133.435 E2.54594
G1 X174.885 Y133.218 E2.58759
G1 X174.628 Y132.980 E2.62923
G1 X174.390 Y132.723 E2.67088
G1 X174.172 Y132.447 E2.71252
G1 X173.978 Y132.156 E2.75417
G1 X173.814 Y131.864 E2.79385
G1 X173.659 Y131.530 E2.83766
G1 X173.538 Y131.202 E2.87910
G1 X173.443 Y130.865 E2.92074
G1 X173.375 Y130.521 E2.96239
G1 X173.334 Y130.175 E3.00382
G1 X173.319 Y129.786 E3.05003
G1 X173.333 Y129.436 E3.09164
G1 X173.377 Y129.071 E3.13530
G1 X173.443 Y128.743 E3.17497
G1 X173.538 Y128.406 E3.21658
G1 X173.659 Y128.077 E3.25817
G1 X173.804 Y127.760 E3.29960
G1 X173.984 Y127.440 E3.34322
G1 X174.170 Y127.163 E3.38287
G1 X174.387 Y126.887 E3.42451
G1 X174.623 Y126.631 E3.46597
G1 X174.893 Y126.382 E3.50957
G1 X175.155 Y126.175 E3.54918
G1 X175.447 Y125.980 E3.59085
G1 X175.751 Y125.809 E3.63233
G1 X176.084 Y125.655 E3.67581
G1 X176.412 Y125.535 E3.71731
G1 X176.748 Y125.440 E3.75881
G1 X177.075 Y125.375 E3.79847
G1 X177.435 Y125.332 E3.84144
G1 X177.837 Y125.319 E3.88923
G1 X178.172 Y125.332 E3.92911
G1 X178.519 Y125.373 E3.97057 F1800.000
G1 X178.862 Y125.441 E4.01203
G1 X179.197 Y125.535 E4.05337
G1 X179.540 Y125.662 E4.09686
G1 X179.857 Y125.808 E4.13835
G1 X180.163 Y125.980 E4.18003
G1 X180.440 Y126.165 E4.21964
G1 X180.729 Y126.393 E4.26323
G1 X180.985 Y126.630 E4.30469
G1 X181.222 Y126.887 E4.34628
G1 X181.439 Y127.163 E4.38792
G1 X181.625 Y127.440 E4.42756
G1 X181.805 Y127.760 E4.47119
G1 X181.950 Y128.077 E4.51262
G1 X182.072 Y128.406 E4.55421
G1 X182.166 Y128.743 E4.59581
G1 X182.232 Y129.071 E4.63549
