; generated by Slic3r 1.2.9 on 2016-09-08 at 17:55:52

; external perimeters extrusion width = 0.40mm
; perimeters extrusion width = 0.48mm
; infill extrusion width = 0.48mm
; solid infill extrusion width = 0.48mm
; top infill extrusion width = 0.48mm
; support material extrusion width = 0.40mm

M107
M190 S30 ; set bed temperature
M104 S190 ; set temperature
G28 ; home all axes
G1 Z5 F5000 ; lift nozzle

M109 S190 ; wait for temperature to be reached
G21 ; set units to millimeters
G90 ; use absolute coordinates
M82 ; use absolute distances for extrusion
G92 E0
G1 Z0.400 F11400.000
G1 E-2.00000 F2400.00000
G92 E0
G1 X89.077 Y90.550 F11400.000
G1 E2.00000 F2400.00000
G1 X90.833 Y89.051 E2.27422 F1800.000
G1 X92.993 Y88.235 E2.54845
G1 X94.250 Y88.116 E2.69842
G1 X125.750 Y88.116 E6.43952
G1 X128.025 Y88.513 E6.71374
G1 X130.030 Y89.657 E6.98797 F1800.000
G1 X131.530 Y91.413 E7.26219
G1 X132.345 Y93.573 E7.53642
G1 X132.464 Y94.830 E7.68638
G1 X132.464 Y125.170 E11.28961
G1 X132.067 Y127.444 E11.56383
G1 X130.923 Y129.450 E11.83806
G1 X129.167 Y130.949 E12.11228
G1 X127.007 Y131.765 E12.38651
G1 X125.750 Y131.884 E12.53648
G1 X94.250 Y131.884 E16.27758
G1 X91.975 Y131.487 E16.55180
G1 X89.970 Y130.343 E16.82603
G1 X88.470 Y128.587 E17.10025
G1 X87.655 Y126.427 E17.37448
G1 X87.536 Y125.170 E17.52444
G1 X87.536 Y94.830 E21.12767
G1 X87.933 Y92.556 E21.40189
G1 X89.047 Y90.602 E21.66899
G1 E19.66899 F2400.00000
G92 E0
G1 X124.446 Y119.641 F11400.000
G1 E2.00000 F2400.00000
G1 X95.549 Y119.641 E5.43204 F1800.000
G1 X95.549 Y104.358 E7.24705
G1 X124.446 Y104.358 E10.67909
G1 X124.446 Y119.581 E12.48697
G1 X124.446 Y120.041 F11400.000
G1 X124.636 Y103.644 F11400.000
G1 X95.364 Y103.644 E15.96343 F1800.000
G1 X95.364 Y95.945 E16.87785
G1 X124.636 Y95.945 E20.35431
G1 X124.636 Y103.584 E21.26160
G1 X124.636 Y120.355 F11400.000
G1 X124.636 Y124.055 E21.70111 F1800.000
G1 X95.364 Y124.055 E25.17757
G1 X95.364 Y120.355 E25.61708
G1 X124.576 Y120.355 E29.08641
G1 X125.350 Y124.770 F11400.000
G1 X94.650 Y124.770 E32.73250 F1800.000
G1 X94.650 Y95.230 E36.24071
G1 X125.350 Y95.230 E39.88680
G1 X125.350 Y124.710 E43.38789
G1 X125.004 Y124.570 F11400.000
G1 X124.200 Y121.133 F11400.000
G1 X123.857 Y120.790 E43.44596 F1800.000
G1 X122.839 Y120.790 E43.56786
G1 X124.200 Y122.151 E43.79832
G1 X124.200 Y123.170 E43.92022
G1 X121.821 Y120.790 E44.32308
G1 X120.803 Y120.790 E44.44498
G1 X123.633 Y123.620 E44.92408
G1 X122.614 Y123.620 E45.04598
G1 X119.785 Y120.790 E45.52508
G1 X118.767 Y120.790 E45.64698
G1 X121.596 Y123.620 E46.12609
G1 X120.578 Y123.620 E46.24799
G1 X117.748 Y120.790 E46.72709
G1 X116.730 Y120.790 E46.84899
G1 X119.560 Y123.620 E47.32810
G1 X118.542 Y123.620 E47.44999
G1 X115.712 Y120.790 E47.92910
G1 X114.694 Y120.790 E48.05100
G1 X117.524 Y123.620 E48.53010
G1 X116.506 Y123.620 E48.65200
G1 X113.676 Y120.790 E49.13111
G1 X112.658 Y120.790 E49.25301
G1 X115.487 Y123.620 E49.73211
G1 X114.469 Y123.620 E49.85401
G1 X111.640 Y120.790 E50.33312
G1 X110.621 Y120.790 E50.45501
G1 X113.451 Y123.620 E50.93412
G1 X112.433 Y123.620 E51.05602
G1 X109.603 Y120.790 E51.53512
G1 X108.585 Y120.790 E51.65702
G1 X111.415 Y123.620 E52.13613
G1 X110.397 Y123.620 E52.25802
G1 X107.567 Y120.790 E52.73713
G1 X106.549 Y120.790 E52.85903
G1 X109.379 Y123.620 E53.33813
G1 X108.360 Y123.620 E53.46003
G1 X105.531 Y120.790 E53.93914
G1 X104.513 Y120.790 E54.06104
G1 X107.342 Y123.620 E54.54014
G1 X106.324 Y123.620 E54.66204
G1 X103.494 Y120.790 E55.14114
G1 X102.476 Y120.790 E55.26304
G1 X105.306 Y123.620 E55.74215
G1 X104.288 Y123.620 E55.86405
G1 X101.458 Y120.790 E56.34315
G1 X100.440 Y120.790 E56.46505
G1 X103.270 Y123.620 E56.94416
G1 X102.252 Y123.620 E57.06605
G1 X99.422 Y120.790 E57.54516
G1 X98.404 Y120.790 E57.66706
G1 X101.233 Y123.620 E58.14616
G1 X100.215 Y123.620 E58.26806
G1 X97.386 Y120.790 E58.74717
G1 X96.367 Y120.790 E58.86906
G1 X99.197 Y123.620 E59.34817
G1 X98.179 Y123.620 E59.47007
G1 X95.800 Y121.241 E59.87292
G1 X95.800 Y122.259 E59.99482
G1 X97.161 Y123.620 E60.22528
G1 X96.143 Y123.620 E60.34718
G1 X95.800 Y123.277 E60.40525
G1 X95.099 Y119.998 F11400.000
G1 X95.099 Y104.001 E62.30508 F1800.000
G1 X95.800 Y102.866 F11400.000
G1 X96.143 Y103.209 E62.36303 F1800.000
G1 X97.159 Y103.209 E62.48441
G1 X95.800 Y101.850 E62.71401
G1 X95.800 Y100.834 E62.83539
G1 X98.175 Y103.209 E63.23665
G1 X99.191 Y103.209 E63.35803
G1 X95.800 Y99.818 E63.93094
G1 X95.800 Y98.802 E64.05232
G1 X100.207 Y103.209 E64.79689
G1 X101.223 Y103.209 E64.91827
G1 X95.800 Y97.786 E65.83449
G1 X95.800 Y96.770 E65.95587
G1 X102.238 Y103.209 E67.04375
G1 X103.254 Y103.209 E67.16513
G1 X96.426 Y96.380 E68.31883
G1 X97.442 Y96.380 E68.44021
G1 X104.270 Y103.209 E69.59391
G1 X105.286 Y103.209 E69.71529
G1 X98.458 Y96.380 E70.86899
G1 X99.474 Y96.380 E70.99036
G1 X106.302 Y103.209 E72.14406
G1 X107.318 Y103.209 E72.26544
G1 X100.490 Y96.380 E73.41914
G1 X101.506 Y96.380 E73.54052
G1 X108.334 Y103.209 E74.69422
G1 X109.350 Y103.209 E74.81560
G1 X102.522 Y96.380 E75.96930
G1 X103.538 Y96.380 E76.09067
G1 X110.366 Y103.209 E77.24437
G1 X111.382 Y103.209 E77.36575
G1 X104.554 Y96.380 E78.51945
G1 X105.570 Y96.380 E78.64083
G1 X112.398 Y103.209 E79.79453
G1 X113.414 Y103.209 E79.91591
G1 X106.586 Y96.380 E81.06961
G1 X107.602 Y96.380 E81.19098
G1 X114.430 Y103.209 E82.34468
G1 X115.446 Y103.209 E82.46606
G1 X108.618 Y96.380 E83.61976
G1 X109.634 Y96.380 E83.74114
G1 X116.462 Y103.209 E84.89484
G1 X117.478 Y103.209 E85.01622
G1 X110.650 Y96.380 E86.16992
G1 X111.666 Y96.380 E86.29129
G1 X118.494 Y103.209 E87.44499
G1 X119.510 Y103.209 E87.56637
G1 X112.682 Y96.380 E88.72007
G1 X113.698 Y96.380 E88.84145
G1 X120.526 Y103.209 E89.99515
G1 X121.542 Y103.209 E90.11653
G1 X114.714 Y96.380 E91.27023
G1 X115.730 Y96.380 E91.39160
G1 X122.558 Y103.209 E92.54530
G1 X123.574 Y103.209 E92.66668
G1 X116.746 Y96.380 E93.82038
G1 X117.761 Y96.380 E93.94176
G1 X124.200 Y102.819 E95.02964
G1 X124.200 Y101.803 E95.15102
G1 X118.777 Y96.380 E96.06725
G1 X119.793 Y96.380 E96.18863
G1 X124.200 Y100.787 E96.93320
G1 X124.200 Y99.771 E97.05458
G1 X120.809 Y96.380 E97.62750
G1 X121.825 Y96.380 E97.74887
G1 X124.200 Y98.755 E98.15014
G1 X124.200 Y97.739 E98.27151
G1 X122.841 Y96.380 E98.50112
G1 X123.857 Y96.380 E98.62250
G1 X124.200 Y96.723 E98.68045
G1 X124.898 Y104.001 F11400.000
G1 X124.898 Y119.998 E100.58028 F1800.000
G1 Z0.400 F11400.000
G1 Z0.700 F11400.000
G1 X124.624 Y119.818 F11400.000
G1 X95.371 Y119.818 E102.10855 F3600.000
G1 X95.371 Y104.181 E102.92550
G1 X124.624 Y104.181 E104.45378
G1 X124.624 Y119.758 E105.26759
G1 X124.246 Y119.441 F11400.000
G1 X95.749 Y119.441 E106.46051 F1800.000
G1 X95.749 Y104.558 E107.08349
G1 X124.246 Y104.558 E108.27641
G1 X124.246 Y119.381 E108.89688
G1 X124.246 Y119.841 F11400.000
G1 X125.173 Y124.592 F11400.000
G1 X94.827 Y124.592 E110.48228 F3600.000
G1 X94.827 Y95.408 E112.00702
G1 X125.173 Y95.408 E113.59242
G1 X125.173 Y124.532 E115.11403
G1 X125.550 Y124.970 F11400.000
G1 X94.450 Y124.970 E116.41589 F1800.000
G1 X94.450 Y95.030 E117.66914
G1 X125.550 Y95.030 E118.97100
G1 X125.550 Y124.910 E120.22175
G1 X125.204 Y124.770 F11400.000
G1 X124.708 Y124.345 F11400.000
G1 X124.926 Y124.127 E120.23798 F1200.000
G1 X124.926 Y123.529 E120.26952
G1 X124.110 Y124.345 E120.33036
G1 X123.512 Y124.345 E120.36189
G1 X124.926 Y122.931 E120.46733
G1 X124.926 Y122.333 E120.49886
G1 X122.914 Y124.345 E120.64889
G1 X122.316 Y124.345 E120.68043
G1 X124.926 Y121.736 E120.87506
G1 X124.926 Y121.138 E120.90660
G1 X121.718 Y124.345 E121.14582
G1 X121.120 Y124.345 E121.17736
G1 X124.926 Y120.540 E121.46119
G1 X124.593 Y120.274 E121.48363
G1 X120.522 Y124.345 E121.78723
G1 X119.924 Y124.345 E121.81877
G1 X124.204 Y120.065 E122.13799
G1 X123.606 Y120.065 E122.16953
G1 X119.326 Y124.345 E122.48875
G1 X118.728 Y124.345 E122.52028
G1 X123.008 Y120.065 E122.83951
G1 X122.410 Y120.065 E122.87104
G1 X118.130 Y124.345 E123.19027
G1 X117.532 Y124.345 E123.22180
G1 X121.812 Y120.065 E123.54102
G1 X121.214 Y120.065 E123.57256
G1 X116.934 Y124.345 E123.89178
G1 X116.336 Y124.345 E123.92332
G1 X120.616 Y120.065 E124.24254
G1 X120.018 Y120.065 E124.27408
G1 X115.738 Y124.345 E124.59330
G1 X115.140 Y124.345 E124.62484
G1 X119.420 Y120.065 E124.94406
G1 X118.822 Y120.065 E124.97559
G1 X114.542 Y124.345 E125.29482
G1 X113.944 Y124.345 E125.32635
G1 X118.225 Y120.065 E125.64558
G1 X117.627 Y120.065 E125.67711
G1 X113.346 Y124.345 E125.99633
G1 X112.748 Y124.345 E126.02787
G1 X117.029 Y120.065 E126.34709
G1 X116.431 Y120.065 E126.37863
G1 X112.150 Y124.345 E126.69785
G1 X111.552 Y124.345 E126.72939
G1 X115.833 Y120.065 E127.04861
G1 X115.235 Y120.065 E127.08015
G1 X110.955 Y124.345 E127.39937
G1 X110.357 Y124.345 E127.43091
G1 X114.637 Y120.065 E127.75013
G1 X114.039 Y120.065 E127.78166
G1 X109.759 Y124.345 E128.10089
G1 X109.161 Y124.345 E128.13242
G1 X113.441 Y120.065 E128.45165
G1 X112.843 Y120.065 E128.48318
G1 X108.563 Y124.345 E128.80240
G1 X107.965 Y124.345 E128.83394
G1 X112.245 Y120.065 E129.15316
G1 X111.647 Y120.065 E129.18470
G1 X107.367 Y124.345 E129.50392
G1 X106.769 Y124.345 E129.53546
G1 X111.049 Y120.065 E129.85468
G1 X110.451 Y120.065 E129.88622
G1 X106.171 Y124.345 E130.20544
G1 X105.573 Y124.345 E130.23697
G1 X109.853 Y120.065 E130.55620
G1 X109.255 Y120.065 E130.58773
G1 X104.975 Y124.345 E130.90696
G1 X104.377 Y124.345 E130.93849
G1 X108.657 Y120.065 E131.25771
G1 X108.059 Y120.065 E131.28925
G1 X103.779 Y124.345 E131.60847
G1 X103.181 Y124.345 E131.64001
G1 X107.461 Y120.065 E131.95923
G1 X106.863 Y120.065 E131.99077
G1 X102.583 Y124.345 E132.30999
G1 X101.985 Y124.345 E132.34153
G1 X106.265 Y120.065 E132.66075
G1 X105.667 Y120.065 E132.69228
G1 X101.387 Y124.345 E133.01151
G1 X100.789 Y124.345 E133.04304
G1 X105.069 Y120.065 E133.36227
G1 X104.471 Y120.065 E133.39380
G1 X100.191 Y124.345 E133.71302
G1 X99.593 Y124.345 E133.74456
G1 X103.873 Y120.065 E134.06378
G1 X103.275 Y120.065 E134.09532
G1 X98.995 Y124.345 E134.41454
G1 X98.397 Y124.345 E134.44608
G1 X102.677 Y120.065 E134.76530
G1 X102.079 Y120.065 E134.79684
G1 X97.799 Y124.345 E135.11606
G1 X97.201 Y124.345 E135.14760
G1 X101.481 Y120.065 E135.46682
G1 X100.883 Y120.065 E135.49835
G1 X96.603 Y124.345 E135.81758
G1 X96.005 Y124.345 E135.84911
G1 X100.285 Y120.065 E136.16834
G1 X99.687 Y120.065 E136.19987
G1 X95.407 Y124.345 E136.51909
G1 X95.074 Y124.080 E136.54154
G1 X99.089 Y120.065 E136.84098
G1 X98.491 Y120.065 E136.87252
G1 X95.074 Y123.482 E137.12737
G1 X95.074 Y122.884 E137.15890
G1 X97.893 Y120.065 E137.36915
G1 X97.295 Y120.065 E137.40069
G1 X95.074 Y122.286 E137.56634
G1 X95.074 Y121.688 E137.59787
G1 X96.698 Y120.065 E137.71893
G1 X96.100 Y120.065 E137.75046
G1 X95.074 Y121.090 E137.82692
G1 X95.074 Y120.492 E137.85846
G1 X95.292 Y120.274 E137.87469
G1 X95.099 Y120.027 F11400.000
G1 X95.099 Y103.972 E138.71352 F1200.000
G1 X95.074 Y95.873 F11400.000
G1 X95.292 Y95.655 E138.72968 F1200.000
G1 X95.887 Y95.655 E138.76090
G1 X95.074 Y96.468 E138.82121
G1 X95.074 Y97.063 E138.85244
G1 X96.482 Y95.655 E138.95691
G1 X97.077 Y95.655 E138.98813
G1 X95.074 Y97.658 E139.13676
G1 X95.074 Y98.253 E139.16798
G1 X97.672 Y95.655 E139.36076
G1 X98.267 Y95.655 E139.39199
G1 X95.074 Y98.848 E139.62892
G1 X95.074 Y99.443 E139.66015
G1 X98.862 Y95.655 E139.94124
G1 X99.457 Y95.655 E139.97247
G1 X95.074 Y100.038 E140.29772
G1 X95.074 Y100.633 E140.32894
G1 X100.052 Y95.655 E140.69835
G1 X100.647 Y95.655 E140.72957
G1 X95.074 Y101.228 E141.14314
G1 X95.074 Y101.823 E141.17436
G1 X101.242 Y95.655 E141.63208
G1 X101.837 Y95.655 E141.66330
G1 X95.074 Y102.418 E142.16518
G1 X95.074 Y103.013 E142.19640
G1 X102.432 Y95.655 E142.74244
G1 X103.027 Y95.655 E142.77366
G1 X95.074 Y103.608 E143.36385
G1 X95.553 Y103.724 E143.38969
G1 X103.622 Y95.655 E143.98854
G1 X104.217 Y95.655 E144.01976
G1 X95.938 Y103.934 E144.63415
G1 X96.533 Y103.934 E144.66538
G1 X104.812 Y95.655 E145.27977
G1 X105.407 Y95.655 E145.31099
G1 X97.128 Y103.934 E145.92539
G1 X97.723 Y103.934 E145.95661
G1 X106.002 Y95.655 E146.57100
G1 X106.597 Y95.655 E146.60223
G1 X98.318 Y103.934 E147.21662
G1 X98.913 Y103.934 E147.24784
G1 X107.192 Y95.655 E147.86223
G1 X107.787 Y95.655 E147.89346
G1 X99.508 Y103.934 E148.50785
G1 X100.103 Y103.934 E148.53907
G1 X108.382 Y95.655 E149.15347
G1 X108.977 Y95.655 E149.18469
G1 X100.698 Y103.934 E149.79908
G1 X101.293 Y103.934 E149.83031
G1 X109.572 Y95.655 E150.44470
G1 X110.167 Y95.655 E150.47592
G1 X101.888 Y103.934 E151.09032
G1 X102.483 Y103.934 E151.12154
G1 X110.762 Y95.655 E151.73593
G1 X111.357 Y95.655 E151.76716
G1 X103.078 Y103.934 E152.38155
G1 X103.673 Y103.934 E152.41277
G1 X111.952 Y95.655 E153.02716
G1 X112.547 Y95.655 E153.05839
G1 X104.268 Y103.934 E153.67278
G1 X104.863 Y103.934 E153.70400
G1 X113.142 Y95.655 E154.31840
G1 X113.737 Y95.655 E154.34962
G1 X105.458 Y103.934 E154.96401
G1 X106.053 Y103.934 E154.99524
G1 X114.332 Y95.655 E155.60963
G1 X114.927 Y95.655 E155.64085
G1 X106.648 Y103.934 E156.25525
G1 X107.243 Y103.934 E156.28647
G1 X115.522 Y95.655 E156.90086
G1 X116.117 Y95.655 E156.93209
G1 X107.838 Y103.934 E157.54648
G1 X108.433 Y103.934 E157.57770
G1 X116.712 Y95.655 E158.19209
G1 X117.307 Y95.655 E158.22332
G1 X109.028 Y103.934 E158.83771
G1 X109.623 Y103.934 E158.86893
G1 X117.902 Y95.655 E159.48333
G1 X118.497 Y95.655 E159.51455
G1 X110.218 Y103.934 E160.12894
G1 X110.813 Y103.934 E160.16017
G1 X119.092 Y95.655 E160.77456
G1 X119.687 Y95.655 E160.80578
G1 X111.408 Y103.934 E161.42018
G1 X112.003 Y103.934 E161.45140
G1 X120.282 Y95.655 E162.06579
G1 X120.877 Y95.655 E162.09702
G1 X112.598 Y103.934 E162.71141
G1 X113.193 Y103.934 E162.74263
G1 X121.472 Y95.655 E163.35702
G1 X122.067 Y95.655 E163.38825
G1 X113.788 Y103.934 E164.00264
G1 X114.383 Y103.934 E164.03386
G1 X122.662 Y95.655 E164.64826
G1 X123.257 Y95.655 E164.67948
G1 X114.978 Y103.934 E165.29387
G1 X115.573 Y103.934 E165.32510
G1 X123.852 Y95.655 E165.93949
G1 X124.447 Y95.655 E165.97071
G1 X116.168 Y103.934 E166.58511
G1 X116.763 Y103.934 E166.61633
G1 X124.926 Y95.772 E167.22206
G1 X124.926 Y96.367 E167.25329
G1 X117.358 Y103.934 E167.81486
G1 X117.953 Y103.934 E167.84608
G1 X124.926 Y96.962 E168.36350
G1 X124.926 Y97.557 E168.39473
G1 X118.548 Y103.934 E168.86799
G1 X119.143 Y103.934 E168.89921
G1 X124.926 Y98.152 E169.32832
G1 X124.926 Y98.747 E169.35954
G1 X119.738 Y103.934 E169.74449
G1 X120.333 Y103.934 E169.77572
G1 X124.926 Y99.342 E170.11651
G1 X124.926 Y99.937 E170.14774
G1 X120.928 Y103.934 E170.44437
G1 X121.523 Y103.934 E170.47560
G1 X124.926 Y100.532 E170.72808
G1 X124.926 Y101.127 E170.75930
G1 X122.118 Y103.934 E170.96763
G1 X122.713 Y103.934 E170.99885
G1 X124.926 Y101.722 E171.16302
G1 X124.926 Y102.317 E171.19424
G1 X123.308 Y103.934 E171.31425
G1 X123.903 Y103.934 E171.34548
G1 X124.926 Y102.912 E171.42133
G1 X124.926 Y103.507 E171.45256
G1 X124.708 Y103.724 E171.46871
G1 X124.898 Y103.972 F11400.000
G1 X124.898 Y120.027 E172.30754 F1200.000
G1 Z1.000 F11400.000
G1 X124.624 Y119.818 F11400.000
G1 X95.371 Y119.818 E173.83582 F3600.000
G1 X95.371 Y104.181 E174.65276
G1 X124.624 Y104.181 E176.18104
G1 X124.624 Y119.758 E176.99485
G1 X124.246 Y119.441 F11400.000
G1 X95.749 Y119.441 E178.18777 F1800.000
G1 X95.749 Y104.558 E178.81075
G1 X124.246 Y104.558 E180.00368
G1 X124.246 Y119.381 E180.62414
G1 X124.246 Y119.841 F11400.000
G1 X125.173 Y124.592 F11400.000
G1 X94.827 Y124.592 E182.20954 F3600.000
G1 X94.827 Y95.408 E183.73429
G1 X125.173 Y95.408 E185.31968
G1 X125.173 Y124.532 E186.84129
G1 X125.550 Y124.970 F11400.000
G1 X94.450 Y124.970 E188.14315 F1800.000
G1 X94.450 Y95.030 E189.39641
G1 X125.550 Y95.030 E190.69826
G1 X125.550 Y124.910 E191.94901
G1 X125.204 Y124.770 F11400.000
G1 X124.898 Y120.027 F11400.000
G1 X124.898 Y103.972 E192.78784 F1200.000
G1 X124.772 Y103.724 F11400.000
G1 X118.090 Y97.043 E193.28920 F1200.000
G1 X118.692 Y97.043 E193.32113
G1 X124.926 Y103.277 E193.78890
G1 X124.926 Y102.675 E193.82083
G1 X119.293 Y97.043 E194.24346
G1 X119.895 Y97.043 E194.27538
