; generated by Slic3r 1.2.9 on 2016-09-08 at 19:28:52

; external perimeters extrusion width = 0.40mm
; perimeters extrusion width = 0.48mm
; infill extrusion width = 0.48mm
; solid infill extrusion width = 0.48mm
; top infill extrusion width = 0.48mm
; support material extrusion width = 0.40mm

M107
M190 S30 ; set bed temperature
M104 S190 ; set temperature
G28 ; home all axes
G1 Z5 F5000 ; lift nozzle

M109 S190 ; wait for temperature to be reached
G21 ; set units to millimeters
G90 ; use absolute coordinates
M82 ; use absolute distances for extrusion
G92 E0
G1 Z0.400 F11400.000
G1 E-2.00000 F2400.00000
G92 E0
G1 X89.077 Y90.550 F11400.000
G1 E2.00000 F2400.00000
G1 X90.833 Y89.051 E2.27422 F1800.000
G1 X92.993 Y88.235 E2.54845
G1 X94.250 Y88.116 E2.69842
G1 X125.750 Y88.116 E6.43952
G1 X128.025 Y88.513 E6.71374
G1 X130.030 Y89.657 E6.98797 F1800.000
G1 X131.530 Y91.413 E7.26219
G1 X132.345 Y93.573 E7.53642
G1 X132.464 Y94.830 E7.68638
G1 X132.464 Y125.170 E11.28961
G1 X132.067 Y127.444 E11.56383
G1 X130.923 Y129.450 E11.83806
G1 X129.167 Y130.949 E12.11228
G1 X127.007 Y131.765 E12.38651
G1 X125.750 Y131.884 E12.53648
G1 X94.250 Y131.884 E16.27758
G1 X91.975 Y131.487 E16.55180
G1 X89.970 Y130.343 E16.82603
G1 X88.470 Y128.587 E17.10025
G1 X87.655 Y126.427 E17.37448
G1 X87.536 Y125.170 E17.52444
G1 X87.536 Y94.830 E21.12767
G1 X87.933 Y92.556 E21.40189
G1 X89.047 Y90.602 E21.66899
G1 E19.66899 F2400.00000
G92 E0
G1 X124.451 Y115.642 F11400.000
G1 E2.00000 F2400.00000
G1 X95.554 Y115.642 E5.43204 F1800.000
G1 X95.554 Y100.359 E7.24705
G1 X124.451 Y100.359 E10.67909
G1 X124.451 Y115.582 E12.48697
G1 X124.451 Y116.042 F11400.000
G1 X124.636 Y99.645 F11400.000
G1 X95.364 Y99.645 E15.96343 F1800.000
G1 X95.364 Y95.945 E16.40294
G1 X124.636 Y95.945 E19.87939
G1 X124.636 Y99.585 E20.31178
G1 X124.636 Y116.356 F11400.000
G1 X124.636 Y124.055 E21.22620 F1800.000
G1 X95.364 Y124.055 E24.70266
G1 X95.364 Y116.356 E25.61708
G1 X124.576 Y116.356 E29.08641
G1 X125.350 Y124.770 F11400.000
G1 X94.650 Y124.770 E32.73250 F1800.000
G1 X94.650 Y95.230 E36.24071
G1 X125.350 Y95.230 E39.88680
G1 X125.350 Y124.710 E43.38789
G1 X125.004 Y124.570 F11400.000
G1 X124.200 Y117.134 F11400.000
G1 X123.857 Y116.791 E43.44584 F1800.000
G1 X122.841 Y116.791 E43.56722
G1 X124.200 Y118.150 E43.79682
G1 X124.200 Y119.166 E43.91820
G1 X121.825 Y116.791 E44.31946
G1 X120.809 Y116.791 E44.44084
G1 X124.200 Y120.182 E45.01376
G1 X124.200 Y121.198 E45.13514
G1 X119.793 Y116.791 E45.87971
G1 X118.777 Y116.791 E46.00109
G1 X124.200 Y122.214 E46.91732
G1 X124.200 Y123.230 E47.03870
G1 X117.761 Y116.791 E48.12658
G1 X116.746 Y116.791 E48.24796
G1 X123.574 Y123.620 E49.40166
G1 X122.558 Y123.620 E49.52304
G1 X115.730 Y116.791 E50.67674
G1 X114.714 Y116.791 E50.79812
G1 X121.542 Y123.620 E51.95182
G1 X120.526 Y123.620 E52.07319
G1 X113.698 Y116.791 E53.22689
G1 X112.682 Y116.791 E53.34827
G1 X119.510 Y123.620 E54.50197
G1 X118.494 Y123.620 E54.62335
G1 X111.666 Y116.791 E55.77705
G1 X110.650 Y116.791 E55.89843
G1 X117.478 Y123.620 E57.05213
G1 X116.462 Y123.620 E57.17351
G1 X109.634 Y116.791 E58.32721
G1 X108.618 Y116.791 E58.44859
G1 X115.446 Y123.620 E59.60229
G1 X114.430 Y123.620 E59.72367
G1 X107.602 Y116.791 E60.87737
G1 X106.586 Y116.791 E60.99875
G1 X113.414 Y123.620 E62.15245
G1 X112.398 Y123.620 E62.27382
G1 X105.570 Y116.791 E63.42752
G1 X104.554 Y116.791 E63.54890
G1 X111.382 Y123.620 E64.70260
G1 X110.366 Y123.620 E64.82398
G1 X103.538 Y116.791 E65.97768
G1 X102.522 Y116.791 E66.09906
G1 X109.350 Y123.620 E67.25276
G1 X108.334 Y123.620 E67.37414
G1 X101.506 Y116.791 E68.52784
G1 X100.490 Y116.791 E68.64922
G1 X107.318 Y123.620 E69.80292
G1 X106.302 Y123.620 E69.92430
G1 X99.474 Y116.791 E71.07800
G1 X98.458 Y116.791 E71.19937
G1 X105.286 Y123.620 E72.35307
G1 X104.270 Y123.620 E72.47445
G1 X97.442 Y116.791 E73.62815
G1 X96.426 Y116.791 E73.74953
G1 X103.254 Y123.620 E74.90323
G1 X102.238 Y123.620 E75.02461
G1 X95.800 Y117.181 E76.11249
G1 X95.800 Y118.197 E76.23387
G1 X101.223 Y123.620 E77.15010
G1 X100.207 Y123.620 E77.27147
G1 X95.800 Y119.213 E78.01604
G1 X95.800 Y120.229 E78.13742
G1 X99.191 Y123.620 E78.71034
G1 X98.175 Y123.620 E78.83172
G1 X95.800 Y121.245 E79.23298
G1 X95.800 Y122.261 E79.35435
G1 X97.159 Y123.620 E79.58396
G1 X96.143 Y123.620 E79.70534
G1 X95.800 Y123.277 E79.76329
G1 X95.102 Y115.999 F11400.000
G1 X95.102 Y100.002 E81.66311 F1800.000
G1 X95.800 Y98.867 F11400.000
G1 X96.143 Y99.210 E81.72119 F1800.000
G1 X97.161 Y99.210 E81.84308
G1 X95.800 Y97.849 E82.07355
G1 X95.800 Y96.830 E82.19544
G1 X98.179 Y99.210 E82.59830
G1 X99.197 Y99.210 E82.72019
G1 X96.367 Y96.380 E83.19930
G1 X97.386 Y96.380 E83.32120
G1 X100.215 Y99.210 E83.80030
G1 X101.233 Y99.210 E83.92220
G1 X98.404 Y96.380 E84.40130
G1 X99.422 Y96.380 E84.52320
G1 X102.252 Y99.210 E85.00231
G1 X103.270 Y99.210 E85.12421
G1 X100.440 Y96.380 E85.60331
G1 X101.458 Y96.380 E85.72521
G1 X104.288 Y99.210 E86.20431
G1 X105.306 Y99.210 E86.32621
G1 X102.476 Y96.380 E86.80532
G1 X103.494 Y96.380 E86.92721
G1 X106.324 Y99.210 E87.40632
G1 X107.342 Y99.210 E87.52822
G1 X104.513 Y96.380 E88.00732
G1 X105.531 Y96.380 E88.12922
G1 X108.360 Y99.210 E88.60832
G1 X109.379 Y99.210 E88.73022
G1 X106.549 Y96.380 E89.20933
G1 X107.567 Y96.380 E89.33122
G1 X110.397 Y99.210 E89.81033
G1 X111.415 Y99.210 E89.93223
G1 X108.585 Y96.380 E90.41133
G1 X109.603 Y96.380 E90.53323
G1 X112.433 Y99.210 E91.01233
G1 X113.451 Y99.210 E91.13423
G1 X110.621 Y96.380 E91.61334
G1 X111.640 Y96.380 E91.73524
G1 X114.469 Y99.210 E92.21434
G1 X115.487 Y99.210 E92.33624
G1 X112.658 Y96.380 E92.81534
G1 X113.676 Y96.380 E92.93724
G1 X116.506 Y99.210 E93.41635
G1 X117.524 Y99.210 E93.53824
G1 X114.694 Y96.380 E94.01735
G1 X115.712 Y96.380 E94.13925
G1 X118.542 Y99.210 E94.61835
G1 X119.560 Y99.210 E94.74025
G1 X116.730 Y96.380 E95.21935
G1 X117.748 Y96.380 E95.34125
G1 X120.578 Y99.210 E95.82036
G1 X121.596 Y99.210 E95.94226
G1 X118.767 Y96.380 E96.42136
G1 X119.785 Y96.380 E96.54326
G1 X122.614 Y99.210 E97.02236
G1 X123.633 Y99.210 E97.14426
G1 X120.803 Y96.380 E97.62337
G1 X121.821 Y96.380 E97.74526
G1 X124.200 Y98.759 E98.14812
G1 X124.200 Y97.741 E98.27002
G1 X122.839 Y96.380 E98.50048
G1 X123.857 Y96.380 E98.62238
G1 X124.200 Y96.723 E98.68045
G1 X124.901 Y100.002 F11400.000
G1 X124.901 Y115.999 E100.58028 F1800.000
G1 Z0.400 F11400.000
G1 Z0.700 F11400.000
G1 X124.629 Y115.819 F11400.000
G1 X95.376 Y115.819 E102.10856 F3600.000
G1 X95.376 Y100.182 E102.92551
G1 X124.629 Y100.182 E104.45378
G1 X124.629 Y115.759 E105.26759
G1 X124.251 Y115.442 F11400.000
G1 X95.754 Y115.442 E106.46051 F1800.000
G1 X95.754 Y100.559 E107.08350
G1 X124.251 Y100.559 E108.27642
G1 X124.251 Y115.382 E108.89689
G1 X124.251 Y115.842 F11400.000
G1 X125.173 Y124.592 F11400.000
G1 X94.827 Y124.592 E110.48228 F3600.000
G1 X94.827 Y95.408 E112.00703
G1 X125.173 Y95.408 E113.59243
G1 X125.173 Y124.532 E115.11404
G1 X125.550 Y124.970 F11400.000
G1 X94.450 Y124.970 E116.41589 F1800.000
G1 X94.450 Y95.030 E117.66915
G1 X125.550 Y95.030 E118.97100
G1 X125.550 Y124.910 E120.22175
G1 X125.204 Y124.770 F11400.000
G1 X124.708 Y124.345 F11400.000
G1 X124.926 Y124.127 E120.23791 F1200.000
G1 X124.926 Y123.532 E120.26913
G1 X124.113 Y124.345 E120.32945
G1 X123.518 Y124.345 E120.36067
G1 X124.926 Y122.937 E120.46514
G1 X124.926 Y122.342 E120.49636
G1 X122.923 Y124.345 E120.64499
G1 X122.328 Y124.345 E120.67621
G1 X124.926 Y121.747 E120.86899
G1 X124.926 Y121.152 E120.90022
G1 X121.733 Y124.345 E121.13716
G1 X121.138 Y124.345 E121.16838
G1 X124.926 Y120.557 E121.44948
G1 X124.926 Y119.962 E121.48070
G1 X120.543 Y124.345 E121.80595
G1 X119.948 Y124.345 E121.83717
G1 X124.926 Y119.367 E122.20658
G1 X124.926 Y118.772 E122.23781
G1 X119.353 Y124.345 E122.65137
G1 X118.758 Y124.345 E122.68259
G1 X124.926 Y118.177 E123.14031
G1 X124.926 Y117.582 E123.17154
G1 X118.163 Y124.345 E123.67342
G1 X117.568 Y124.345 E123.70464
G1 X124.926 Y116.987 E124.25067
G1 X124.926 Y116.392 E124.28190
G1 X116.973 Y124.345 E124.87209
G1 X116.378 Y124.345 E124.90331
G1 X124.447 Y116.276 E125.50216
G1 X124.062 Y116.066 E125.52519
G1 X115.783 Y124.345 E126.13958
G1 X115.188 Y124.345 E126.17080
G1 X123.467 Y116.066 E126.78520
G1 X122.872 Y116.066 E126.81642
G1 X114.593 Y124.345 E127.43081
G1 X113.998 Y124.345 E127.46204
G1 X122.277 Y116.066 E128.07643
G1 X121.682 Y116.066 E128.10765
G1 X113.403 Y124.345 E128.72205
G1 X112.808 Y124.345 E128.75327
G1 X121.087 Y116.066 E129.36766
G1 X120.492 Y116.066 E129.39889
G1 X112.213 Y124.345 E130.01328
G1 X111.618 Y124.345 E130.04450
G1 X119.897 Y116.066 E130.65890
G1 X119.302 Y116.066 E130.69012
G1 X111.023 Y124.345 E131.30451
G1 X110.428 Y124.345 E131.33574
G1 X118.707 Y116.066 E131.95013
G1 X118.112 Y116.066 E131.98135
G1 X109.833 Y124.345 E132.59575
G1 X109.238 Y124.345 E132.62697
G1 X117.517 Y116.066 E133.24136
G1 X116.922 Y116.066 E133.27259
G1 X108.643 Y124.345 E133.88698
G1 X108.048 Y124.345 E133.91820
G1 X116.327 Y116.066 E134.53260
G1 X115.732 Y116.066 E134.56382
G1 X107.453 Y124.345 E135.17821
G1 X106.858 Y124.345 E135.20944
G1 X115.137 Y116.066 E135.82383
G1 X114.542 Y116.066 E135.85505
G1 X106.263 Y124.345 E136.46945
G1 X105.668 Y124.345 E136.50067
G1 X113.947 Y116.066 E137.11506
G1 X113.352 Y116.066 E137.14629
G1 X105.073 Y124.345 E137.76068
G1 X104.478 Y124.345 E137.79190
G1 X112.757 Y116.066 E138.40630
G1 X112.162 Y116.066 E138.43752
G1 X103.883 Y124.345 E139.05191
G1 X103.288 Y124.345 E139.08314
G1 X111.567 Y116.066 E139.69753
G1 X110.972 Y116.066 E139.72875
G1 X102.693 Y124.345 E140.34315
G1 X102.098 Y124.345 E140.37437
G1 X110.377 Y116.066 E140.98877
G1 X109.782 Y116.066 E141.01999
G1 X101.503 Y124.345 E141.63438
G1 X100.908 Y124.345 E141.66561
G1 X109.187 Y116.066 E142.28000
G1 X108.592 Y116.066 E142.31122
G1 X100.313 Y124.345 E142.92562
G1 X99.718 Y124.345 E142.95684
G1 X107.997 Y116.066 E143.57123
G1 X107.402 Y116.066 E143.60246
G1 X99.123 Y124.345 E144.21685
G1 X98.528 Y124.345 E144.24807
G1 X106.807 Y116.066 E144.86247
G1 X106.212 Y116.066 E144.89369
G1 X97.933 Y124.345 E145.50808
G1 X97.338 Y124.345 E145.53931
G1 X105.617 Y116.066 E146.15370
G1 X105.022 Y116.066 E146.18492
G1 X96.743 Y124.345 E146.79932
G1 X96.148 Y124.345 E146.83054
G1 X104.427 Y116.066 E147.44493
G1 X103.832 Y116.066 E147.47616
G1 X95.553 Y124.345 E148.09055
G1 X95.074 Y124.228 E148.11638
G1 X103.237 Y116.066 E148.72212
G1 X102.642 Y116.066 E148.75334
G1 X95.074 Y123.633 E149.31492
G1 X95.074 Y123.038 E149.34614
G1 X102.047 Y116.066 E149.86356
G1 X101.452 Y116.066 E149.89478
G1 X95.074 Y122.443 E150.36804
G1 X95.074 Y121.848 E150.39927
G1 X100.857 Y116.066 E150.82837
G1 X100.262 Y116.066 E150.85960
G1 X95.074 Y121.253 E151.24455
G1 X95.074 Y120.658 E151.27577
G1 X99.667 Y116.066 E151.61657
G1 X99.072 Y116.066 E151.64779
G1 X95.074 Y120.063 E151.94443
G1 X95.074 Y119.468 E151.97565
G1 X98.477 Y116.066 E152.22813
G1 X97.882 Y116.066 E152.25935
G1 X95.074 Y118.873 E152.46768
G1 X95.074 Y118.278 E152.49890
G1 X97.287 Y116.066 E152.66307
G1 X96.692 Y116.066 E152.69429
G1 X95.074 Y117.683 E152.81431
G1 X95.074 Y117.088 E152.84553
G1 X96.097 Y116.066 E152.92138
G1 X95.292 Y116.276 E152.96500
G1 X95.074 Y116.493 E152.98116
G1 X95.102 Y116.028 F11400.000
G1 X95.102 Y99.973 E153.81999 F1200.000
G1 X95.292 Y95.655 F11400.000
G1 X95.074 Y95.873 E153.83623 F1200.000
G1 X95.074 Y96.471 E153.86776
G1 X95.890 Y95.655 E153.92860
G1 X96.488 Y95.655 E153.96013
G1 X95.074 Y97.069 E154.06557
G1 X95.074 Y97.667 E154.09710
G1 X97.086 Y95.655 E154.24714
G1 X97.684 Y95.655 E154.27867
G1 X95.074 Y98.264 E154.47330
G1 X95.074 Y98.862 E154.50484
G1 X98.282 Y95.655 E154.74407
G1 X98.880 Y95.655 E154.77560
G1 X95.074 Y99.460 E155.05943
G1 X95.407 Y99.726 E155.08187
G1 X99.478 Y95.655 E155.38547
G1 X100.076 Y95.655 E155.41701
G1 X95.796 Y99.935 E155.73623
G1 X96.394 Y99.935 E155.76777
G1 X100.674 Y95.655 E156.08699
G1 X101.272 Y95.655 E156.11852
G1 X96.992 Y99.935 E156.43775
G1 X97.590 Y99.935 E156.46928
G1 X101.870 Y95.655 E156.78851
G1 X102.468 Y95.655 E156.82004
G1 X98.188 Y99.935 E157.13926
G1 X98.786 Y99.935 E157.17080
G1 X103.066 Y95.655 E157.49002
G1 X103.664 Y95.655 E157.52156
G1 X99.384 Y99.935 E157.84078
G1 X99.982 Y99.935 E157.87232
G1 X104.262 Y95.655 E158.19154
G1 X104.860 Y95.655 E158.22307
G1 X100.580 Y99.935 E158.54230
G1 X101.178 Y99.935 E158.57383
G1 X105.458 Y95.655 E158.89306
G1 X106.056 Y95.655 E158.92459
G1 X101.775 Y99.935 E159.24381
G1 X102.373 Y99.935 E159.27535
G1 X106.654 Y95.655 E159.59457
G1 X107.252 Y95.655 E159.62611
G1 X102.971 Y99.935 E159.94533
G1 X103.569 Y99.935 E159.97687
G1 X107.850 Y95.655 E160.29609
G1 X108.448 Y95.655 E160.32762
G1 X104.167 Y99.935 E160.64685
G1 X104.765 Y99.935 E160.67838
G1 X109.045 Y95.655 E160.99761
G1 X109.643 Y95.655 E161.02914
G1 X105.363 Y99.935 E161.34836
G1 X105.961 Y99.935 E161.37990
G1 X110.241 Y95.655 E161.69912
G1 X110.839 Y95.655 E161.73066
G1 X106.559 Y99.935 E162.04988
G1 X107.157 Y99.935 E162.08142
G1 X111.437 Y95.655 E162.40064
G1 X112.035 Y95.655 E162.43217
G1 X107.755 Y99.935 E162.75140
G1 X108.353 Y99.935 E162.78293
G1 X112.633 Y95.655 E163.10216
G1 X113.231 Y95.655 E163.13369
G1 X108.951 Y99.935 E163.45291
G1 X109.549 Y99.935 E163.48445
G1 X113.829 Y95.655 E163.80367
G1 X114.427 Y95.655 E163.83521
G1 X110.147 Y99.935 E164.15443
G1 X110.745 Y99.935 E164.18597
G1 X115.025 Y95.655 E164.50519
G1 X115.623 Y95.655 E164.53672
G1 X111.343 Y99.935 E164.85595
G1 X111.941 Y99.935 E164.88748
G1 X116.221 Y95.655 E165.20671
G1 X116.819 Y95.655 E165.23824
G1 X112.539 Y99.935 E165.55746
G1 X113.137 Y99.935 E165.58900
G1 X117.417 Y95.655 E165.90822
G1 X118.015 Y95.655 E165.93976
G1 X113.735 Y99.935 E166.25898
G1 X114.333 Y99.935 E166.29052
G1 X118.613 Y95.655 E166.60974
G1 X119.211 Y95.655 E166.64127
G1 X114.931 Y99.935 E166.96050
G1 X115.529 Y99.935 E166.99203
G1 X119.809 Y95.655 E167.31126
G1 X120.407 Y95.655 E167.34279
G1 X116.127 Y99.935 E167.66201
G1 X116.725 Y99.935 E167.69355
G1 X121.005 Y95.655 E168.01277
G1 X121.603 Y95.655 E168.04431
G1 X117.323 Y99.935 E168.36353
G1 X117.921 Y99.935 E168.39507
G1 X122.201 Y95.655 E168.71429
G1 X122.799 Y95.655 E168.74582
G1 X118.519 Y99.935 E169.06505
G1 X119.117 Y99.935 E169.09658
G1 X123.397 Y95.655 E169.41580
G1 X123.995 Y95.655 E169.44734
G1 X119.715 Y99.935 E169.76656
G1 X120.313 Y99.935 E169.79810
G1 X124.593 Y95.655 E170.11732
G1 X124.926 Y95.920 E170.13976
G1 X120.911 Y99.935 E170.43921
G1 X121.509 Y99.935 E170.47075
G1 X124.926 Y96.518 E170.72559
G1 X124.926 Y97.116 E170.75713
G1 X122.107 Y99.935 E170.96738
G1 X122.705 Y99.935 E170.99891
G1 X124.926 Y97.714 E171.16457
G1 X124.926 Y98.312 E171.19610
G1 X123.302 Y99.935 E171.31716
G1 X123.900 Y99.935 E171.34869
G1 X124.926 Y98.910 E171.42515
G1 X124.926 Y99.508 E171.45668
G1 X124.708 Y99.726 E171.47292
G1 X124.901 Y99.973 F11400.000
G1 X124.901 Y116.028 E172.31175 F1200.000
G1 Z1.000 F11400.000
G1 X124.629 Y115.819 F11400.000
G1 X95.376 Y115.819 E173.84003 F3600.000
G1 X95.376 Y100.182 E174.65697
G1 X124.629 Y100.182 E176.18525
G1 X124.629 Y115.759 E176.99906
G1 X124.251 Y115.442 F11400.000
G1 X95.754 Y115.442 E178.19198 F1800.000
G1 X95.754 Y100.559 E178.81496
G1 X124.251 Y100.559 E180.00788
G1 X124.251 Y115.382 E180.62835
G1 X124.251 Y115.842 F11400.000
G1 X125.173 Y124.592 F11400.000
G1 X94.827 Y124.592 E182.21375 F3600.000
G1 X94.827 Y95.408 E183.73850
G1 X125.173 Y95.408 E185.32389
G1 X125.173 Y124.532 E186.84550
G1 X125.550 Y124.970 F11400.000
G1 X94.450 Y124.970 E188.14736 F1800.000
G1 X94.450 Y95.030 E189.40062
G1 X125.550 Y95.030 E190.70247
G1 X125.550 Y124.910 E191.95322
G1 X125.204 Y124.770 F11400.000
G1 X124.776 Y124.236 F11400.000
G1 X121.885 Y124.236 E192.10426 F4800.000
G1 X121.796 Y123.904 E192.12225
G1 X120.005 Y123.424 E192.21912
G1 X119.207 Y124.222 E192.27808
G1 X117.416 Y123.742 E192.37495
G1 X117.289 Y123.267 E192.40062
G1 X121.039 Y123.267 E192.59656
G1 X121.905 Y123.499 E192.64335
G1 X122.136 Y123.267 E192.66048
G1 X124.517 Y123.267 E192.78484
