; generated by Slic3r 1.2.9 on 2016-07-13 at 23:06:33

; external perimeters extrusion width = 0.40mm
; perimeters extrusion width = 0.48mm
; infill extrusion width = 0.48mm
; solid infill extrusion width = 0.48mm
; top infill extrusion width = 0.48mm
; support material extrusion width = 0.40mm

M107
M190 S50 ; set bed temperature
M104 S210 ; set temperature
G28 ; home all axes
G1 Z5 F5000 ; lift nozzle

M109 S210 ; wait for temperature to be reached
G21 ; set units to millimeters
G90 ; use absolute coordinates
M82 ; use absolute distances for extrusion
G92 E0
G1 Z0.400 F11400.000
G1 E-2.00000 F2400.00000
G92 E0
G1 X91.200 Y74.399 F11400.000
G1 E2.00000 F2400.00000
G1 X91.568 Y73.972 E2.06694 F1800.000
G1 X91.989 Y73.527 E2.13974
G1 X92.396 Y73.134 E2.20689
G1 X92.849 Y72.736 E2.27852
G1 X93.291 Y72.380 E2.34592
G1 X93.771 Y72.028 E2.41661
G1 X94.243 Y71.714 E2.48396
G1 X94.756 Y71.404 E2.55512
G1 X95.252 Y71.135 E2.62216
G1 X95.800 Y70.868 E2.69455
G1 X96.307 Y70.650 E2.76012
G1 X96.880 Y70.433 E2.83286
G1 X97.423 Y70.256 E2.90069
G1 X98.007 Y70.094 E2.97265
G1 X98.558 Y69.967 E3.03983
G1 X99.147 Y69.860 E3.11087
G1 X99.703 Y69.783 E3.17750
G1 X100.306 Y69.728 E3.24942
G1 X101.175 Y69.695 E3.35275
G1 X114.063 Y69.695 E4.88345
G1 X115.208 Y69.705 E5.01942 F1800.000
G1 X115.975 Y69.749 E5.11064
G1 X116.735 Y69.838 E5.20145
G1 X117.444 Y69.963 E5.28705
G1 X118.189 Y70.138 E5.37784
G1 X118.878 Y70.342 E5.46326
G1 X119.611 Y70.606 E5.55574
G1 X120.269 Y70.887 E5.64074
G1 X120.965 Y71.233 E5.73307
G1 X121.589 Y71.590 E5.81848
G1 X122.239 Y72.013 E5.91055
G1 X122.819 Y72.441 E5.99612
G1 X123.416 Y72.937 E6.08832
G1 X123.940 Y73.426 E6.17348
G1 X124.480 Y73.991 E6.26629
G1 X124.944 Y74.538 E6.35147
G1 X125.408 Y75.153 E6.44297
G1 X125.808 Y75.753 E6.52860
G1 X126.197 Y76.415 E6.61982
G1 X126.708 Y77.439 E6.75571
G1 X131.574 Y88.607 E8.20245
G1 X132.102 Y90.647 E8.45279
G1 X132.358 Y93.323 E8.77201
G1 X132.389 Y93.964 E8.84824
G1 X132.389 Y125.840 E12.63401
G1 X131.985 Y128.136 E12.91088
G1 X127.020 Y141.780 E14.63533
G1 X126.629 Y142.726 E14.75683
G1 X126.310 Y143.377 E14.84300
G1 X125.988 Y143.954 E14.92144
G1 X125.611 Y144.553 E15.00555
G1 X125.225 Y145.100 E15.08501
G1 X124.781 Y145.662 E15.17006
G1 X124.341 Y146.162 E15.24916
G1 X123.829 Y146.684 E15.33603
G1 X123.337 Y147.133 E15.41509
G1 X122.782 Y147.589 E15.50043
G1 X122.242 Y147.984 E15.57986
G1 X121.648 Y148.374 E15.66426
G1 X121.071 Y148.710 E15.74360
G1 X120.427 Y149.040 E15.82947
G1 X119.820 Y149.310 E15.90838
G1 X119.140 Y149.571 E15.99493
G1 X118.505 Y149.775 E16.07412
G1 X117.813 Y149.957 E16.15909
G1 X117.152 Y150.094 E16.23926
G1 X116.447 Y150.202 E16.32400
G1 X115.784 Y150.267 E16.40313
G1 X115.195 Y150.299 E16.47314
G1 X101.237 Y150.305 E18.13090
G1 X100.548 Y150.287 E18.21271
G1 X99.521 Y150.196 E18.33521
G1 X98.500 Y150.023 E18.45815
G1 X97.489 Y149.765 E18.58204
G1 X96.840 Y149.549 E18.66328
G1 X96.111 Y149.265 E18.75625
G1 X95.353 Y148.913 E18.85545
G1 X94.668 Y148.542 E18.94807
G1 X93.944 Y148.087 E19.04960
G1 X93.311 Y147.632 E19.14212
G1 X92.663 Y147.101 E19.24162
G1 X92.090 Y146.568 E19.33460
G1 X91.512 Y145.959 E19.43431
G1 X91.005 Y145.354 E19.52809
G1 X90.499 Y144.664 E19.62964
G1 X90.084 Y144.016 E19.72104
G1 X89.679 Y143.286 E19.82021
G1 X89.342 Y142.579 E19.91319
G1 X89.030 Y141.805 E20.01231
G1 X88.784 Y141.064 E20.10506
G1 X88.568 Y140.242 E20.20597
G1 X88.418 Y139.480 E20.29827
G1 X88.308 Y138.648 E20.39790
G1 X88.239 Y137.412 E20.54497
G1 X88.239 Y82.616 E27.05284
G1 X88.252 Y82.195 E27.10277
G1 X88.301 Y81.429 E27.19394
G1 X88.382 Y80.731 E27.27741
G1 X88.479 Y80.170 E27.34498
G1 X88.605 Y79.590 E27.41550
G1 X88.751 Y79.039 E27.48327
G1 X88.931 Y78.465 E27.55474
G1 X89.126 Y77.931 E27.62215
G1 X89.360 Y77.369 E27.69450
G1 X89.604 Y76.855 E27.76210
G1 X89.883 Y76.327 E27.83299
G1 X90.172 Y75.835 E27.90076
G1 X90.496 Y75.337 E27.97135
G1 X90.829 Y74.872 E28.03928
G1 X91.163 Y74.446 E28.10353
G1 E26.10353 F2400.00000
G92 E0
G1 X119.778 Y136.590 F11400.000
G1 E2.00000 F2400.00000
G1 X119.666 Y137.175 E2.07076 F1800.000
G1 X119.586 Y137.477 E2.10783
G1 X119.395 Y138.034 E2.17772
G1 X119.148 Y138.578 E2.24866
G1 X118.854 Y139.092 E2.31903
G1 X118.682 Y139.348 E2.35563
G1 X118.321 Y139.812 E2.42544
G1 X118.115 Y140.041 E2.46204
G1 X117.692 Y140.449 E2.53187
G1 X117.453 Y140.649 E2.56894
G1 X116.976 Y140.994 E2.63883
G1 X116.465 Y141.294 E2.70920
G1 X116.189 Y141.431 E2.74580
G1 X115.645 Y141.655 E2.81563
G1 X115.349 Y141.752 E2.85270
G1 X114.778 Y141.897 E2.92259
G1 X114.187 Y141.988 E2.99363
G1 X113.528 Y142.024 E3.07203
G1 X102.504 Y142.024 E4.38131
G1 X101.706 Y141.971 E4.47629
G1 X101.398 Y141.924 E4.51329
G1 X100.820 Y141.792 E4.58366
G1 X100.258 Y141.606 E4.65404
G1 X99.702 Y141.363 E4.72609
G1 X99.188 Y141.077 E4.79590
G1 X98.930 Y140.908 E4.83250
G1 X98.458 Y140.550 E4.90288
G1 X98.023 Y140.148 E4.97325
G1 X97.617 Y139.697 E5.04531
G1 X97.264 Y139.221 E5.11568
G1 X96.958 Y138.714 E5.18605
G1 X96.817 Y138.439 E5.22267
G1 X96.585 Y137.890 E5.29351
G1 X96.407 Y137.329 E5.36341
G1 X96.335 Y137.030 E5.40000
G1 X96.237 Y136.445 E5.47043
G1 X96.187 Y135.714 E5.55745
G1 X96.187 Y103.886 E9.33745
G1 X96.237 Y103.155 E9.42446
G1 X96.335 Y102.566 E9.49545
G1 X96.489 Y101.988 E9.56640
G1 X96.698 Y101.425 E9.63781
G1 X96.953 Y100.894 E9.70770
G1 X97.106 Y100.627 E9.74430
G1 X97.436 Y100.135 E9.81467
G1 X97.814 Y99.672 E9.88562
G1 X98.237 Y99.245 E9.95703
G1 X98.688 Y98.867 E10.02692
G1 X98.938 Y98.687 E10.06352
G1 X99.442 Y98.374 E10.13389
G1 X99.977 Y98.109 E10.20483
G1 X100.534 Y97.895 E10.27576
G1 X101.110 Y97.735 E10.34670
G1 X101.700 Y97.629 E10.41786
G1 X102.502 Y97.570 E10.51347 F1800.000
G1 X113.530 Y97.570 E11.82311
G1 X114.184 Y97.612 E11.90099
G1 X114.489 Y97.651 E11.93749
G1 X115.069 Y97.770 E12.00786
G1 X115.641 Y97.943 E12.07879
G1 X116.185 Y98.167 E12.14868
G1 X116.461 Y98.303 E12.18521
G1 X116.729 Y98.453 E12.22174
G1 X117.218 Y98.773 E12.29106
G1 X117.463 Y98.959 E12.32766
G1 X117.909 Y99.350 E12.39803
G1 X118.315 Y99.781 E12.46841
G1 X118.510 Y100.020 E12.50501
G1 X118.852 Y100.504 E12.57538
G1 X119.146 Y101.018 E12.64576
G1 X119.278 Y101.292 E12.68179
G1 X119.396 Y101.571 E12.71783
G1 X119.589 Y102.131 E12.78821
G1 X119.728 Y102.712 E12.85914
G1 X119.812 Y103.301 E12.92979
G1 X119.847 Y103.888 E12.99964
G1 X119.847 Y135.716 E16.77966
G1 X119.783 Y136.530 E16.87671
G1 X120.090 Y136.840 F11400.000
G1 X119.648 Y100.458 F11400.000
G1 X119.455 Y100.120 E16.92301 F1800.000
G1 X119.079 Y99.587 E17.00040
G1 X118.852 Y99.310 E17.04301
G1 X118.405 Y98.835 E17.12040
G1 X117.916 Y98.406 E17.19780
G1 X117.630 Y98.189 E17.24040
G1 X117.099 Y97.842 E17.31571
G1 X116.480 Y97.516 E17.39883
G1 X115.881 Y97.270 E17.47571
G1 X115.245 Y97.077 E17.55465
G1 X114.606 Y96.947 E17.63204
G1 X114.253 Y96.900 E17.67436
G1 X113.552 Y96.856 E17.75777
G1 X102.476 Y96.856 E19.07317
G1 X101.610 Y96.920 E19.17634
G1 X100.951 Y97.038 E19.25591
G1 X100.310 Y97.216 E19.33486
G1 X99.690 Y97.454 E19.41382
G1 X99.094 Y97.750 E19.49278
G1 X98.540 Y98.093 E19.57017
G1 X98.250 Y98.303 E19.61277
G1 X97.753 Y98.719 E19.68965
G1 X97.283 Y99.194 E19.76909
G1 X96.862 Y99.709 E19.84808
G1 X96.386 Y100.448 E19.95251
G1 X96.067 Y100.364 E19.99164
G1 X96.067 Y82.651 E22.09526
G1 X96.110 Y81.988 E22.17422
G1 X96.186 Y81.542 E22.22790
G1 X96.304 Y81.096 E22.28278
G1 X96.461 Y80.665 E22.33721
G1 X96.654 Y80.258 E22.39066
G1 X96.978 Y79.731 E22.46418
G1 X97.165 Y79.469 E22.50235
G1 X97.456 Y79.132 E22.55523
G1 X97.920 Y78.703 E22.63027
G1 X98.155 Y78.514 E22.66611
G1 X98.541 Y78.257 E22.72127
G1 X98.947 Y78.036 E22.77608
G1 X99.360 Y77.858 E22.82947
G1 X99.806 Y77.713 E22.88526
G1 X100.260 Y77.608 E22.94056
G1 X100.717 Y77.546 E22.99532
G1 X101.201 Y77.523 E23.05287
G1 X111.146 Y77.524 E24.23398
G1 X111.226 Y77.850 E24.27387
G1 X110.752 Y78.099 E24.33744
G1 X110.444 Y78.298 E24.38096
G1 X109.997 Y78.649 E24.44844
G1 X109.696 Y78.929 E24.49734
G1 X109.453 Y79.192 E24.53979
G1 X109.065 Y79.699 E24.61571
G1 X108.841 Y80.065 E24.66666
G1 X108.580 Y80.590 E24.73621
G1 X108.357 Y81.216 E24.81525
G1 X108.213 Y81.866 E24.89428
G1 X108.156 Y82.449 E24.96383
G1 X108.151 Y82.876 E25.01453
G1 X108.202 Y83.448 E25.08277
G1 X108.274 Y83.853 E25.13166
G1 X108.362 Y84.200 E25.17412
G1 X108.581 Y84.813 E25.25135
G1 X108.873 Y85.393 E25.32857
G1 X109.069 Y85.706 E25.37235
G1 X109.464 Y86.222 E25.44958
G1 X109.932 Y86.698 E25.52887
G1 X110.443 Y87.101 E25.60610
G1 X110.737 Y87.292 E25.64781
G1 X111.043 Y87.465 E25.68953
G1 X111.637 Y87.730 E25.76675
G1 X112.259 Y87.919 E25.84398
G1 X112.620 Y87.993 E25.88776
G1 X113.249 Y88.062 E25.96292
G1 X113.600 Y88.067 E26.00464
G1 X113.951 Y88.051 E26.04635
G1 X114.578 Y87.963 E26.12151
G1 X114.937 Y87.877 E26.16528
G1 X115.535 Y87.675 E26.24034
G1 X115.873 Y87.524 E26.28422
G1 X116.429 Y87.210 E26.36014
G1 X116.779 Y86.962 E26.41109
G1 X117.212 Y86.594 E26.47858
G1 X117.469 Y86.333 E26.52210
G1 X117.870 Y85.842 E26.59727
G1 X118.075 Y85.536 E26.64104
G1 X118.385 Y84.965 E26.71827
G1 X118.622 Y84.360 E26.79550
G1 X118.724 Y84.005 E26.83927
G1 X118.845 Y83.366 E26.91650
G1 X118.885 Y82.717 E26.99373
G1 X118.874 Y82.349 E27.03750
G1 X118.793 Y81.704 E27.11473
G1 X118.633 Y81.073 E27.19196
G1 X118.509 Y80.726 E27.23573
G1 X118.235 Y80.137 E27.31296
G1 X117.881 Y79.571 E27.39225
G1 X117.469 Y79.067 E27.46948
G1 X117.211 Y78.804 E27.51326
G1 X116.727 Y78.397 E27.58842
G1 X116.382 Y78.158 E27.63822
G1 X116.570 Y77.819 E27.68419
G1 X117.134 Y78.060 E27.75712
G1 X117.647 Y78.353 E27.82721
G1 X118.123 Y78.704 E27.89746
G1 X118.552 Y79.105 E27.96724
G1 X118.933 Y79.554 E28.03710
G1 X119.262 Y80.047 E28.10755
G1 X119.532 Y80.571 E28.17757
G1 X119.737 Y81.121 E28.24723
G1 X119.858 Y81.613 E28.30736
G1 X119.954 Y82.292 E28.38888
G1 X119.967 Y100.374 E30.53634
G1 X119.706 Y100.443 E30.56834
G1 X115.113 Y87.064 F11400.000
G1 X114.739 Y87.190 E30.61520 F1800.000
G1 X114.445 Y87.260 E30.65105
G1 X113.885 Y87.339 E30.71830
G1 X113.294 Y87.348 E30.78849
G1 X112.731 Y87.287 E30.85573
G1 X112.435 Y87.226 E30.89159
G1 X111.888 Y87.059 E30.95957
G1 X111.365 Y86.826 E31.02756
G1 X110.859 Y86.520 E31.09775
G1 X110.410 Y86.165 E31.16574
G1 X110.004 Y85.753 E31.23446
G1 X109.656 Y85.298 E31.30245
G1 X109.496 Y85.042 E31.33830
G1 X109.238 Y84.531 E31.40629
G1 X109.046 Y83.992 E31.47427
G1 X108.973 Y83.703 E31.50965
G1 X108.911 Y83.354 E31.55178
G1 X108.866 Y82.848 E31.61210
G1 X108.870 Y82.488 E31.65488
G1 X108.919 Y81.978 E31.71566
G1 X109.044 Y81.414 E31.78430
G1 X109.238 Y80.870 E31.85293
G1 X109.467 Y80.412 E31.91372
G1 X109.655 Y80.104 E31.95659
G1 X110.000 Y79.652 E32.02410
G1 X110.203 Y79.434 E32.05948
G1 X110.462 Y79.192 E32.10161
G1 X110.860 Y78.880 E32.16165
G1 X111.112 Y78.716 E32.19742
G1 X111.620 Y78.450 E32.26540
G1 X112.156 Y78.250 E32.33339
G1 X112.447 Y78.171 E32.36924
G1 X113.007 Y78.074 E32.43675
G1 X113.368 Y78.050 E32.47962 F1800.000
G1 X113.879 Y78.060 E32.54041
G1 X114.445 Y78.140 E32.60830
G1 X114.739 Y78.210 E32.64415
G1 X115.275 Y78.391 E32.71130
G1 X115.551 Y78.515 E32.74725
G1 X116.044 Y78.793 E32.81450
G1 X116.292 Y78.965 E32.85035
G1 X116.725 Y79.329 E32.91760
G1 X116.937 Y79.544 E32.95345
G1 X117.299 Y79.988 E33.02144
G1 X117.606 Y80.478 E33.09016
G1 X117.848 Y80.997 E33.15815
G1 X117.949 Y81.282 E33.19400
G1 X118.090 Y81.836 E33.26199
G1 X118.161 Y82.404 E33.32997
G1 X118.171 Y82.706 E33.36583
G1 X118.135 Y83.278 E33.43381
G1 X118.029 Y83.840 E33.50179
G1 X117.945 Y84.130 E33.53765
G1 X117.737 Y84.663 E33.60563
G1 X117.463 Y85.166 E33.67362
G1 X117.295 Y85.417 E33.70947
G1 X116.937 Y85.856 E33.77672
G1 X116.726 Y86.070 E33.81248
G1 X116.340 Y86.397 E33.87252
G1 X116.046 Y86.606 E33.91539
G1 X115.551 Y86.886 E33.98291
G1 X115.170 Y87.044 E34.03198
G1 X115.043 Y87.452 F11400.000
G1 X120.681 Y87.064 F11400.000
G1 X120.681 Y137.163 E39.98206 F1800.000
G1 X120.674 Y137.636 E40.03827
G1 X120.630 Y138.133 E40.09744
G1 X120.514 Y138.751 E40.17212
G1 X120.334 Y139.349 E40.24628
G1 X120.088 Y139.928 E40.32099
G1 X119.787 Y140.467 E40.39434
G1 X119.426 Y140.979 E40.46876
G1 X119.014 Y141.446 E40.54273
G1 X118.555 Y141.866 E40.61666
G1 X118.050 Y142.237 E40.69102
G1 X117.509 Y142.551 E40.76529
G1 X116.942 Y142.804 E40.83906
G1 X116.348 Y142.995 E40.91313
G1 X115.729 Y143.124 E40.98824
G1 X115.106 Y143.185 E41.06262
G1 X114.529 Y143.191 E41.13114
G1 X101.243 Y143.191 E42.70908
G1 X100.777 Y143.177 E42.76438
G1 X100.310 Y143.126 E42.82025
G1 X99.856 Y143.039 E42.87516
G1 X99.408 Y142.915 E42.93032
G1 X98.721 Y142.647 E43.01791
G1 X98.080 Y142.299 E43.10454
G1 X97.489 Y141.873 E43.19106
G1 X96.952 Y141.374 E43.27809
G1 X96.477 Y140.808 E43.36587
G1 X96.090 Y140.202 E43.45128
G1 X95.774 Y139.540 E43.53835
G1 X95.544 Y138.847 E43.62513
G1 X95.404 Y138.134 E43.71144
G1 X95.353 Y137.397 E43.79916
G1 X95.353 Y82.629 E50.30371
G1 X95.399 Y81.905 E50.38987
G1 X95.487 Y81.390 E50.45185
G1 X95.622 Y80.881 E50.51438
G1 X95.802 Y80.389 E50.57656
G1 X96.025 Y79.918 E50.63854
G1 X96.383 Y79.336 E50.71967
G1 X96.603 Y79.028 E50.76466
G1 X96.941 Y78.635 E50.82617
G1 X97.453 Y78.162 E50.90897
G1 X97.732 Y77.938 E50.95152
G1 X98.172 Y77.645 E51.01426
G1 X98.634 Y77.393 E51.07674
G1 X99.107 Y77.190 E51.13786
G1 X99.615 Y77.024 E51.20136
G1 X100.131 Y76.905 E51.26428
G1 X100.652 Y76.834 E51.32665
G1 X101.184 Y76.809 E51.38999
G1 X114.847 Y76.810 E53.01265
G1 X115.528 Y76.849 E53.09366 F1800.000
G1 X116.192 Y76.966 E53.17370
G1 X116.837 Y77.157 E53.25365
G1 X117.453 Y77.420 E53.33313
G1 X118.037 Y77.754 E53.41304
G1 X118.580 Y78.154 E53.49311
G1 X119.070 Y78.611 E53.57275
G1 X119.504 Y79.123 E53.65243
G1 X119.879 Y79.684 E53.73261
G1 X120.186 Y80.283 E53.81247
G1 X120.420 Y80.910 E53.89201
G1 X120.581 Y81.565 E53.97206
G1 X120.667 Y82.239 E54.05283
G1 X120.681 Y87.004 E54.61869
G1 X120.335 Y87.264 F11400.000
G1 X119.531 Y85.977 F11400.000
G1 X119.183 Y85.629 E54.67800 F1800.000
G1 X118.343 Y85.813 E54.78163
G1 X119.531 Y87.001 E54.98408
G1 X119.531 Y88.026 E55.10752
G1 X117.901 Y86.396 E55.38531
G1 X117.403 Y86.922 E55.47262
G1 X119.531 Y89.051 E55.83526
G1 X119.531 Y90.075 E55.95869
G1 X116.837 Y87.381 E56.41767
G1 X116.205 Y87.774 E56.50732
G1 X119.531 Y91.100 E57.07402
G1 X119.531 Y92.124 E57.19746
G1 X115.508 Y88.101 E57.88296
G1 X114.726 Y88.343 E57.98161
G1 X119.531 Y93.149 E58.80038
G1 X119.531 Y94.173 E58.92381
G1 X113.844 Y88.486 E59.89287
G1 X112.802 Y88.468 E60.01841
G1 X119.531 Y95.198 E61.16498
G1 X119.531 Y96.222 E61.28842
G1 X111.507 Y88.198 E62.65558
G1 X108.018 Y84.709 F11400.000
G1 X101.268 Y77.959 E63.80573 F1800.000
G1 X100.307 Y78.022 E63.92178
G1 X119.531 Y97.247 E67.19732
G1 X119.531 Y98.271 E67.32076
G1 X99.492 Y78.232 E70.73516
G1 X98.791 Y78.556 E70.82817
G1 X118.049 Y97.814 E74.10939
G1 X116.013 Y96.802 F11400.000
G1 X98.183 Y78.972 E77.14732 F1800.000
G1 X97.665 Y79.479 E77.23460
G1 X114.682 Y96.496 E80.13401
G1 X113.582 Y96.420 E80.26689
G1 X97.221 Y80.059 E83.05459
G1 X96.860 Y80.723 E83.14563
G1 X112.557 Y96.420 E85.82017
G1 X111.533 Y96.420 E85.94360
G1 X96.613 Y81.500 E88.48575
G1 X96.509 Y82.421 E88.59740
G1 X110.508 Y96.420 E90.98264
G1 X109.484 Y96.420 E91.10608
G1 X96.503 Y83.439 E93.31781
G1 X96.503 Y84.464 E93.44125
G1 X108.459 Y96.420 E95.47842
G1 X107.435 Y96.420 E95.60186
G1 X96.503 Y85.489 E97.46446
G1 X96.503 Y86.513 E97.58790
G1 X106.410 Y96.420 E99.27593
G1 X105.386 Y96.420 E99.39937
G1 X96.503 Y87.538 E100.91284
G1 X96.503 Y88.562 E101.03628
G1 X104.361 Y96.420 E102.37518
G1 X103.336 Y96.420 E102.49862
G1 X96.503 Y89.587 E103.66296
G1 X96.503 Y90.611 E103.78639
G1 X102.332 Y96.441 E104.77961
G1 X101.406 Y96.539 E104.89186
G1 X96.503 Y91.636 E105.72720
G1 X96.503 Y92.660 E105.85063
G1 X100.570 Y96.728 E106.54368
G1 X99.808 Y96.990 E106.64084
G1 X96.503 Y93.685 E107.20392
G1 X96.503 Y94.709 E107.32735
G1 X99.108 Y97.314 E107.77115
G1 X98.464 Y97.695 E107.86126
G1 X96.503 Y95.734 E108.19539
G1 X96.503 Y96.759 E108.31883
G1 X97.874 Y98.130 E108.55249
G1 X97.333 Y98.613 E108.63991
G1 X96.503 Y97.783 E108.78134
