; generated by Slic3r 1.2.9 on 2016-07-14 at 20:32:43

; external perimeters extrusion width = 0.40mm
; perimeters extrusion width = 0.48mm
; infill extrusion width = 0.48mm
; solid infill extrusion width = 0.48mm
; top infill extrusion width = 0.48mm
; support material extrusion width = 0.40mm

M107
M190 S50 ; set bed temperature
M104 S210 ; set temperature
G28 ; home all axes
G1 Z5 F5000 ; lift nozzle

M109 S210 ; wait for temperature to be reached
G21 ; set units to millimeters
G90 ; use absolute coordinates
M82 ; use absolute distances for extrusion
G92 E0
G1 Z0.400 F11400.000
G1 E-2.00000 F2400.00000
G92 E0
G1 X92.063 Y76.174 F11400.000
G1 E2.00000 F2400.00000
G1 X92.777 Y75.371 E2.12765 F1800.000
G1 X93.257 Y74.890 E2.20834
G1 X93.752 Y74.433 E2.28828
G1 X94.707 Y73.656 E2.43457
G1 X95.594 Y73.034 E2.56322
G1 X96.508 Y72.482 E2.69006
G1 X97.106 Y72.166 E2.77038
G1 X97.716 Y71.875 E2.85061
G1 X98.337 Y71.612 E2.93078
G1 X98.878 Y71.408 E2.99937
G1 X99.886 Y71.085 E3.12507
G1 X100.543 Y70.914 E3.20575
G1 X101.588 Y70.703 E3.33236
G1 X102.474 Y70.580 E3.43854
G1 X103.456 Y70.504 E3.55554
G1 X104.134 Y70.487 E3.63613
G1 X111.833 Y70.487 E4.55047
G1 X112.617 Y70.506 E4.64366 F1800.000
G1 X113.375 Y70.562 E4.73391
G1 X114.291 Y70.678 E4.84354
G1 X115.186 Y70.845 E4.95172
G1 X115.809 Y70.993 E5.02773
G1 X116.774 Y71.276 E5.14714
G1 X117.634 Y71.587 E5.25582
G1 X118.228 Y71.835 E5.33219
G1 X118.808 Y72.107 E5.40827
G1 X119.697 Y72.581 E5.52792
G1 X120.471 Y73.055 E5.63570
G1 X120.998 Y73.415 E5.71157
G1 X121.800 Y74.025 E5.83128
G1 X122.290 Y74.440 E5.90752
G1 X122.765 Y74.877 E5.98412
G1 X123.410 Y75.535 E6.09353
G1 X123.835 Y76.013 E6.16953
G1 X124.239 Y76.507 E6.24540
G1 X124.836 Y77.319 E6.36507
G1 X125.188 Y77.853 E6.44093
G1 X131.177 Y87.836 E7.82361
G1 X131.893 Y89.511 E8.03989
G1 X132.458 Y91.570 E8.29353
G1 X132.698 Y93.345 E8.50631
G1 X132.699 Y125.223 E12.29224
G1 X132.074 Y128.051 E12.63622
G1 X126.016 Y141.088 E14.34352
G1 X125.723 Y141.660 E14.41990
G1 X125.407 Y142.218 E14.49605
G1 X124.923 Y142.984 E14.60365
G1 X124.555 Y143.507 E14.67962
G1 X124.165 Y144.017 E14.75587
G1 X123.756 Y144.510 E14.83198
G1 X123.325 Y144.988 E14.90836
G1 X122.873 Y145.449 E14.98505
G1 X122.403 Y145.891 E15.06168
G1 X121.917 Y146.311 E15.13792
G1 X121.415 Y146.710 E15.21410
G1 X120.899 Y147.087 E15.29001
G1 X120.369 Y147.443 E15.36586
G1 X119.824 Y147.778 E15.44181
G1 X119.266 Y148.091 E15.51784
G1 X118.693 Y148.382 E15.59408
G1 X118.106 Y148.650 E15.67074
G1 X117.510 Y148.894 E15.74730
G1 X116.906 Y149.112 E15.82354
G1 X116.296 Y149.304 E15.89951
G1 X115.321 Y149.557 E16.01912
G1 X114.431 Y149.731 E16.12683
G1 X113.526 Y149.855 E16.23529
G1 X112.786 Y149.917 E16.32344
G1 X111.853 Y149.945 E16.43438
G1 X103.918 Y149.943 E17.37675
G1 X103.204 Y149.914 E17.46158
G1 X102.358 Y149.839 E17.56248
G1 X101.112 Y149.642 E17.71230
G1 X100.487 Y149.505 E17.78833
G1 X99.867 Y149.342 E17.86437
G1 X99.256 Y149.155 E17.94035
G1 X98.652 Y148.942 E18.01639
G1 X98.053 Y148.704 E18.09294
G1 X97.217 Y148.321 E18.20208
G1 X96.327 Y147.846 E18.32198
G1 X95.552 Y147.370 E18.42994
G1 X94.726 Y146.791 E18.54974
G1 X94.009 Y146.220 E18.65861
G1 X93.257 Y145.543 E18.77879
G1 X92.797 Y145.080 E18.85631
G1 X92.364 Y144.608 E18.93238
G1 X91.782 Y143.907 E19.04065
G1 X91.185 Y143.093 E19.16045
G1 X90.692 Y142.327 E19.26866
G1 X90.198 Y141.445 E19.38870
G1 X89.796 Y140.612 E19.49863
G1 X89.545 Y140.017 E19.57520
G1 X89.203 Y139.066 E19.69524
G1 X89.017 Y138.453 E19.77139
G1 X88.857 Y137.833 E19.84736
G1 X88.722 Y137.209 E19.92326
G1 X88.613 Y136.579 E19.99919
G1 X88.480 Y135.450 E20.13417
G1 X88.431 Y134.321 E20.26844
G1 X88.441 Y85.626 E26.05172
G1 X88.540 Y84.373 E26.20096
G1 X88.629 Y83.742 E26.27666
G1 X88.748 Y83.084 E26.35604
G1 X88.900 Y82.414 E26.43765
G1 X89.077 Y81.764 E26.51762
G1 X89.283 Y81.120 E26.59799
G1 X89.517 Y80.483 E26.67856
G1 X89.990 Y79.403 E26.81852
G1 X90.524 Y78.388 E26.95476
G1 X90.873 Y77.812 E27.03478
G1 X91.245 Y77.251 E27.11464
G1 X91.641 Y76.706 E27.19471
G1 X92.025 Y76.221 E27.26823
G1 E25.26823 F2400.00000
G92 E0
G1 X119.278 Y134.674 F11400.000
G1 E2.00000 F2400.00000
G1 X119.175 Y135.095 E2.05150 F1800.000
G1 X118.920 Y135.891 E2.15081
G1 X118.760 Y136.291 E2.20196
G1 X118.393 Y137.048 E2.30183
G1 X117.953 Y137.777 E2.40301
G1 X117.454 Y138.452 E2.50273
G1 X117.173 Y138.781 E2.55408
G1 X116.583 Y139.381 E2.65397
G1 X115.940 Y139.923 E2.75395
G1 X115.590 Y140.178 E2.80536
G1 X114.881 Y140.624 E2.90482
G1 X114.499 Y140.828 E2.95620
G1 X113.731 Y141.171 E3.05606
G1 X112.931 Y141.442 E3.15649
G1 X112.111 Y141.637 E3.25651
G1 X111.684 Y141.707 E3.30799
G1 X110.850 Y141.785 E3.40741
G1 X105.602 Y141.795 E4.03075
G1 X104.993 Y141.774 E4.10303
G1 X104.023 Y141.654 E4.21912
G1 X103.295 Y141.493 E4.30769
G1 X102.591 Y141.277 E4.39519
G1 X102.237 Y141.144 E4.44010
G1 X101.570 Y140.845 E4.52684
G1 X101.235 Y140.669 E4.57183
G1 X100.604 Y140.286 E4.65952
G1 X100.005 Y139.853 E4.74726
G1 X99.712 Y139.612 E4.79229
G1 X99.176 Y139.115 E4.87919
G1 X98.672 Y138.563 E4.96796
G1 X98.221 Y137.978 E5.05560
G1 X97.818 Y137.359 E5.14336
G1 X97.631 Y137.029 E5.18842
G1 X97.309 Y136.371 E5.27544
G1 X97.164 Y136.021 E5.32037
G1 X96.927 Y135.330 E5.40712
G1 X96.826 Y134.965 E5.45214
G1 X96.674 Y134.246 E5.53944
G1 X96.618 Y133.871 E5.58441
G1 X96.561 Y133.268 E5.65636
G1 X96.544 Y132.741 E5.71908
G1 X96.544 Y107.878 E8.67184
G1 X96.565 Y107.280 E8.74290
G1 X96.684 Y106.306 E8.85951
G1 X96.842 Y105.586 E8.94706
G1 X97.058 Y104.878 E9.03495
G1 X97.330 Y104.193 E9.12252
G1 X97.659 Y103.531 E9.21026
G1 X98.041 Y102.896 E9.29827
G1 X98.474 Y102.294 E9.38632
G1 X98.952 Y101.731 E9.47405
G1 X99.475 Y101.210 E9.56171
G1 X100.040 Y100.733 E9.64955
G1 X100.643 Y100.302 E9.73758
G1 X101.278 Y99.921 E9.82561
G1 X101.941 Y99.594 E9.91339
G1 X102.626 Y99.323 E10.00083
G1 X103.332 Y99.109 E10.08847
G1 X104.055 Y98.953 E10.17630
G1 X104.735 Y98.861 E10.25774
G1 X105.641 Y98.819 E10.36553 F1800.000
G1 X110.589 Y98.820 E10.95314
G1 X111.357 Y98.866 E11.04452
G1 X111.753 Y98.916 E11.09198
G1 X112.518 Y99.063 E11.18446
G1 X113.270 Y99.277 E11.27731
G1 X113.998 Y99.552 E11.36973
G1 X114.696 Y99.888 E11.46174
G1 X115.044 Y100.084 E11.50920
G1 X115.695 Y100.508 E11.60148
G1 X116.162 Y100.868 E11.67148
G1 X116.602 Y101.249 E11.74061
G1 X117.016 Y101.663 E11.81008
G1 X117.405 Y102.100 E11.87967
G1 X117.876 Y102.721 E11.97224
G1 X118.192 Y103.214 E12.04171
G1 X118.479 Y103.726 E12.11142
G1 X118.653 Y104.081 E12.15841
G1 X118.875 Y104.609 E12.22641
G1 X119.072 Y105.165 E12.29642
G1 X119.182 Y105.546 E12.34352
G1 X119.310 Y106.103 E12.41141
G1 X119.410 Y106.694 E12.48263
G1 X119.468 Y107.259 E12.55014
G1 X119.490 Y107.888 E12.62485
G1 X119.490 Y132.727 E15.57482
G1 X119.463 Y133.417 E15.65685
G1 X119.420 Y133.846 E15.70809
G1 X119.288 Y134.614 E15.80067
G1 X119.573 Y134.943 F11400.000
G1 X119.432 Y104.092 F11400.000
G1 X119.112 Y103.393 E15.89192 F1800.000
G1 X118.804 Y102.846 E15.96649
G1 X118.462 Y102.313 E16.04173
G1 X117.957 Y101.646 E16.14100
G1 X117.535 Y101.172 E16.21639
G1 X117.089 Y100.726 E16.29134
G1 X116.614 Y100.315 E16.36594
G1 X116.109 Y99.925 E16.44174
G1 X115.415 Y99.473 E16.54013
G1 X115.026 Y99.254 E16.59306
G1 X114.280 Y98.895 E16.69146
G1 X113.494 Y98.598 E16.79118
G1 X112.683 Y98.368 E16.89134
G1 X111.865 Y98.211 E16.99023
G1 X111.423 Y98.155 E17.04318
G1 X110.611 Y98.106 E17.13985
G1 X105.625 Y98.104 E17.73200
G1 X104.670 Y98.149 E17.84553
G1 X103.931 Y98.249 E17.93404
G1 X103.153 Y98.417 E18.02863
G1 X102.391 Y98.648 E18.12318
G1 X101.651 Y98.940 E18.21760
G1 X100.936 Y99.293 E18.31233
G1 X100.251 Y99.704 E18.40721
G1 X99.601 Y100.168 E18.50211
G1 X98.991 Y100.683 E18.59689
G1 X98.427 Y101.246 E18.69158
G1 X97.911 Y101.854 E18.78625
G1 X97.445 Y102.503 E18.88114
G1 X97.032 Y103.187 E18.97602
G1 X96.677 Y103.901 E19.07074
G1 X96.606 Y104.081 E19.09368
G1 X96.258 Y104.014 E19.13575
G1 X96.258 Y86.241 E21.24653
G1 X96.274 Y85.735 E21.30672
G1 X96.319 Y85.253 E21.36418
G1 X96.435 Y84.567 E21.44690
G1 X96.510 Y84.252 E21.48532
G1 X96.715 Y83.579 E21.56885
G1 X97.044 Y82.797 E21.66960
G1 X97.277 Y82.350 E21.72946
G1 X97.441 Y82.072 E21.76783
G1 X97.833 Y81.497 E21.85049
G1 X98.186 Y81.059 E21.91723
G1 X98.726 Y80.490 E22.01047
G1 X99.161 Y80.111 E22.07894
G1 X99.806 Y79.633 E22.17427
G1 X100.307 Y79.328 E22.24398
G1 X100.678 Y79.132 E22.29385
G1 X101.306 Y78.856 E22.37529
G1 X101.950 Y78.637 E22.45599
G1 X102.608 Y78.475 E22.53652
G1 X103.410 Y78.355 E22.63279
G1 X104.171 Y78.316 E22.72339
G1 X110.262 Y78.316 E23.44672
G1 X110.361 Y78.606 E23.48319
G1 X110.116 Y78.794 E23.51982
G1 X109.842 Y79.051 E23.56440
G1 X109.419 Y79.533 E23.64054
G1 X109.203 Y79.834 E23.68455
G1 X108.939 Y80.282 E23.74632
G1 X108.736 Y80.708 E23.80239
G1 X108.607 Y81.052 E23.84607
G1 X108.441 Y81.672 E23.92221
G1 X108.380 Y82.042 E23.96679
G1 X108.337 Y82.692 E24.04420
G1 X108.363 Y83.182 E24.10243
G1 X108.437 Y83.715 E24.16637
G1 X108.607 Y84.348 E24.24411
G1 X108.736 Y84.692 E24.28780
G1 X108.939 Y85.118 E24.34386
G1 X109.213 Y85.582 E24.40780
G1 X109.611 Y86.101 E24.48554
G1 X109.868 Y86.375 E24.53012
G1 X110.350 Y86.798 E24.60626
G1 X110.649 Y87.012 E24.64994
G1 X111.054 Y87.254 E24.70600
G1 X111.532 Y87.484 E24.76905
G1 X111.990 Y87.647 E24.82671
G1 X112.511 Y87.781 E24.89065
G1 X113.160 Y87.867 E24.96839
G1 X113.874 Y87.867 E25.05318
G1 X114.510 Y87.783 E25.12931
G1 X114.875 Y87.698 E25.17389
G1 X115.482 Y87.492 E25.25003
G1 X115.824 Y87.337 E25.29461
G1 X116.379 Y87.016 E25.37074
G1 X116.684 Y86.798 E25.41533
G1 X117.174 Y86.368 E25.49274
G1 X117.503 Y86.004 E25.55097
G1 X117.827 Y85.574 E25.61491
G1 X118.154 Y85.007 E25.69265
G1 X118.427 Y84.347 E25.77752
G1 X118.593 Y83.728 E25.85357
G1 X118.654 Y83.358 E25.89815
G1 X118.683 Y82.913 E25.95112
G1 X119.011 Y82.852 E25.99073
G1 X119.183 Y83.226 E26.03955
G1 X119.402 Y83.831 E26.11599
G1 X119.572 Y84.455 E26.19283
G1 X119.692 Y85.094 E26.27001
G1 X119.755 Y85.658 E26.33740
G1 X119.776 Y86.244 E26.40709
G1 X119.776 Y104.022 E28.51847
G1 X119.491 Y104.080 E28.55300
G1 E26.55300 F2400.00000
G92 E0
G1 X117.694 Y98.511 F11400.000
G1 X114.916 Y93.951 F11400.000
G1 X115.502 Y91.941 F11400.000
G1 X116.381 Y90.780 F11400.000
G1 X116.751 Y90.239 F11400.000
G1 X116.964 Y89.907 F11400.000
G1 X115.757 Y87.242 F11400.000
G1 X116.662 Y79.530 F11400.000
G1 E2.00000 F2400.00000
G1 X116.921 Y79.247 E2.04557 F1800.000
G1 X117.637 Y79.822 E2.15464
G1 X118.137 Y80.311 E2.23773
G1 X118.601 Y80.846 E2.32179
G1 X118.811 Y81.119 E2.36273
G1 X119.208 Y81.707 E2.44698
G1 X119.553 Y82.320 E2.53043
G1 X119.844 Y82.955 E2.61348
G1 X120.083 Y83.615 E2.69688
G1 X120.269 Y84.295 E2.78056
G1 X120.399 Y84.989 E2.86439
G1 X120.467 Y85.606 E2.93809
G1 X120.490 Y86.231 E3.01244
G1 X120.490 Y134.194 E8.70873
G1 X120.470 Y134.781 E8.77847
G1 X120.411 Y135.359 E8.84749
G1 X120.286 Y136.059 E8.93197
G1 X120.205 Y136.394 E8.97292
G1 X119.996 Y137.075 E9.05750
G1 X119.740 Y137.718 E9.13971
G1 X119.425 Y138.350 E9.22352
G1 X119.062 Y138.951 E9.30701
G1 X118.751 Y139.389 E9.37075
G1 X118.427 Y139.796 E9.43253
G1 X117.947 Y140.316 E9.51660
G1 X117.700 Y140.552 E9.55720
G1 X117.156 Y141.011 E9.64165
G1 X116.880 Y141.217 E9.68257
G1 X116.286 Y141.606 E9.76686
G1 X115.665 Y141.944 E9.85094
G1 X115.355 Y142.090 E9.89158
G1 X114.700 Y142.348 E9.97515
G1 X114.027 Y142.552 E10.05870
G1 X113.340 Y142.700 E10.14219
G1 X112.417 Y142.812 E10.25265
G1 X111.846 Y142.831 E10.32047
G1 X104.159 Y142.831 E11.23346
G1 X103.711 Y142.818 E11.28659
G1 X103.122 Y142.765 E11.35690
G1 X102.424 Y142.650 E11.44087
G1 X101.742 Y142.479 E11.52442
G1 X101.078 Y142.254 E11.60765
G1 X100.434 Y141.975 E11.69100
G1 X99.812 Y141.643 E11.77480
G1 X99.217 Y141.261 E11.85873
G1 X98.656 Y140.834 E11.94245
G1 X98.137 Y140.365 E12.02560
G1 X97.655 Y139.852 E12.10916
G1 X97.215 Y139.300 E12.19302
G1 X96.821 Y138.713 E12.27694
G1 X96.476 Y138.099 E12.36054
G1 X96.185 Y137.462 E12.44373
G1 X95.947 Y136.801 E12.52724
G1 X95.762 Y136.119 E12.61106
G1 X95.633 Y135.424 E12.69504
G1 X95.566 Y134.813 E12.76803
G1 X95.544 Y134.191 E12.84203
G1 X95.544 Y86.230 E18.53808
G1 X95.561 Y85.690 E18.60226
G1 X95.611 Y85.160 E18.66549
G1 X95.735 Y84.425 E18.75404
G1 X95.820 Y84.065 E18.79792
G1 X96.039 Y83.348 E18.88696
G1 X96.167 Y83.010 E18.92990
G1 X96.401 Y82.487 E18.99799
G1 X96.838 Y81.688 E19.10608
G1 X97.259 Y81.071 E19.19484
G1 X97.643 Y80.595 E19.26749
G1 X98.240 Y79.966 E19.37045
G1 X98.712 Y79.554 E19.44491
G1 X99.407 Y79.040 E19.54755
G1 X99.955 Y78.707 E19.62363
G1 X100.367 Y78.488 E19.67910
G1 X101.047 Y78.190 E19.76730
G1 X101.749 Y77.951 E19.85528
G1 X102.469 Y77.773 E19.94345
G1 X103.338 Y77.644 E20.04780
G1 X104.153 Y77.601 E20.14469
G1 X111.832 Y77.601 E21.05665
G1 X112.626 Y77.637 E21.15107
G1 X113.263 Y77.718 E21.22731
G1 X113.945 Y77.859 E21.31002
G1 X113.902 Y78.246 E21.35626
G1 X113.395 Y78.240 E21.41655
G1 X112.939 Y78.273 E21.47080
G1 X112.355 Y78.390 E21.54150
G1 X111.815 Y78.573 E21.60930
G1 X111.537 Y78.699 E21.64555
G1 X111.037 Y78.988 E21.71413
G1 X110.578 Y79.339 E21.78271
G1 X110.356 Y79.548 E21.81896
G1 X109.979 Y79.977 E21.88676
G1 X109.802 Y80.224 E21.92281
G1 X109.571 Y80.617 E21.97706
G1 X109.394 Y80.988 E22.02582
G1 X109.288 Y81.271 E22.06174
G1 X109.140 Y81.823 E22.12955
G1 X109.090 Y82.124 E22.16580
G1 X109.052 Y82.697 E22.23405
G1 X109.074 Y83.114 E22.28359
G1 X109.139 Y83.573 E22.33862
G1 X109.288 Y84.129 E22.40700
G1 X109.394 Y84.412 E22.44292
G1 X109.571 Y84.783 E22.49168
G1 X109.806 Y85.182 E22.54671
G1 X110.156 Y85.639 E22.61509
G1 X110.365 Y85.861 E22.65134
G1 X110.794 Y86.238 E22.71914
G1 X111.040 Y86.414 E22.75507
G1 X111.393 Y86.624 E22.80382
G1 X111.808 Y86.824 E22.85853
G1 X112.199 Y86.963 E22.90786
G1 X112.648 Y87.079 E22.96289
G1 X113.218 Y87.154 E23.03127
G1 X113.517 Y87.164 E23.06674
G1 X113.816 Y87.154 E23.10221
G1 X114.382 Y87.080 E23.17001
G1 X114.679 Y87.010 E23.20626
G1 X115.219 Y86.827 E23.27406
G1 X115.497 Y86.701 E23.31032
G1 X115.992 Y86.416 E23.37811
G1 X116.240 Y86.238 E23.41436
G1 X116.672 Y85.859 E23.48262
G1 X116.951 Y85.549 E23.53216
G1 X117.230 Y85.179 E23.58719
G1 X117.518 Y84.680 E23.65557
G1 X117.747 Y84.128 E23.72655
G1 X117.894 Y83.577 E23.79427
G1 X117.944 Y83.276 E23.83052
G1 X117.982 Y82.700 E23.89910
G1 X117.944 Y82.124 E23.96768
G1 X117.894 Y81.823 E24.00393
G1 X117.746 Y81.271 E24.07173
G1 X117.518 Y80.720 E24.14264
G1 X117.233 Y80.225 E24.21044
G1 X117.055 Y79.977 E24.24669
G1 X116.702 Y79.575 E24.31022
G1 X117.032 Y79.428 F11400.000
G1 X114.319 Y78.111 F11400.000
G1 X114.902 Y78.311 E24.38335 F1800.000
G1 X115.539 Y78.574 E24.46523
G1 X116.505 Y79.109 E24.59642
G1 X117.868 Y80.577 F11400.000
G1 X118.202 Y81.118 E24.67204 F1800.000
G1 X118.363 Y81.442 E24.71494
G1 X118.624 Y82.062 E24.79480
G1 X118.765 Y82.535 E24.85344
G1 X119.158 Y84.773 F11400.000
G1 X118.814 Y84.429 E24.91173 F1800.000
G1 X118.512 Y85.148 E25.00527
G1 X119.324 Y85.960 E25.14319
G1 X119.341 Y86.997 E25.26771
G1 X118.133 Y85.790 E25.47268
G1 X117.683 Y86.361 E25.55992
G1 X119.341 Y88.018 E25.84129
G1 X119.341 Y89.039 E25.96381
G1 X117.170 Y86.868 E26.33228
G1 X116.601 Y87.320 E26.41949
G1 X119.341 Y90.060 E26.88459
G1 X119.341 Y91.080 E27.00711
G1 X115.959 Y87.698 E27.58124
G1 X115.233 Y87.993 E27.67526
G1 X119.341 Y92.101 E28.37254
G1 X119.341 Y93.122 E28.49507
G1 X114.433 Y88.214 E29.32819
G1 X113.508 Y88.310 E29.43981
G1 X119.341 Y94.143 E30.42994
G1 X119.341 Y95.163 E30.55247
G1 X112.405 Y88.228 E31.72974
G1 X110.918 Y87.761 E31.91689
G1 X119.341 Y96.184 E33.34669
G1 X119.341 Y97.205 E33.46921
G1 X101.383 Y79.247 E36.51757
G1 X100.679 Y79.564 E36.61022
G1 X119.341 Y98.226 E39.77805
G1 X119.341 Y99.246 E39.90057
G1 X100.033 Y79.938 E43.17810
G1 X99.442 Y80.369 E43.26579
G1 X119.341 Y100.267 E46.64355
G1 X119.341 Y101.288 E46.76607
G1 X98.913 Y80.860 E50.23373
G1 X98.410 Y81.377 E50.32038
G1 X116.729 Y99.696 E53.43004
G1 X114.430 Y98.419 F11400.000
G1 X97.972 Y81.961 E56.22375 F1800.000
G1 X97.582 Y82.592 E56.31276
G1 X112.931 Y97.940 E58.91815
