; generated by Slic3r 1.2.9 on 2016-07-14 at 23:23:52

; external perimeters extrusion width = 0.40mm
; perimeters extrusion width = 0.48mm
; infill extrusion width = 0.48mm
; solid infill extrusion width = 0.48mm
; top infill extrusion width = 0.48mm
; support material extrusion width = 0.40mm

M107
M190 S50 ; set bed temperature
M104 S210 ; set temperature
G28 ; home all axes
G1 Z5 F5000 ; lift nozzle

M109 S210 ; wait for temperature to be reached
G21 ; set units to millimeters
G90 ; use absolute coordinates
M82 ; use absolute distances for extrusion
G92 E0
G1 Z0.400 F11400.000
G1 E-2.00000 F2400.00000
G92 E0
G1 X95.835 Y75.983 F11400.000
G1 E2.00000 F2400.00000
G1 X96.245 Y75.490 E2.07614 F1800.000
G1 X96.675 Y75.012 E2.15248
G1 X97.392 Y74.298 E2.27273
G1 X97.874 Y73.866 E2.34950
G1 X98.368 Y73.459 E2.42559
G1 X98.880 Y73.070 E2.50195
G1 X99.405 Y72.705 E2.57795
G1 X99.943 Y72.361 E2.65375
G1 X100.495 Y72.039 E2.72965
G1 X101.061 Y71.740 E2.80564
G1 X101.640 Y71.462 E2.88191
G1 X102.490 Y71.106 E2.99142
G1 X103.095 Y70.888 E3.06774
G1 X103.707 Y70.695 E3.14392
G1 X104.679 Y70.443 E3.26326
G1 X105.570 Y70.269 E3.37098
G1 X106.474 Y70.145 E3.47937
G1 X107.214 Y70.083 E3.56755
G1 X108.147 Y70.055 E3.67849
G1 X115.780 Y70.055 E4.58495
G1 X116.567 Y70.073 E4.67843 F1800.000
G1 X117.334 Y70.128 E4.76978
G1 X118.257 Y70.246 E4.88027
G1 X118.888 Y70.358 E4.95642
G1 X119.514 Y70.495 E5.03257
G1 X120.394 Y70.735 E5.14087
G1 X121.004 Y70.933 E5.21708
G1 X121.610 Y71.158 E5.29383
G1 X122.202 Y71.407 E5.37002
G1 X122.783 Y71.679 E5.44623
G1 X123.351 Y71.974 E5.52225
G1 X124.221 Y72.484 E5.64206
G1 X124.976 Y72.991 E5.75007
G1 X125.490 Y73.374 E5.82626
G1 X125.991 Y73.780 E5.90274
G1 X126.476 Y74.207 E5.97958
G1 X126.942 Y74.653 E6.05613
G1 X127.391 Y75.120 E6.13302
G1 X128.050 Y75.882 E6.25265
G1 X128.443 Y76.387 E6.32869
G1 X128.965 Y77.131 E6.43671
G1 X129.308 Y77.673 E6.51283
G1 X129.802 Y78.555 E6.63288
G1 X130.088 Y79.133 E6.70942
G1 X130.350 Y79.725 E6.78636
G1 X130.586 Y80.326 E6.86307
G1 X130.797 Y80.934 E6.93944
G1 X131.053 Y81.808 E7.04768
G1 X131.278 Y82.791 E7.16745
G1 X131.387 Y83.421 E7.24335
G1 X131.465 Y83.992 E7.31182
G1 X131.537 Y84.790 E7.40699
G1 X131.571 Y85.802 E7.52720
G1 X131.571 Y133.776 E13.22487
G1 X131.559 Y134.374 E13.29594
G1 X131.510 Y135.142 E13.38725
G1 X131.428 Y135.873 E13.47461
G1 X131.324 Y136.539 E13.55473
G1 X131.100 Y137.586 E13.68187
G1 X130.923 Y138.236 E13.76184
G1 X130.717 Y138.881 E13.84222
G1 X130.373 Y139.790 E13.95771
G1 X129.929 Y140.766 E14.08506
G1 X129.476 Y141.611 E14.19899
G1 X129.127 Y142.189 E14.27907
G1 X128.755 Y142.750 E14.35906
G1 X128.115 Y143.607 E14.48605
G1 X127.489 Y144.343 E14.60084
G1 X126.747 Y145.107 E14.72738
G1 X126.035 Y145.752 E14.84144
G1 X125.199 Y146.415 E14.96812
G1 X124.404 Y146.968 E15.08319
G1 X123.492 Y147.518 E15.20961
G1 X122.894 Y147.834 E15.29001
G1 X122.377 Y148.081 E15.35800
G1 X121.397 Y148.492 E15.48425
G1 X120.389 Y148.835 E15.61071
G1 X119.457 Y149.086 E15.72529
G1 X118.412 Y149.297 E15.85187
G1 X117.526 Y149.420 E15.95812
G1 X116.544 Y149.496 E16.07511
G1 X115.866 Y149.513 E16.15572
G1 X108.094 Y149.513 E17.07878
G1 X107.155 Y149.481 E17.19026
G1 X106.322 Y149.406 E17.28962
G1 X105.441 Y149.277 E17.39544
G1 X104.455 Y149.073 E17.51504
G1 X103.578 Y148.835 E17.62293
G1 X102.624 Y148.512 E17.74248
G1 X102.025 Y148.274 E17.81904
G1 X101.195 Y147.895 E17.92749
G1 X100.303 Y147.419 E18.04747
G1 X99.529 Y146.945 E18.15526
G1 X98.704 Y146.368 E18.27487
G1 X97.990 Y145.801 E18.38320
G1 X97.509 Y145.379 E18.45914
G1 X97.036 Y144.928 E18.53681
G1 X96.344 Y144.193 E18.65674
G1 X95.929 Y143.704 E18.73283
G1 X95.376 Y142.983 E18.84077
G1 X94.795 Y142.120 E18.96434
G1 X88.360 Y132.055 E20.38306
G1 X87.469 Y129.925 E20.65728
G1 X87.303 Y128.441 E20.83465
G1 X87.302 Y93.375 E24.99926
G1 X88.014 Y90.367 E25.36639
G1 X89.118 Y88.167 E25.65867
G1 X94.279 Y78.336 E26.97744
G1 X94.593 Y77.782 E27.05304
G1 X94.928 Y77.241 E27.12860
G1 X95.288 Y76.711 E27.20475
G1 X95.798 Y76.030 E27.30575
G1 E25.30575 F2400.00000
G92 E0
G1 X122.513 Y116.141 F11400.000
G1 E2.00000 F2400.00000
G1 X122.247 Y116.633 E2.06636 F1800.000
G1 X121.958 Y117.105 E2.13208
G1 X121.529 Y117.702 E2.21948
G1 X121.290 Y117.996 E2.26442
G1 X120.795 Y118.532 E2.35112
G1 X120.523 Y118.792 E2.39571
G1 X120.106 Y119.149 E2.46095
G1 X119.663 Y119.489 E2.52721
G1 X119.203 Y119.795 E2.59283
G1 X118.720 Y120.080 E2.65943
G1 X118.063 Y120.404 E2.74656
G1 X117.715 Y120.550 E2.79127
G1 X117.023 Y120.791 E2.87829
G1 X116.312 Y120.975 E2.96558
G1 X115.941 Y121.048 E3.01046
G1 X115.267 Y121.139 E3.09123
G1 X114.495 Y121.181 E3.18305
G1 X109.552 Y121.181 E3.77005
G1 X108.640 Y121.133 E3.87852
G1 X107.869 Y121.020 E3.97111
G1 X107.478 Y120.936 E4.01865
G1 X106.730 Y120.723 E4.11099
G1 X106.002 Y120.448 E4.20341
G1 X105.300 Y120.110 E4.29593
G1 X104.627 Y119.712 E4.38884
G1 X103.992 Y119.258 E4.48153
G1 X103.542 Y118.879 E4.55137
G1 X103.118 Y118.478 E4.62071
G1 X102.596 Y117.901 E4.71317
G1 X102.123 Y117.277 E4.80608
G1 X101.706 Y116.615 E4.89904
G1 X101.348 Y115.923 E4.99155
G1 X101.125 Y115.391 E5.06007
G1 X100.927 Y114.831 E5.13059
G1 X100.727 Y114.081 E5.22283
G1 X100.649 Y113.689 E5.27024
G1 X100.556 Y113.022 E5.35030
G1 X100.510 Y112.184 E5.44998
G1 X100.510 Y87.273 E8.40846
G1 X100.537 Y86.578 E8.49104
G1 X100.641 Y85.738 E8.59157
G1 X100.823 Y84.914 E8.69180
G1 X100.945 Y84.499 E8.74327
G1 X101.238 Y83.713 E8.84282
G1 X101.604 Y82.956 E8.94269
G1 X101.820 Y82.580 E8.99416
G1 X102.289 Y81.879 E9.09438
G1 X102.823 Y81.222 E9.19493
G1 X103.417 Y80.619 E9.29538
G1 X104.060 Y80.077 E9.39537
G1 X104.410 Y79.822 E9.44677
G1 X105.123 Y79.374 E9.54679
G1 X105.874 Y78.995 E9.64671
G1 X106.273 Y78.828 E9.69803
G1 X107.069 Y78.558 E9.79790
G1 X107.889 Y78.363 E9.89793
G1 X108.316 Y78.293 E9.94941
G1 X109.153 Y78.215 E10.04917
G1 X112.785 Y78.205 E10.48059
G1 X114.399 Y78.205 E10.67218 F1800.000
G1 X115.003 Y78.226 E10.74396
G1 X115.614 Y78.289 E10.81696
G1 X116.344 Y78.419 E10.90498
G1 X117.061 Y78.608 E10.99313
G1 X117.760 Y78.854 E11.08105
G1 X118.433 Y79.157 E11.16876
G1 X119.079 Y79.513 E11.25635
G1 X119.399 Y79.717 E11.30143
G1 X119.998 Y80.150 E11.38918
G1 X120.562 Y80.631 E11.47723
G1 X121.082 Y81.156 E11.56494
G1 X121.555 Y81.720 E11.65245
G1 X121.781 Y82.025 E11.69751
G1 X122.184 Y82.645 E11.78528
G1 X122.537 Y83.297 E11.87341
G1 X122.835 Y83.975 E11.96130
G1 X123.074 Y84.673 E12.04903
G1 X123.257 Y85.389 E12.13670
G1 X123.328 Y85.761 E12.18173
G1 X123.416 Y86.430 E12.26181
G1 X123.455 Y87.182 E12.35133
G1 X123.456 Y112.125 E15.31365
G1 X123.410 Y113.020 E15.42003
G1 X123.317 Y113.687 E15.50005
G1 X123.244 Y114.058 E15.54495
G1 X123.059 Y114.767 E15.63197
G1 X122.941 Y115.125 E15.67671
G1 X122.739 Y115.644 E15.74287
G1 X122.538 Y116.087 E15.80066
G1 X122.730 Y116.477 F11400.000
G1 X123.405 Y115.906 F11400.000
G1 X123.742 Y115.979 E15.84169 F1800.000
G1 X123.742 Y133.759 E17.95328
G1 X123.726 Y134.265 E18.01347
G1 X123.681 Y134.747 E18.07093
G1 X123.565 Y135.433 E18.15365
G1 X123.490 Y135.748 E18.19207
G1 X123.285 Y136.421 E18.27560
G1 X122.956 Y137.203 E18.37635
G1 X122.723 Y137.650 E18.43621
G1 X122.559 Y137.928 E18.47458
G1 X122.162 Y138.511 E18.55834
G1 X121.965 Y138.763 E18.59633
G1 X121.507 Y139.279 E18.67823
G1 X121.007 Y139.751 E18.75995
G1 X120.490 Y140.162 E18.83836
G1 X119.910 Y140.546 E18.92096
G1 X119.390 Y140.833 E18.99154
G1 X119.014 Y141.012 E19.04095
G1 X118.374 Y141.261 E19.12256
G1 X117.721 Y141.452 E19.20336
G1 X117.058 Y141.586 E19.28366
G1 X116.209 Y141.674 E19.38505
G1 X109.999 Y141.682 E20.12252
G1 X110.649 Y141.008 E20.23370
G1 X111.000 Y140.576 E20.29979
G1 X111.364 Y140.003 E20.38039
G1 X111.539 Y139.660 E20.42617
G1 X111.784 Y139.041 E20.50523
G1 X111.891 Y138.670 E20.55101
G1 X112.019 Y137.999 E20.63215
G1 X112.062 Y137.318 E20.71330
G1 X112.016 Y136.583 E20.80066
G1 X111.889 Y135.917 E20.88125
G1 X111.721 Y135.386 E20.94735
G1 X111.535 Y134.934 E21.00541
G1 X111.364 Y134.597 E21.05033
G1 X111.000 Y134.024 E21.13093
G1 X110.649 Y133.592 E21.19703
G1 X110.297 Y133.228 E21.25717
G1 X109.776 Y132.797 E21.33745
G1 X109.458 Y132.580 E21.38323
G1 X108.874 Y132.259 E21.46229
G1 X108.190 Y131.989 E21.54965
G1 X107.529 Y131.819 E21.63080
G1 X106.838 Y131.731 E21.71348
G1 X106.281 Y131.727 E21.77957
G1 X105.776 Y131.765 E21.83971
G1 X105.113 Y131.892 E21.91999
G1 X104.742 Y131.999 E21.96578
G1 X104.123 Y132.244 E22.04484
G1 X103.780 Y132.419 E22.09062
G1 X103.209 Y132.782 E22.17090
G1 X102.815 Y133.099 E22.23104
G1 X102.412 Y133.484 E22.29714
G1 X101.969 Y134.020 E22.37982
G1 X101.596 Y134.608 E22.46250
G1 X101.354 Y135.109 E22.52860
G1 X101.180 Y135.566 E22.58666
G1 X101.075 Y135.930 E22.63158
G1 X100.996 Y136.343 E22.68154
G1 X100.670 Y136.369 E22.72034
G1 X100.598 Y136.169 E22.74558
G1 X100.428 Y135.545 E22.82241
G1 X100.308 Y134.906 E22.89959
G1 X100.245 Y134.342 E22.96698
G1 X100.224 Y133.756 E23.03668
G1 X100.224 Y115.978 E25.14805
G1 X100.568 Y115.908 E25.18971
G1 X100.701 Y116.226 E25.23058
G1 X101.085 Y116.970 E25.33007
G1 X101.535 Y117.684 E25.43031
G1 X102.045 Y118.357 E25.53055
G1 X102.607 Y118.978 E25.63002
G1 X103.066 Y119.413 E25.70514
G1 X103.554 Y119.823 E25.78078
G1 X104.237 Y120.311 E25.88048
G1 X104.963 Y120.740 E25.98070
G1 X105.720 Y121.105 E26.08053
G1 X106.506 Y121.402 E26.18024
G1 X107.305 Y121.629 E26.27897
G1 X107.742 Y121.723 E26.33201
G1 X108.569 Y121.845 E26.43135
G1 X109.534 Y121.896 E26.54604
G1 X114.514 Y121.895 E27.13757
G1 X115.334 Y121.851 E27.23511
G1 X116.057 Y121.752 E27.32176
G1 X116.470 Y121.672 E27.37168
G1 X117.231 Y121.475 E27.46500
G1 X117.971 Y121.217 E27.55809
G1 X118.359 Y121.055 E27.60804
G1 X119.060 Y120.708 E27.70097
G1 X119.583 Y120.400 E27.77302
G1 X120.079 Y120.070 E27.84376
G1 X120.556 Y119.704 E27.91516
G1 X121.003 Y119.321 E27.98504
G1 X121.304 Y119.033 E28.03461
G1 X121.829 Y118.464 E28.12657
G1 X122.096 Y118.137 E28.17668
G1 X122.553 Y117.500 E28.26977
G1 X122.866 Y116.989 E28.34090
G1 X123.153 Y116.459 E28.41245
G1 X123.380 Y115.960 E28.47758
G1 E26.47758 F2400.00000
G92 E0
G1 X121.450 Y121.907 F11400.000
G1 X118.771 Y126.201 F11400.000
G1 X116.499 Y129.007 F11400.000
G1 X115.966 Y128.908 F11400.000
G1 X115.900 Y128.882 F11400.000
G1 X115.812 Y128.846 F11400.000
G1 X110.466 Y133.559 F11400.000
G1 X107.645 Y142.026 F11400.000
G1 E2.00000 F2400.00000
G1 X108.107 Y141.883 E2.05746 F1800.000
G1 X108.553 Y141.702 E2.11469
G1 X108.937 Y141.497 E2.16629
G1 X109.344 Y141.234 E2.22384
G1 X109.812 Y140.847 E2.29605
G1 X110.114 Y140.534 E2.34768
G1 X110.419 Y140.158 E2.40522
G1 X110.743 Y139.649 E2.47683
G1 X110.887 Y139.365 E2.51461
G1 X111.107 Y138.809 E2.58567
G1 X111.196 Y138.504 E2.62346
G1 X111.309 Y137.910 E2.69526
G1 X111.347 Y137.306 E2.76707
G1 X111.308 Y136.684 E2.84111
G1 X111.195 Y136.092 E2.91272
G1 X111.049 Y135.630 E2.97026
G1 X110.886 Y135.232 E3.02131
G1 X110.743 Y134.951 E3.05878
G1 X110.419 Y134.442 E3.13039
G1 X110.114 Y134.066 E3.18794
G1 X109.811 Y133.752 E3.23973
G1 X109.347 Y133.368 E3.31122
G1 X109.084 Y133.190 E3.34901
G1 X108.560 Y132.901 E3.42007
G1 X108.274 Y132.778 E3.45710
G1 X107.980 Y132.672 E3.49414
G1 X107.395 Y132.522 E3.56595
G1 X106.790 Y132.445 E3.63831
G1 X106.306 Y132.441 E3.69585
G1 X105.871 Y132.474 E3.74764
G1 X105.279 Y132.587 E3.81914
G1 X104.974 Y132.676 E3.85692
G1 X104.418 Y132.896 E3.92798
G1 X104.134 Y133.040 E3.96577
G1 X103.626 Y133.363 E4.03726
G1 X103.286 Y133.637 E4.08905
G1 X102.936 Y133.971 E4.14660
G1 X102.547 Y134.441 E4.21896
G1 X102.221 Y134.955 E4.29131
G1 X102.011 Y135.392 E4.34886
G1 X101.858 Y135.793 E4.39990
G1 X101.770 Y136.096 E4.43738
G1 X101.658 Y136.684 E4.50844
G1 X101.628 Y137.001 E4.54622
G1 X101.628 Y137.603 E4.61772
G1 X101.677 Y138.036 E4.66951
G1 X101.771 Y138.505 E4.72631
G1 X101.859 Y138.809 E4.76390
G1 X102.103 Y139.426 E4.84274
G1 X101.804 Y139.616 E4.88481
G1 X101.627 Y139.428 E4.91553
G1 X101.187 Y138.877 E4.99926
G1 X100.792 Y138.293 E5.08302
G1 X100.447 Y137.680 E5.16648
G1 X100.156 Y137.045 E5.24953
G1 X99.917 Y136.385 E5.33292
G1 X99.731 Y135.705 E5.41660
G1 X99.601 Y135.011 E5.50043
G1 X99.533 Y134.394 E5.57413
G1 X99.510 Y133.769 E5.64848
G1 X99.510 Y85.806 E11.34478
G1 X99.530 Y85.219 E11.41452
G1 X99.590 Y84.637 E11.48402
G1 X99.644 Y84.295 E11.52514
G1 X99.796 Y83.602 E11.60944
G1 X100.004 Y82.925 E11.69354
G1 X100.260 Y82.282 E11.77575
G1 X100.575 Y81.650 E11.85957
G1 X100.940 Y81.046 E11.94338
G1 X101.137 Y80.761 E11.98460
G1 X101.576 Y80.200 E12.06924
G1 X101.804 Y79.943 E12.11002
G1 X102.306 Y79.442 E12.19423
G1 X102.564 Y79.216 E12.23494
G1 X103.126 Y78.778 E12.31958
G1 X103.411 Y78.584 E12.36054
G1 X104.023 Y78.217 E12.44525
G1 X104.328 Y78.059 E12.48604
G1 X104.975 Y77.772 E12.57010
G1 X105.296 Y77.653 E12.61073
G1 X105.973 Y77.448 E12.69477
G1 X106.660 Y77.300 E12.77826
G1 X107.583 Y77.188 E12.88872
G1 X108.154 Y77.169 E12.95654
G1 X115.796 Y77.169 E13.86413
G1 X116.587 Y77.204 E13.95817
G1 X117.233 Y77.286 E14.03544
G1 X117.572 Y77.349 E14.07644
G1 X118.258 Y77.521 E14.16048
G1 X118.924 Y77.746 E14.24393
G1 X119.570 Y78.026 E14.32753
G1 X119.877 Y78.182 E14.36844
G1 X120.490 Y78.542 E14.45284
G1 X121.068 Y78.947 E14.53671
G1 X121.609 Y79.396 E14.62019
G1 X122.111 Y79.888 E14.70365
G1 X122.570 Y80.420 E14.78713
G1 X122.991 Y80.993 E14.87155
G1 X123.177 Y81.283 E14.91254
G1 X123.524 Y81.901 E14.99662
G1 X123.815 Y82.538 E15.07981
G1 X124.053 Y83.199 E15.16332
G1 X124.238 Y83.881 E15.24715
G1 X124.367 Y84.576 E15.33112
G1 X124.434 Y85.187 E15.40411
G1 X124.456 Y85.809 E15.47811
G1 X124.456 Y133.770 E21.17416
G1 X124.439 Y134.310 E21.23834
G1 X124.389 Y134.840 E21.30157
G1 X124.265 Y135.575 E21.39012
G1 X124.180 Y135.935 E21.43401
G1 X123.961 Y136.652 E21.52304
G1 X123.833 Y136.990 E21.56598
G1 X123.599 Y137.513 E21.63407
G1 X123.348 Y137.997 E21.69876
G1 X123.162 Y138.312 E21.74220
G1 X122.739 Y138.932 E21.83135
G1 X122.514 Y139.221 E21.87481
G1 X122.020 Y139.776 E21.96316
G1 X121.481 Y140.286 E22.05129
G1 X121.196 Y140.522 E22.09515
G1 X120.904 Y140.744 E22.13880
G1 X120.280 Y141.158 E22.22765
G1 X119.715 Y141.469 E22.30424
G1 X119.297 Y141.668 E22.35924
G1 X118.604 Y141.937 E22.44761
G1 X117.892 Y142.146 E22.53569
G1 X117.166 Y142.292 E22.62371
G1 X116.246 Y142.388 E22.73349
G1 X108.110 Y142.399 E23.69982
G1 X107.694 Y142.386 E23.74925
G1 X107.653 Y142.086 E23.78521
G1 X108.029 Y142.136 F11400.000
G1 E21.78521 F2400.00000
G92 E0
G1 X109.580 Y141.799 F11400.000
G1 X109.580 Y141.799 F11400.000
G1 X102.175 Y139.854 F11400.000
G1 E2.00000 F2400.00000
G1 X102.698 Y140.413 E2.09089 F1800.000
G1 X103.179 Y140.846 E2.16773
G1 X103.756 Y141.258 E2.25194
G1 X104.423 Y141.629 E2.34257
G1 X105.025 Y141.875 E2.41987
G1 X105.852 Y142.103 E2.52170
G1 X106.456 Y142.195 E2.59423
G1 X107.271 Y142.250 E2.69132
G1 X111.232 Y140.883 F11400.000
G1 X111.593 Y141.244 E2.75331 F1800.000
G1 X112.624 Y141.243 E2.87828
G1 X111.645 Y140.265 E3.04614
G1 X111.991 Y139.578 E3.13933
G1 X113.654 Y141.242 E3.42468
G1 X114.684 Y141.240 E3.54965
G1 X112.264 Y138.820 E3.96491
G1 X112.443 Y137.967 E4.07059
G1 X115.714 Y141.239 E4.63189
G1 X116.706 Y141.199 E4.75229
G1 X112.487 Y136.980 E5.47608
G1 X112.342 Y135.804 E5.61988
G1 X117.598 Y141.060 E6.52160
G1 X118.401 Y140.831 E6.62283
G1 X111.719 Y134.149 E7.76905
G1 X109.659 Y132.089 F11400.000
G1 X100.659 Y123.089 E9.31308 F1800.000
G1 X100.659 Y122.058 E9.43822
G1 X119.131 Y140.529 E12.60716
G1 X119.800 Y140.167 E12.69948
G1 X100.659 Y121.026 E15.98322
G1 X100.659 Y119.994 E16.10836
G1 X120.411 Y139.747 E19.49695
G1 X120.963 Y139.266 E19.58565
G1 X100.659 Y118.963 E23.06886
G1 X100.659 Y117.931 E23.19400
G1 X121.478 Y138.750 E26.76554
G1 X121.935 Y138.175 E26.85460
G1 X105.175 Y121.415 E29.72989
G1 X106.770 Y121.979 F11400.000
G1 X122.342 Y137.550 E32.40126 F1800.000
G1 X122.680 Y136.857 E32.49486
G1 X108.056 Y122.233 E35.00356
G1 X109.176 Y122.321 E35.13976
G1 X122.964 Y136.109 E37.50522
G1 X123.171 Y135.285 E37.60831
G1 X110.217 Y122.331 E39.83067
G1 X111.249 Y122.331 E39.95580
