; generated by Slic3r 1.2.9 on 2016-07-21 at 01:03:12

; external perimeters extrusion width = 0.40mm
; perimeters extrusion width = 0.67mm
; infill extrusion width = 0.67mm
; solid infill extrusion width = 0.67mm
; top infill extrusion width = 0.67mm
; support material extrusion width = 0.40mm

M107
M190 S50 ; set bed temperature
M104 S210 ; set temperature
G28 ; home all axes
G1 Z5 F5000 ; lift nozzle

M109 S210 ; wait for temperature to be reached
G21 ; set units to millimeters
G90 ; use absolute coordinates
M82 ; use absolute distances for extrusion
G92 E0
G1 Z0.400 F11400.000
G1 E-2.00000 F2400.00000
G92 E0
G1 X73.080 Y74.742 F11400.000
G1 E2.00000 F2400.00000
G1 X75.171 Y73.763 E2.27422 F1800.000
G1 X76.930 Y73.529 E2.48500
G1 X143.070 Y73.529 E10.34015
G1 X145.345 Y73.926 E10.61437 F1800.000
G1 X147.350 Y75.070 E10.88860
G1 X148.850 Y76.826 E11.16282
G1 X149.516 Y78.366 E11.36211
G1 X155.062 Y97.409 E13.71778
G1 X155.330 Y99.286 E13.94300
G1 X155.330 Y131.163 E17.72886
G1 X154.618 Y134.172 E18.09602
G1 X153.689 Y136.026 E18.34238
G1 X152.111 Y138.068 E18.64891
G1 X147.058 Y142.494 E19.44660
G1 X146.474 Y142.951 E19.53471
G1 X146.023 Y143.253 E19.59919
G1 X144.826 Y143.860 E19.75859
G1 X144.351 Y144.032 E19.81858
G1 X142.996 Y144.345 E19.98370
G1 X142.530 Y144.392 E20.03935
G1 X141.955 Y144.418 E20.10771
G1 X81.665 Y144.419 E27.26812
G1 X78.043 Y144.415 E27.69829
G1 X77.447 Y144.390 E27.76912
G1 X76.203 Y144.194 E27.91867
G1 X75.565 Y144.003 E27.99771
G1 X74.653 Y143.625 E28.11500
G1 X73.865 Y143.186 E28.22211
G1 X73.139 Y142.653 E28.32910
G1 X72.948 Y142.491 E28.35888
G1 X66.985 Y137.320 E29.29623
G1 X65.527 Y135.530 E29.57046
G1 X64.670 Y132.248 E29.97332
G1 X64.670 Y100.371 E33.75919
G1 X64.911 Y98.587 E33.97293
G1 X70.457 Y78.459 E36.45252
G1 X71.444 Y76.372 E36.72674
G1 X73.037 Y74.785 E36.99384
G1 E34.99384 F2400.00000
G92 E0
G1 X139.614 Y134.574 F11400.000
G1 E2.00000 F2400.00000
G1 X120.386 Y134.574 E4.28365 F1800.000
G1 X120.386 Y107.314 E7.52120
G1 X139.614 Y100.315 E9.95142
G1 X139.614 Y134.514 E14.01303
G1 X138.900 Y133.860 F11400.000
G1 X121.100 Y133.860 E16.12705 F1800.000
G1 X121.100 Y107.814 E19.22039
G1 X138.900 Y101.335 E21.47008
G1 X138.900 Y133.800 E25.32574
G1 X138.900 Y134.260 F11400.000
G1 X141.956 Y136.589 F11400.000
G1 X118.044 Y136.589 E28.16564 F1800.000
G1 X118.044 Y90.537 E33.63501
G1 X141.957 Y81.834 E36.65735
G1 X141.956 Y136.529 E43.15330
G1 X136.003 Y135.580 F11400.000
G1 X120.500 Y135.582 F11400.000
G1 X119.214 Y133.739 F11400.000
G1 X119.215 Y131.229 F11400.000
G1 X117.930 Y131.228 F11400.000
G1 X117.330 Y90.037 F11400.000
G1 X142.671 Y80.814 E46.35604 F1800.000
G1 X142.670 Y136.437 E52.96209
G1 X142.644 Y136.666 E52.98955
G1 X142.526 Y136.959 E53.02700
G1 X142.371 Y137.140 E53.05529
G1 X142.221 Y137.239 E53.07655
G1 X142.080 Y137.289 E53.09434
G1 X141.931 Y137.303 E53.11218
G1 X118.063 Y137.303 E55.94685
G1 X117.946 Y137.296 E55.96074
G1 X117.719 Y137.207 E55.98977
G1 X117.631 Y137.139 E56.00293
G1 X117.426 Y136.873 E56.04282
G1 X117.370 Y136.722 E56.06195
G1 X117.330 Y136.452 E56.09442
G1 X117.330 Y90.097 E61.59970
G1 X117.713 Y90.152 F11400.000
G1 X140.050 Y100.648 F11400.000
G1 X141.522 Y102.120 E61.84773 F1800.000
G1 X141.522 Y103.133 E61.96841
G1 X140.050 Y101.661 E62.21643
G1 X140.050 Y102.674 E62.33712
G1 X141.522 Y104.146 E62.58513
G1 X141.522 Y105.159 E62.70582
G1 X140.050 Y103.687 E62.95382
G1 X140.050 Y104.700 E63.07451
G1 X141.522 Y106.172 E63.32251
G1 X141.522 Y107.185 E63.44319
G1 X140.050 Y105.713 E63.69118
G1 X140.050 Y106.726 E63.81187
G1 X141.522 Y108.198 E64.05986
G1 X141.522 Y109.211 E64.18054
G1 X140.050 Y107.739 E64.42852
G1 X140.050 Y108.752 E64.54921
G1 X141.521 Y110.224 E64.79718
G1 X141.521 Y111.237 E64.91786
G1 X140.050 Y109.765 E65.16582
G1 X140.050 Y110.778 E65.28652
G1 X141.521 Y112.250 E65.53447
G1 X141.521 Y113.263 E65.65516
G1 X140.050 Y111.792 E65.90310
G1 X140.050 Y112.805 E66.02379
G1 X141.521 Y114.276 E66.27173
G1 X141.521 Y115.289 E66.39242
G1 X140.050 Y113.818 E66.64035
G1 X140.050 Y114.831 E66.76105
G1 X141.521 Y116.302 E67.00897
G1 X141.521 Y117.315 E67.12966
G1 X140.050 Y115.844 E67.37758
G1 X140.050 Y116.857 E67.49827
G1 X141.521 Y118.329 E67.74618
G1 X141.521 Y119.342 E67.86687
G1 X140.050 Y117.870 E68.11477
G1 X140.050 Y118.883 E68.23546
G1 X141.521 Y120.355 E68.48336
G1 X141.521 Y121.368 E68.60405
G1 X140.050 Y119.896 E68.85194
G1 X140.050 Y120.909 E68.97263
G1 X141.521 Y122.381 E69.22051
G1 X141.521 Y123.394 E69.34120
G1 X140.050 Y121.923 E69.58907
G1 X140.050 Y122.936 E69.70977
G1 X141.521 Y124.407 E69.95764
G1 X141.521 Y125.420 E70.07832
G1 X140.050 Y123.949 E70.32618
G1 X140.050 Y124.962 E70.44688
G1 X141.521 Y126.433 E70.69473
G1 X141.521 Y127.446 E70.81542
G1 X140.050 Y125.975 E71.06327
G1 X140.050 Y126.988 E71.18396
G1 X141.521 Y128.459 E71.43180
G1 X141.521 Y129.472 E71.55249
G1 X140.050 Y128.001 E71.80032
G1 X140.050 Y129.014 E71.92101
G1 X141.521 Y130.485 E72.16884
G1 X141.521 Y131.498 E72.28953
G1 X140.050 Y130.027 E72.53735
G1 X140.050 Y131.040 E72.65804
G1 X141.521 Y132.511 E72.90585
G1 X141.521 Y133.524 E73.02654
G1 X140.050 Y132.053 E73.27435
G1 X140.050 Y133.067 E73.39504
G1 X141.520 Y134.537 E73.64284
G1 X141.520 Y135.550 E73.76352
G1 X140.050 Y134.080 E74.01132
G1 X139.966 Y135.009 E74.12250
G1 X141.111 Y136.154 E74.31533
G1 X140.098 Y136.154 E74.43602
G1 X138.953 Y135.009 E74.62884
G1 X137.940 Y135.009 E74.74953
G1 X139.084 Y136.154 E74.94236
G1 X138.071 Y136.154 E75.06305
G1 X136.927 Y135.009 E75.25587
G1 X135.914 Y135.009 E75.37656
G1 X137.058 Y136.154 E75.56939
G1 X136.045 Y136.154 E75.69008
G1 X134.901 Y135.009 E75.88290
G1 X133.888 Y135.009 E76.00359
G1 X135.032 Y136.154 E76.19641
G1 X134.019 Y136.154 E76.31711
G1 X132.874 Y135.009 E76.50993
G1 X131.861 Y135.009 E76.63062
G1 X133.006 Y136.154 E76.82344
G1 X131.993 Y136.154 E76.94414
G1 X130.848 Y135.009 E77.13696
G1 X129.835 Y135.009 E77.25765
G1 X130.980 Y136.154 E77.45047
G1 X129.967 Y136.154 E77.57117
G1 X128.822 Y135.009 E77.76399
G1 X127.809 Y135.009 E77.88468
G1 X128.954 Y136.154 E78.07750
G1 X127.940 Y136.154 E78.19820
G1 X126.796 Y135.009 E78.39102
G1 X125.783 Y135.009 E78.51171
G1 X126.927 Y136.154 E78.70453
G1 X125.914 Y136.154 E78.82523
G1 X124.770 Y135.009 E79.01805
G1 X123.757 Y135.009 E79.13874
G1 X124.901 Y136.154 E79.33156
G1 X123.888 Y136.154 E79.45226
G1 X122.744 Y135.009 E79.64508
G1 X121.730 Y135.009 E79.76577
G1 X122.875 Y136.154 E79.95859
G1 X121.862 Y136.154 E80.07929
G1 X120.717 Y135.009 E80.27211
G1 X118.823 Y136.154 F11400.000
G1 X118.480 Y135.811 E80.32989 F1800.000
G1 X118.480 Y134.798 E80.45058
G1 X119.836 Y136.154 E80.67905
G1 X120.849 Y136.154 E80.79974
G1 X118.480 Y133.785 E81.19889
G1 X118.480 Y132.771 E81.31958
G1 X119.950 Y134.242 E81.56737
G1 X119.950 Y133.229 E81.68806
G1 X118.480 Y131.758 E81.93585
G1 X118.480 Y130.745 E82.05654
G1 X119.950 Y132.216 E82.30433
G1 X119.950 Y131.203 E82.42502
G1 X118.480 Y129.732 E82.67280
G1 X118.480 Y128.719 E82.79350
G1 X119.950 Y130.190 E83.04128
G1 X119.950 Y129.177 E83.16197
G1 X118.480 Y127.706 E83.40976
G1 X118.480 Y126.693 E83.53045
G1 X119.950 Y128.164 E83.77824
G1 X119.950 Y127.151 E83.89893
G1 X118.480 Y125.680 E84.14672
G1 X118.480 Y124.667 E84.26741
G1 X119.950 Y126.137 E84.51519
G1 X119.950 Y125.124 E84.63589
G1 X118.480 Y123.654 E84.88367
G1 X118.480 Y122.641 E85.00436
G1 X119.950 Y124.111 E85.25215
G1 X119.950 Y123.098 E85.37284
G1 X118.480 Y121.627 E85.62063
G1 X118.480 Y120.614 E85.74132
G1 X119.950 Y122.085 E85.98911
G1 X119.950 Y121.072 E86.10980
G1 X118.480 Y119.601 E86.35758
G1 X118.480 Y118.588 E86.47828
G1 X119.950 Y120.059 E86.72606
G1 X119.950 Y119.046 E86.84675
G1 X118.480 Y117.575 E87.09454
G1 X118.480 Y116.562 E87.21523
G1 X119.950 Y118.033 E87.46302
G1 X119.950 Y117.020 E87.58371
G1 X118.480 Y115.549 E87.83149
G1 X118.480 Y114.536 E87.95219
G1 X119.950 Y116.006 E88.19997
G1 X119.950 Y114.993 E88.32066
G1 X118.480 Y113.523 E88.56845
G1 X118.480 Y112.510 E88.68914
G1 X119.950 Y113.980 E88.93693
G1 X119.950 Y112.967 E89.05762
G1 X118.480 Y111.496 E89.30541
G1 X118.480 Y110.483 E89.42610
G1 X119.950 Y111.954 E89.67388
G1 X119.950 Y110.941 E89.79458
G1 X118.480 Y109.470 E90.04236
G1 X118.480 Y108.457 E90.16305
G1 X119.950 Y109.928 E90.41084
G1 X119.950 Y108.915 E90.53153
G1 X118.480 Y107.444 E90.77932
G1 X118.480 Y106.431 E90.90001
G1 X119.950 Y107.902 E91.14780
G1 X120.072 Y107.010 E91.25502
G1 X118.480 Y105.418 E91.52324
G1 X118.480 Y104.405 E91.64393
G1 X120.814 Y106.740 E92.03729
G1 X121.557 Y106.469 E92.13145
G1 X118.480 Y103.392 E92.64995
G1 X118.480 Y102.379 E92.77064
G1 X122.300 Y106.199 E93.41427
G1 X123.043 Y105.929 E93.50844
G1 X118.480 Y101.366 E94.27721
G1 X118.480 Y100.352 E94.39790
G1 X123.785 Y105.658 E95.29181
G1 X124.528 Y105.388 E95.38597
G1 X118.480 Y99.339 E96.40502
G1 X118.480 Y98.326 E96.52571
G1 X125.271 Y105.118 E97.66990
G1 X126.014 Y104.847 E97.76406
G1 X118.480 Y97.313 E99.03339
G1 X118.480 Y96.300 E99.15408
G1 X126.756 Y104.577 E100.54854
G1 X127.499 Y104.307 E100.64270
G1 X118.480 Y95.287 E102.16230
G1 X118.480 Y94.274 E102.28299
G1 X128.242 Y104.036 E103.92773
G1 X128.985 Y103.766 E104.02190
G1 X118.480 Y93.261 E105.79177
G1 X118.480 Y92.248 E105.91246
G1 X129.727 Y103.495 E107.80748
G1 X130.470 Y103.225 E107.90164
G1 X118.480 Y91.235 E109.92179
G1 X118.901 Y90.643 E110.00832
G1 X131.213 Y102.955 E112.08255
G1 X131.956 Y102.684 E112.17671
G1 X119.644 Y90.373 E114.25094
G1 X120.387 Y90.103 E114.34511
G1 X132.698 Y102.414 E116.41933
G1 X133.441 Y102.144 E116.51350
G1 X121.130 Y89.832 E118.58773
G1 X121.872 Y89.562 E118.68189
G1 X134.184 Y101.873 E120.75612
G1 X134.927 Y101.603 E120.85028
G1 X122.615 Y89.292 E122.92451
G1 X123.358 Y89.021 E123.01867
G1 X135.669 Y101.333 E125.09290
G1 X136.412 Y101.062 E125.18707
G1 X124.101 Y88.751 E127.26129
G1 X124.843 Y88.481 E127.35546
G1 X137.155 Y100.792 E129.42969
G1 X137.898 Y100.522 E129.52385
G1 X125.586 Y88.210 E131.59808
G1 X126.329 Y87.940 E131.69224
G1 X138.640 Y100.251 E133.76647
G1 X139.383 Y99.981 E133.86063
G1 X127.072 Y87.670 E135.93486
G1 X127.814 Y87.399 E136.02903
G1 X141.522 Y101.107 E138.33843
G1 X141.522 Y100.094 E138.45912
G1 X128.557 Y87.129 E140.64339
G1 X129.300 Y86.859 E140.73756
G1 X141.522 Y99.081 E142.79670
G1 X141.522 Y98.067 E142.91738
G1 X130.043 Y86.588 E144.85140
G1 X130.785 Y86.318 E144.94556
G1 X141.522 Y97.054 E146.75444
G1 X141.522 Y96.041 E146.87513
G1 X131.528 Y86.047 E148.55888
G1 X132.271 Y85.777 E148.65304
G1 X141.522 Y95.028 E150.21166
G1 X141.522 Y94.015 E150.33235
G1 X133.014 Y85.507 E151.76584
G1 X133.756 Y85.236 E151.86000
G1 X141.522 Y93.002 E153.16836
G1 X141.522 Y91.989 E153.28904
G1 X134.499 Y84.966 E154.47227
G1 X135.242 Y84.696 E154.56643
G1 X141.522 Y90.976 E155.62453
G1 X141.522 Y89.963 E155.74522
G1 X135.985 Y84.425 E156.67818
G1 X136.727 Y84.155 E156.77234
G1 X141.522 Y88.950 E157.58018
G1 X141.522 Y87.937 E157.70086
G1 X137.470 Y83.885 E158.38356
G1 X138.213 Y83.614 E158.47773
G1 X141.522 Y86.924 E159.03530
G1 X141.522 Y85.911 E159.15599
G1 X138.956 Y83.344 E159.58843
G1 X139.698 Y83.074 E159.68259
G1 X141.523 Y84.898 E159.98990
G1 X141.523 Y83.885 E160.11059
G1 X140.441 Y82.803 E160.29276
G1 X141.184 Y82.533 E160.38693
G1 X141.523 Y82.872 E160.44397
G1 E158.44397 F2400.00000
G92 E0
G1 X116.930 Y94.600 F11400.000
G1 X116.930 Y94.600 F11400.000
G1 X110.000 Y94.604 F11400.000
G1 X103.070 Y94.600 F11400.000
G1 X99.614 Y107.314 F11400.000
G1 E2.00000 F2400.00000
G1 X99.614 Y134.574 E5.23755 F1800.000
G1 X80.386 Y134.574 E7.52121
G1 X80.386 Y100.315 E11.58994
G1 X99.558 Y107.293 E14.01303
G1 X98.900 Y107.814 F11400.000
G1 X98.900 Y133.860 E17.10637 F1800.000
G1 X81.100 Y133.860 E19.22039
G1 X81.100 Y101.335 E23.08318
G1 X98.844 Y107.793 E25.32574
G1 X99.297 Y107.860 F11400.000
G1 X99.614 Y104.685 F11400.000
G1 X80.386 Y97.686 E27.75596 F1800.000
G1 X80.386 Y83.815 E29.40339
G1 X99.614 Y90.814 E31.83360
G1 X99.614 Y104.625 E33.47391
G1 X98.900 Y103.665 F11400.000
G1 X81.100 Y97.186 E35.72360 F1800.000
G1 X81.100 Y84.835 E37.19051
G1 X98.900 Y91.314 E39.44020
G1 X98.900 Y103.605 E40.89999
G1 X98.808 Y104.054 F11400.000
G1 X101.956 Y90.537 F11400.000
G1 X101.956 Y136.586 E46.36902 F1800.000
G1 X78.044 Y136.586 E49.20890
G1 X78.044 Y81.834 E55.71157
G1 X101.900 Y90.517 E58.72661
G1 X102.670 Y90.037 F11400.000
G1 X102.670 Y136.442 E64.23787 F1800.000
G1 X102.654 Y136.626 E64.25977
G1 X102.607 Y136.792 E64.28031
G1 X102.544 Y136.929 E64.29820
G1 X102.365 Y137.137 E64.33082
G1 X102.211 Y137.240 E64.35280
G1 X102.080 Y137.289 E64.36943
G1 X101.934 Y137.301 E64.38683
G1 X78.070 Y137.301 E67.22110
G1 X77.907 Y137.285 E67.24047
G1 X77.697 Y137.190 E67.26786
G1 X77.573 Y137.085 E67.28711
G1 X77.466 Y136.943 E67.30835
G1 X77.388 Y136.788 E67.32889
G1 X77.345 Y136.629 E67.34848
G1 X77.330 Y136.443 E67.37056
G1 X77.330 Y80.814 E73.97737
G1 X102.614 Y90.017 E77.17292
G1 X102.431 Y90.358 F11400.000
G1 X101.520 Y91.134 F11400.000
G1 X101.164 Y90.777 E77.23283 F1800.000
G1 X100.220 Y90.844 E77.34530
G1 X101.520 Y92.144 E77.56386
G1 X101.520 Y93.155 E77.68397
G1 X100.050 Y91.684 E77.93117
G1 X100.050 Y92.695 E78.05128
G1 X101.520 Y94.166 E78.29848
G1 X101.520 Y95.176 E78.41860
G1 X100.050 Y93.706 E78.66579
G1 X100.050 Y94.716 E78.78591
G1 X101.520 Y96.187 E79.03311
G1 X101.520 Y97.198 E79.15322
G1 X100.050 Y95.727 E79.40042
G1 X100.050 Y96.738 E79.52053
G1 X101.520 Y98.208 E79.76773
G1 X101.520 Y99.219 E79.88784
G1 X100.050 Y97.748 E80.13504
G1 X100.050 Y98.759 E80.25515
G1 X101.520 Y100.230 E80.50235
G1 X101.520 Y101.240 E80.62246
G1 X100.050 Y99.770 E80.86966
G1 X100.050 Y100.780 E80.98977
G1 X101.520 Y102.251 E81.23697
G1 X101.520 Y103.262 E81.35708
G1 X100.050 Y101.791 E81.60428
G1 X100.050 Y102.802 E81.72439
G1 X101.520 Y104.272 E81.97158
G1 X101.520 Y105.283 E82.09170
G1 X100.050 Y103.812 E82.33889
G1 X100.050 Y104.823 E82.45901
G1 X101.520 Y106.294 E82.70620
G1 X101.520 Y107.304 E82.82631
G1 X99.323 Y105.107 E83.19559
G1 X98.617 Y106.422 F11400.000
G1 X96.145 Y103.951 E83.61100 F1800.000
G1 X95.439 Y105.266 F11400.000
G1 X92.967 Y102.794 E84.02642 F1800.000
G1 X92.261 Y104.109 F11400.000
G1 X89.789 Y101.637 E84.44183 F1800.000
G1 X89.083 Y102.952 F11400.000
G1 X86.611 Y100.481 E84.85725 F1800.000
G1 X85.905 Y101.795 F11400.000
G1 X83.433 Y99.324 E85.27266 F1800.000
G1 X82.727 Y100.639 F11400.000
G1 X78.480 Y96.392 E85.98647 F1800.000
G1 X78.480 Y97.402 E86.10658
G1 X81.137 Y100.060 E86.55331
G1 X79.950 Y99.884 E86.69595
G1 X78.480 Y98.413 E86.94315
G1 X78.480 Y99.424 E87.06326
G1 X79.950 Y100.894 E87.31046
G1 X79.950 Y101.905 E87.43057
G1 X78.480 Y100.434 E87.67776
G1 X78.480 Y101.445 E87.79788
G1 X79.950 Y102.916 E88.04507
G1 X79.950 Y103.927 E88.16519
G1 X78.480 Y102.456 E88.41238
G1 X78.480 Y103.466 E88.53250
G1 X79.950 Y104.937 E88.77969
G1 X79.950 Y105.948 E88.89981
G1 X78.480 Y104.477 E89.14700
G1 X78.480 Y105.488 E89.26712
G1 X79.950 Y106.959 E89.51431
G1 X79.950 Y107.969 E89.63443
G1 X78.480 Y106.498 E89.88162
G1 X78.480 Y107.509 E90.00174
G1 X79.950 Y108.980 E90.24893
G1 X79.950 Y109.991 E90.36904
G1 X78.480 Y108.520 E90.61624
G1 X78.480 Y109.530 E90.73635
G1 X79.950 Y111.001 E90.98355
G1 X79.950 Y112.012 E91.10366
G1 X78.480 Y110.541 E91.35086
G1 X78.480 Y111.552 E91.47097
G1 X79.950 Y113.023 E91.71817
G1 X79.950 Y114.033 E91.83828
G1 X78.480 Y112.562 E92.08547
G1 X78.480 Y113.573 E92.20559
G1 X79.950 Y115.044 E92.45278
G1 X79.950 Y116.055 E92.57290
G1 X78.480 Y114.584 E92.82009
G1 X78.480 Y115.594 E92.94021
G1 X79.950 Y117.065 E93.18740
G1 X79.950 Y118.076 E93.30752
G1 X78.480 Y116.605 E93.55471
G1 X78.480 Y117.616 E93.67483
G1 X79.950 Y119.087 E93.92202
G1 X79.950 Y120.097 E94.04213
G1 X78.480 Y118.627 E94.28933
G1 X78.480 Y119.637 E94.40944
G1 X79.950 Y121.108 E94.65664
G1 X79.950 Y122.119 E94.77675
G1 X78.480 Y120.648 E95.02395
G1 X78.480 Y121.659 E95.14406
G1 X79.950 Y123.129 E95.39126
G1 X79.950 Y124.140 E95.51137
G1 X78.480 Y122.669 E95.75856
G1 X78.480 Y123.680 E95.87868
G1 X79.950 Y125.151 E96.12587
