; generated by Slic3r 1.2.9 on 2016-07-05 at 00:28:47

; external perimeters extrusion width = 0.40mm
; perimeters extrusion width = 0.67mm
; infill extrusion width = 0.67mm
; solid infill extrusion width = 0.67mm
; top infill extrusion width = 0.67mm
; support material extrusion width = 0.40mm

M107
M190 S50 ; set bed temperature
M104 S210 ; set temperature
G28 ; home all axes
G1 Z5 F5000 ; lift nozzle

M109 S210 ; wait for temperature to be reached
G21 ; set units to millimeters
G90 ; use absolute coordinates
M82 ; use absolute distances for extrusion
G92 E0
G1 Z0.400 F11400.000
G1 E-2.00000 F2400.00000
G92 E0
G1 X67.540 Y67.660 F11400.000
G1 E2.00000 F2400.00000
G1 X68.421 Y66.794 E2.14669 F1800.000
G1 X69.320 Y65.947 E2.29342
G1 X70.249 Y65.107 E2.44214
G1 X72.012 Y63.606 E2.71710
G1 X72.976 Y62.833 E2.86382
G1 X74.066 Y61.997 E3.02694
G1 X75.076 Y61.258 E3.17562
G1 X76.983 Y59.945 E3.45063
G1 X78.022 Y59.276 E3.59734
G1 X79.192 Y58.557 E3.76047
G1 X80.258 Y57.933 E3.90718
G1 X81.352 Y57.323 E4.05588
G1 X83.407 Y56.256 E4.33086
G1 X84.519 Y55.720 E4.47757
G1 X85.643 Y55.207 E4.62427
G1 X86.904 Y54.663 E4.78735
G1 X88.049 Y54.199 E4.93411
G1 X89.219 Y53.753 E5.08277
G1 X91.406 Y52.992 E5.35780
G1 X92.584 Y52.621 E5.50450
G1 X93.903 Y52.238 E5.66761
G1 X95.096 Y51.918 E5.81432
G1 X96.296 Y51.623 E5.96104
G1 X98.576 Y51.135 E6.23803
G1 X99.927 Y50.889 E6.40110
G1 X101.147 Y50.693 E6.54786
G1 X103.460 Y50.394 E6.82484
G1 X104.689 Y50.272 E6.97155
G1 X105.921 Y50.175 E7.11825
G1 X107.291 Y50.097 E7.28130
G1 X108.527 Y50.054 E7.42809
G1 X109.778 Y50.037 E7.57671
G1 X112.094 Y50.073 E7.85177 F1800.000
G1 X113.328 Y50.128 E7.99848
G1 X114.560 Y50.210 E8.14519
G1 X115.791 Y50.316 E8.29190
G1 X117.019 Y50.448 E8.43860
G1 X118.244 Y50.605 E8.58531
G1 X119.466 Y50.788 E8.73202
G1 X120.684 Y50.995 E8.87872
G1 X121.897 Y51.228 E9.02543
G1 X123.105 Y51.485 E9.17214
G1 X124.308 Y51.768 E9.31885
G1 X125.637 Y52.111 E9.48191
G1 X126.827 Y52.445 E9.62867
G1 X128.009 Y52.804 E9.77539
G1 X129.183 Y53.187 E9.92210
G1 X130.349 Y53.594 E10.06871
G1 X131.507 Y54.025 E10.21551
G1 X132.656 Y54.480 E10.36222
G1 X133.794 Y54.958 E10.50886
G1 X134.923 Y55.460 E10.65559
G1 X136.041 Y55.985 E10.80227
G1 X137.148 Y56.533 E10.94905
G1 X138.243 Y57.103 E11.09567
G1 X139.342 Y57.705 E11.24436
G1 X141.339 Y58.877 E11.51944
G1 X142.386 Y59.533 E11.66615
G1 X143.418 Y60.211 E11.81285
G1 X144.437 Y60.910 E11.95956
G1 X145.441 Y61.629 E12.10627
G1 X146.430 Y62.370 E12.25297
G1 X147.403 Y63.130 E12.39968
G1 X148.361 Y63.911 E12.54639
G1 X149.302 Y64.711 E12.69309
G1 X150.227 Y65.530 E12.83980
G1 X151.134 Y66.368 E12.98651
G1 X152.122 Y67.321 E13.14959
G1 X152.992 Y68.198 E13.29628
G1 X153.845 Y69.092 E13.44304
G1 X154.678 Y70.004 E13.58964
G1 X155.492 Y70.933 E13.73640
G1 X156.288 Y71.879 E13.88318
G1 X157.063 Y72.840 E14.02988
G1 X157.819 Y73.817 E14.17659
G1 X158.554 Y74.810 E14.32329
G1 X159.268 Y75.817 E14.46990
G1 X159.962 Y76.840 E14.61671
G1 X160.634 Y77.876 E14.76336
G1 X161.293 Y78.939 E14.91198
G1 X162.455 Y80.943 E15.18710
G1 X163.042 Y82.030 E15.33381
G1 X163.607 Y83.129 E15.48051
G1 X164.150 Y84.239 E15.62723
G1 X164.669 Y85.359 E15.77392
G1 X165.165 Y86.491 E15.92064
G1 X165.637 Y87.632 E16.06734
G1 X166.086 Y88.783 E16.21405
G1 X166.511 Y89.943 E16.36075
G1 X166.912 Y91.111 E16.50746
G1 X167.290 Y92.287 E16.65417
G1 X167.642 Y93.471 E16.80088
G1 X167.970 Y94.662 E16.94759
G1 X168.306 Y95.993 E17.11066
G1 X168.583 Y97.198 E17.25743
G1 X168.834 Y98.407 E17.40413
G1 X169.060 Y99.622 E17.55084
G1 X169.262 Y100.840 E17.69754
G1 X169.438 Y102.063 E17.84425
G1 X169.590 Y103.306 E17.99296
G1 X169.804 Y105.611 E18.26794
G1 X169.882 Y106.844 E18.41463
G1 X169.934 Y108.078 E18.56135
G1 X169.961 Y109.313 E18.70805
G1 X169.963 Y110.548 E18.85476
G1 X169.939 Y111.784 E19.00147
G1 X169.889 Y113.018 E19.14817
G1 X169.814 Y114.251 E19.29489
G1 X169.714 Y115.482 E19.44159
G1 X169.589 Y116.711 E19.58830
G1 X169.438 Y117.937 E19.73500
G1 X169.262 Y119.160 E19.88171
G1 X169.060 Y120.378 E20.02842
G1 X168.807 Y121.726 E20.19132
G1 X168.553 Y122.937 E20.33825
G1 X168.274 Y124.140 E20.48492
G1 X167.971 Y125.337 E20.63157
G1 X167.642 Y126.529 E20.77838
G1 X167.290 Y127.713 E20.92508
G1 X166.912 Y128.889 E21.07179
G1 X166.511 Y130.057 E21.21850
G1 X166.087 Y131.216 E21.36505
G1 X165.637 Y132.368 E21.51192
G1 X165.165 Y133.509 E21.65862
G1 X164.669 Y134.639 E21.80519
G1 X164.150 Y135.761 E21.95203
G1 X163.607 Y136.871 E22.09874
G1 X163.042 Y137.970 E22.24545
G1 X162.455 Y139.056 E22.39210
G1 X161.845 Y140.131 E22.53887
G1 X161.214 Y141.192 E22.68556
G1 X160.551 Y142.254 E22.83420
G1 X159.268 Y144.182 E23.10925
G1 X158.554 Y145.190 E23.25596
G1 X157.819 Y146.183 E23.40266
G1 X157.063 Y147.160 E23.54938
G1 X156.288 Y148.121 E23.69608
G1 X155.493 Y149.067 E23.84279
G1 X154.678 Y149.996 E23.98949
G1 X153.845 Y150.907 E24.13620
G1 X152.897 Y151.900 E24.29925
G1 X152.025 Y152.774 E24.44583
G1 X151.134 Y153.632 E24.59269
G1 X150.228 Y154.469 E24.73930
G1 X149.302 Y155.289 E24.88616
G1 X148.361 Y156.089 E25.03283
G1 X147.404 Y156.869 E25.17952
G1 X146.430 Y157.630 E25.32628
G1 X145.441 Y158.370 E25.47298
G1 X144.438 Y159.090 E25.61956
G1 X143.420 Y159.788 E25.76619
G1 X142.386 Y160.467 E25.91311
G1 X141.339 Y161.123 E26.05982
G1 X139.328 Y162.303 E26.33679
G1 X138.244 Y162.896 E26.48351
G1 X137.148 Y163.467 E26.63020
G1 X136.041 Y164.015 E26.77692
G1 X134.923 Y164.540 E26.92361
G1 X133.794 Y165.041 E27.07034
G1 X132.656 Y165.520 E27.21703
G1 X131.507 Y165.975 E27.36374
G1 X130.349 Y166.406 E27.51045
G1 X129.183 Y166.813 E27.65716
G1 X128.009 Y167.196 E27.80387
G1 X126.696 Y167.593 E27.96681
G1 X125.505 Y167.925 E28.11355
G1 X124.309 Y168.232 E28.26023
G1 X123.105 Y168.515 E28.40712
G1 X121.898 Y168.772 E28.55367
G1 X120.685 Y169.004 E28.70041
G1 X119.466 Y169.212 E28.84724
G1 X118.244 Y169.395 E28.99393
G1 X117.020 Y169.552 E29.14054
G1 X115.791 Y169.684 E29.28736
G1 X114.560 Y169.790 E29.43408
G1 X113.312 Y169.872 E29.58264
G1 X110.997 Y169.956 E29.85775
G1 X109.762 Y169.963 E30.00445
G1 X108.527 Y169.946 E30.15117
G1 X107.292 Y169.903 E30.29786
G1 X106.059 Y169.834 E30.44459
G1 X104.827 Y169.740 E30.59128
G1 X103.598 Y169.621 E30.73799
G1 X102.371 Y169.476 E30.88470
G1 X101.012 Y169.286 E31.04767
G1 X99.792 Y169.088 E31.19445
G1 X98.576 Y168.865 E31.34125
G1 X97.367 Y168.618 E31.48779
G1 X96.161 Y168.345 E31.63466
G1 X94.962 Y168.047 E31.78136
G1 X93.770 Y167.725 E31.92808
G1 X92.584 Y167.379 E32.07473
G1 X91.407 Y167.008 E32.22133
G1 X90.235 Y166.612 E32.36819
G1 X89.074 Y166.193 E32.51483
G1 X87.920 Y165.750 E32.66160
G1 X86.777 Y165.284 E32.80831
G1 X85.643 Y164.793 E32.95502
G1 X84.519 Y164.280 E33.10173
G1 X83.406 Y163.744 E33.24844
G1 X82.306 Y163.185 E33.39499
G1 X81.215 Y162.603 E33.54185
G1 X80.139 Y161.999 E33.68846
G1 X79.073 Y161.372 E33.83527
G1 X78.022 Y160.725 E33.98184
G1 X76.983 Y160.055 E34.12868
G1 X75.062 Y158.733 E34.40565
G1 X74.066 Y158.003 E34.55236
G1 X73.084 Y157.252 E34.69907
G1 X72.119 Y156.482 E34.84578
G1 X71.169 Y155.692 E34.99248
G1 X70.236 Y154.882 E35.13919
G1 X69.320 Y154.054 E35.28590
G1 X68.422 Y153.206 E35.43260
G1 X67.540 Y152.341 E35.57931
G1 X66.677 Y151.457 E35.72603
G1 X65.832 Y150.556 E35.87272
G1 X65.006 Y149.637 E36.01943
G1 X64.199 Y148.702 E36.16614
G1 X63.325 Y147.643 E36.32919
G1 X62.559 Y146.673 E36.47598
G1 X61.814 Y145.688 E36.62269
G1 X61.089 Y144.688 E36.76939
G1 X60.385 Y143.674 E36.91602
G1 X59.702 Y142.644 E37.06278
G1 X59.040 Y141.601 E37.20952
G1 X58.400 Y140.544 E37.35622
G1 X57.782 Y139.475 E37.50292
G1 X57.186 Y138.393 E37.64964
G1 X56.612 Y137.299 E37.79634
G1 X56.061 Y136.194 E37.94302
G1 X55.526 Y135.062 E38.09171
G1 X54.599 Y132.940 E38.36673
G1 X54.138 Y131.794 E38.51344
G1 X53.701 Y130.638 E38.66014
G1 X53.288 Y129.474 E38.80686
G1 X52.899 Y128.302 E38.95356
G1 X52.534 Y127.122 E39.10026
G1 X52.193 Y125.934 E39.24698
G1 X51.877 Y124.740 E39.39367
G1 X51.586 Y123.540 E39.54039
G1 X51.320 Y122.333 E39.68709
G1 X51.078 Y121.122 E39.83381
G1 X50.861 Y119.906 E39.98050
G1 X50.650 Y118.549 E40.14360
G1 X50.487 Y117.325 E40.29026
G1 X50.348 Y116.097 E40.43702
G1 X50.235 Y114.867 E40.58375
G1 X50.148 Y113.634 E40.73048
G1 X50.052 Y111.304 E41.00744
G1 X50.038 Y110.069 E41.15416
G1 X50.049 Y108.834 E41.30085
G1 X50.086 Y107.599 E41.44758
G1 X50.148 Y106.366 E41.59426
G1 X50.235 Y105.133 E41.74098
G1 X50.348 Y103.903 E41.88769
G1 X50.487 Y102.676 E42.03439
G1 X50.670 Y101.315 E42.19748
G1 X50.861 Y100.094 E42.34422
G1 X51.078 Y98.878 E42.49089
G1 X51.320 Y97.667 E42.63765
G1 X51.586 Y96.460 E42.78435
G1 X51.877 Y95.260 E42.93106
G1 X52.193 Y94.066 E43.07773
G1 X52.534 Y92.878 E43.22448
G1 X52.899 Y91.698 E43.37117
G1 X53.288 Y90.526 E43.51784
G1 X53.701 Y89.362 E43.66460
G1 X54.138 Y88.206 E43.81130
G1 X54.599 Y87.060 E43.95801
G1 X55.083 Y85.924 E44.10471
G1 X55.591 Y84.798 E44.25141
G1 X56.121 Y83.683 E44.39809
G1 X56.675 Y82.578 E44.54483
G1 X57.251 Y81.485 E44.69155
G1 X57.850 Y80.405 E44.83826
G1 X58.470 Y79.337 E44.98491
G1 X59.122 Y78.267 E45.13368
G1 X60.385 Y76.327 E45.40863
G1 X61.089 Y75.312 E45.55536
G1 X61.814 Y74.312 E45.70205
G1 X62.559 Y73.327 E45.84876
G1 X63.325 Y72.357 E45.99547
G1 X64.110 Y71.404 E46.14218
G1 X64.915 Y70.467 E46.28889
G1 X65.739 Y69.546 E46.43559
G1 X66.582 Y68.643 E46.58230
G1 X67.498 Y67.702 E46.73829
G1 E44.73829 F2400.00000
G92 E0
G1 X147.325 Y146.410 F11400.000
G1 E2.00000 F2400.00000
G1 X146.133 Y147.605 E2.20046 F1800.000
G1 X144.646 Y148.979 E2.44094
G1 X142.942 Y150.430 E2.70674
G1 X141.182 Y151.802 E2.97176
G1 X139.518 Y152.992 E3.21467
G1 X138.588 Y153.617 E3.34775
G1 X136.700 Y154.798 E3.61224
G1 X134.766 Y155.895 E3.87636
G1 X132.931 Y156.838 E4.12141
G1 X131.923 Y157.319 E4.25401
G1 X129.889 Y158.209 E4.51764
G1 X127.821 Y159.011 E4.78109
G1 X125.856 Y159.681 E5.02768
G1 X124.792 Y160.009 E5.15994
G1 X122.655 Y160.592 E5.42297
G1 X120.497 Y161.083 E5.68589
G1 X118.445 Y161.462 E5.93369
G1 X117.346 Y161.630 E6.06567
G1 X115.152 Y161.895 E6.32821
G1 X112.948 Y162.067 E6.59070
G1 X110.855 Y162.143 E6.83950
G1 X109.745 Y162.149 E6.97127
G1 X107.539 Y162.092 E7.23341
G1 X105.339 Y161.941 E7.49532
G1 X104.237 Y161.830 E7.62679
G1 X102.203 Y161.563 E7.87048
G1 X99.981 Y161.178 E8.13829
G1 X98.897 Y160.954 E8.26975
G1 X96.848 Y160.464 E8.51999
G1 X94.726 Y159.863 E8.78191
G1 X92.635 Y159.173 E9.04344
G1 X91.596 Y158.794 E9.17476
G1 X89.635 Y158.009 E9.42559
G1 X87.626 Y157.106 E9.68725
G1 X85.659 Y156.120 E9.94854
G1 X84.687 Y155.594 E10.07975
G1 X82.858 Y154.529 E10.33111
G1 X81.003 Y153.344 E10.59255
G1 X79.202 Y152.084 E10.85364
G1 X78.318 Y151.422 E10.98475
G1 X76.661 Y150.100 E11.23657
G1 X74.999 Y148.658 E11.49782
G1 X73.402 Y147.150 E11.75873
G1 X72.624 Y146.367 E11.88976
G1 X71.175 Y144.816 E12.14197
G1 X69.742 Y143.148 E12.40305
G1 X68.381 Y141.423 E12.66404
G1 X67.135 Y139.700 E12.91655
G1 X66.516 Y138.787 E13.04756
G1 X65.328 Y136.904 E13.31198
G1 X64.747 Y135.916 E13.44815
G1 X63.809 Y134.205 E13.67988
G1 X62.799 Y132.170 E13.94966
G1 X61.884 Y130.107 E14.21768
G1 X61.460 Y129.061 E14.35176
G1 X60.766 Y127.189 E14.58886
G1 X60.070 Y125.048 E14.85629
G1 X59.469 Y122.889 E15.12245
G1 X59.204 Y121.798 E15.25576
G1 X58.783 Y119.815 E15.49655
G1 X58.409 Y117.608 E15.76233
G1 X58.131 Y115.396 E16.02714
G1 X58.028 Y114.283 E16.15990
G1 X57.900 Y112.237 E16.40338
G1 X57.851 Y110.009 E16.66806
G1 X57.898 Y107.787 E16.93197
G1 X57.958 Y106.674 E17.06434
G1 X58.130 Y104.615 E17.30979
G1 X58.407 Y102.410 E17.57363
G1 X58.776 Y100.225 E17.83686
G1 X58.996 Y99.135 E17.96894
G1 X59.469 Y97.111 E18.21584
G1 X60.063 Y94.975 E18.47908
G1 X60.745 Y92.869 E18.74201
G1 X61.471 Y90.912 E18.98991
G1 X61.888 Y89.882 E19.12191
G1 X62.809 Y87.809 E19.39131
G1 X63.711 Y85.984 E19.63306
G1 X64.233 Y85.004 E19.76494
G1 X65.332 Y83.087 E20.02734
G1 X66.541 Y81.176 E20.29596
G1 X67.707 Y79.492 E20.53922
G1 X68.365 Y78.599 E20.67089
G1 X69.730 Y76.866 E20.93290
G1 X71.200 Y75.157 E21.20067
G1 X72.605 Y73.653 E21.44513
G1 X73.385 Y72.867 E21.57665
G1 X74.987 Y71.353 E21.83836
G1 X76.686 Y69.880 E22.10544
G1 X78.302 Y68.591 E22.35092
G1 X79.187 Y67.928 E22.48231
G1 X81.025 Y66.641 E22.74881
G1 X82.807 Y65.502 E23.00001
G1 X83.757 Y64.935 E23.13129
G1 X85.680 Y63.869 E23.39251
G1 X87.648 Y62.884 E23.65382
G1 X89.580 Y62.015 E23.90550
G1 X90.601 Y61.593 E24.03667
G1 X92.658 Y60.818 E24.29769
G1 X94.745 Y60.132 E24.55860
G1 X95.803 Y59.820 E24.68962
G1 X97.821 Y59.293 E24.93738
G1 X100.005 Y58.817 E25.20284
G1 X102.169 Y58.442 E25.46360
G1 X103.260 Y58.288 E25.59455
G1 X105.339 Y58.059 E25.84292
G1 X107.566 Y57.907 E26.10797
G1 X109.792 Y57.851 E26.37243 F1800.000
G1 X110.887 Y57.858 E26.50251
G1 X112.842 Y57.928 E26.73485
G1 X115.104 Y58.100 E27.00431
G1 X116.231 Y58.223 E27.13893
G1 X117.478 Y58.390 E27.28833
G1 X119.318 Y58.690 E27.50976
G1 X120.431 Y58.904 E27.64438
G1 X122.625 Y59.401 E27.91158
G1 X124.790 Y59.991 E28.17798
G1 X126.918 Y60.670 E28.44338
G1 X128.828 Y61.367 E28.68486
G1 X129.871 Y61.783 E28.81813
G1 X131.911 Y62.676 E29.08268
G1 X132.921 Y63.156 E29.21545
G1 X134.746 Y64.095 E29.45915
G1 X136.683 Y65.192 E29.72356
G1 X137.635 Y65.773 E29.85600
G1 X138.637 Y66.416 E29.99738
G1 X140.276 Y67.538 E30.23336
G1 X141.178 Y68.196 E30.36592
G1 X142.928 Y69.559 E30.62932
G1 X143.836 Y70.317 E30.76987
G1 X145.337 Y71.647 E31.00801
G1 X146.196 Y72.456 E31.14816
G1 X147.759 Y74.028 E31.41152
G1 X149.167 Y75.566 E31.65906
G1 X150.594 Y77.260 E31.92212
G1 X151.945 Y79.010 E32.18466
G1 X152.594 Y79.909 E32.31643
G1 X153.767 Y81.642 E32.56501
G1 X154.930 Y83.523 E32.82762
G1 X156.010 Y85.448 E33.08975
G1 X156.521 Y86.431 E33.22135
G1 X157.433 Y88.323 E33.47081
G1 X158.308 Y90.351 E33.73303
G1 X159.095 Y92.410 E33.99483
G1 X159.457 Y93.455 E34.12627
G1 X160.085 Y95.466 E34.37644
G1 X160.655 Y97.597 E34.63837
G1 X161.133 Y99.746 E34.89990
G1 X161.339 Y100.832 E35.03122
G1 X161.668 Y102.918 E35.28199
G1 X161.921 Y105.107 E35.54365
G1 X162.082 Y107.303 E35.80517
G1 X162.148 Y109.417 E36.05641
G1 X162.149 Y110.523 E36.18769
G1 X162.078 Y112.759 E36.45345
G1 X162.008 Y113.861 E36.58456
G1 X161.813 Y115.931 E36.83149
G1 X161.511 Y118.150 E37.09745
G1 X161.121 Y120.314 E37.35860
G1 X160.668 Y122.348 E37.60613
G1 X160.395 Y123.418 E37.73725
G1 X159.786 Y125.529 E37.99822
G1 X159.075 Y127.647 E38.26351
G1 X158.328 Y129.598 E38.51168
G1 X157.903 Y130.617 E38.64272
G1 X156.993 Y132.615 E38.90353
G1 X155.983 Y134.602 E39.16823
G1 X155.410 Y135.643 E39.30936
G1 X154.433 Y137.302 E39.53798
G1 X153.202 Y139.211 E39.80781
G1 X151.898 Y141.053 E40.07583
G1 X151.216 Y141.952 E40.20991
G1 X149.965 Y143.504 E40.44656
G1 X148.482 Y145.198 E40.71402
G1 X147.366 Y146.366 E40.90587
G1 X147.431 Y146.795 F11400.000
G1 X147.827 Y146.909 F11400.000
G1 X147.084 Y147.657 E41.03105 F1800.000
G1 X145.487 Y149.165 E41.29189
G1 X143.855 Y150.584 E41.54872
G1 X143.015 Y151.270 E41.67754
G1 X141.286 Y152.596 E41.93637
G1 X139.490 Y153.858 E42.19696
G1 X137.672 Y155.027 E42.45380
G1 X136.742 Y155.586 E42.58261
G1 X134.838 Y156.650 E42.84169
G1 X133.875 Y157.150 E42.97050
G1 X131.911 Y158.095 E43.22934
G1 X129.910 Y158.957 E43.48817
G1 X128.901 Y159.355 E43.61699
G1 X126.850 Y160.092 E43.87582
G1 X124.772 Y160.744 E44.13441
G1 X122.670 Y161.309 E44.39300
G1 X120.529 Y161.791 E44.65359
G1 X118.401 Y162.178 E44.91043
G1 X117.329 Y162.340 E45.03924
G1 X115.165 Y162.597 E45.29807
G1 X112.977 Y162.766 E45.55866
G1 X110.816 Y162.844 E45.81550
G1 X109.731 Y162.849 E45.94431
G1 X107.536 Y162.792 E46.20515
G1 X105.378 Y162.647 E46.46198
G1 X104.299 Y162.541 E46.59080
G1 X102.137 Y162.262 E46.84963
G1 X99.989 Y161.893 E47.10846
G1 X98.910 Y161.673 E47.23928
G1 X96.805 Y161.176 E47.49611
G1 X94.709 Y160.589 E47.75471
G1 X92.636 Y159.916 E48.01354
G1 X91.615 Y159.549 E48.14236
G1 X89.588 Y158.748 E48.40119
G1 X87.596 Y157.865 E48.66003
G1 X86.618 Y157.396 E48.78884
G1 X84.684 Y156.391 E49.04767
G1 X82.795 Y155.309 E49.30627
G1 X80.951 Y154.150 E49.56485
G1 X79.156 Y152.915 E49.82369
G1 X78.282 Y152.273 E49.95250
