; generated by Slic3r 1.2.9 on 2016-11-20 at 22:04:08

; external perimeters extrusion width = 0.40mm
; perimeters extrusion width = 0.68mm
; infill extrusion width = 1.28mm
; solid infill extrusion width = 0.68mm
; top infill extrusion width = 0.68mm

M107
M190 S30 ; set bed temperature
M104 S190 ; set temperature
G28 ; home all axes
G1 Z5 F5000 ; lift nozzle

M109 S190 ; wait for temperature to be reached
G21 ; set units to millimeters
G90 ; use absolute coordinates
M82 ; use absolute distances for extrusion
G92 E0
G1 Z0.400 F11400.000
G1 E-2.00000 F2400.00000
G92 E0
G1 X98.492 Y97.274 F11400.000
G1 E2.00000 F2400.00000
G1 X99.293 Y96.540 E2.12902 F1800.000
G1 X99.608 Y96.296 E2.17640
G1 X100.557 Y95.680 E2.31076
G1 X104.514 Y93.806 E2.83080
G1 X104.976 Y93.609 E2.89042
G1 X105.705 Y93.345 E2.98249
G1 X106.533 Y93.139 E3.08380
G1 X107.897 Y92.999 E3.24673
G1 X112.103 Y92.999 E3.74614
G1 X113.462 Y93.138 E3.90847
G1 X114.296 Y93.345 E4.01046 F1800.000
G1 X115.024 Y93.609 E4.10244
G1 X115.486 Y93.806 E4.16207
G1 X119.431 Y95.673 E4.68051
G1 X120.392 Y96.296 E4.81647
G1 X120.707 Y96.540 E4.86384
G1 X121.509 Y97.275 E4.99299
G1 X121.775 Y97.578 E5.04086
G1 X124.638 Y101.059 E5.57612
G1 X125.241 Y102.031 E5.71210
G1 X125.422 Y102.387 E5.75948
G1 X125.834 Y103.392 E5.88848
G1 X127.111 Y107.594 E6.41005
G1 X127.322 Y108.518 E6.52256
G1 X127.415 Y109.133 E6.59648
G1 X127.392 Y111.029 E6.82168
G1 X127.286 Y111.689 E6.90108
G1 X127.110 Y112.409 E6.98906
G1 X125.834 Y116.608 E7.51029
G1 X125.422 Y117.613 E7.63931
G1 X125.241 Y117.969 E7.68668
G1 X124.638 Y118.941 E7.82267
G1 X121.518 Y122.715 E8.40419
G1 X120.707 Y123.460 E8.53492
G1 X120.392 Y123.704 E8.58229
G1 X119.443 Y124.320 E8.71661
G1 X119.121 Y124.483 E8.75949
G1 X115.486 Y126.194 E9.23671
G1 X115.024 Y126.391 E9.29634
G1 X114.294 Y126.656 E9.38851
G1 X113.467 Y126.861 E9.48973
G1 X112.103 Y127.002 E9.65264
G1 X107.897 Y127.002 E10.15205
G1 X106.533 Y126.861 E10.31496
G1 X106.261 Y126.803 E10.34796
G1 X105.704 Y126.655 E10.41640
G1 X105.303 Y126.516 E10.46689
G1 X104.514 Y126.194 E10.56800
G1 X100.569 Y124.327 E11.08644
G1 X99.608 Y123.704 E11.22240
G1 X99.293 Y123.460 E11.26978
G1 X98.492 Y122.726 E11.39880
G1 X98.225 Y122.422 E11.44680
G1 X95.363 Y118.942 E11.98200
G1 X94.759 Y117.969 E12.11803
G1 X94.578 Y117.613 E12.16541
G1 X94.166 Y116.608 E12.29445
G1 X92.889 Y112.406 E12.81598
G1 X92.678 Y111.482 E12.92850
G1 X92.585 Y110.867 E13.00241
G1 X92.608 Y108.971 E13.22761
G1 X92.711 Y108.326 E13.30519
G1 X92.890 Y107.591 E13.39499
G1 X94.166 Y103.393 E13.91612
G1 X94.578 Y102.387 E14.04525
G1 X94.759 Y102.031 E14.09262
G1 X95.354 Y101.070 E14.22697
G1 X95.575 Y100.787 E14.26962
G1 X98.452 Y97.319 E14.80473
G1 E12.80473 F2400.00000
G92 E0
G1 X115.009 Y116.450 F11400.000
G1 E2.00000 F2400.00000
G1 X114.092 Y116.422 E2.10894 F1800.000
G1 X113.164 Y116.688 E2.22360
G1 X112.360 Y117.231 E2.33881
G1 X111.783 Y117.969 E2.45009
G1 X110.947 Y117.547 E2.56137
G1 X109.988 Y117.399 E2.67657
G1 X109.035 Y117.554 E2.79124
G1 X108.217 Y117.970 E2.90017
G1 X107.640 Y117.231 E3.01153
G1 X106.836 Y116.688 E3.12675
G1 X105.908 Y116.422 E3.24141
G1 X104.991 Y116.450 E3.35034
G1 X104.783 Y115.535 E3.46170
G1 X104.287 Y114.702 E3.57691
G1 X103.561 Y114.066 E3.69158
G1 X102.724 Y113.702 E3.80000
G1 X102.925 Y112.742 E3.91645
G1 X102.813 Y111.759 E4.03395
G1 X102.399 Y110.866 E4.15088
G1 X101.593 Y110.000 E4.29133
G1 X102.399 Y109.134 E4.43178
G1 X102.813 Y108.241 E4.54870
G1 X102.925 Y107.258 E4.66620
G1 X102.724 Y106.298 E4.78266
G1 X103.561 Y105.934 E4.89108
G1 X104.287 Y105.298 E5.00574
G1 X104.783 Y104.465 E5.12095
G1 X104.991 Y103.550 E5.23231
G1 X105.908 Y103.578 E5.34125
G1 X106.836 Y103.312 E5.45591
G1 X107.640 Y102.769 E5.57112
G1 X108.217 Y102.031 E5.68240
G1 X109.053 Y102.453 E5.79368
G1 X110.012 Y102.601 E5.90889
G1 X110.965 Y102.446 E6.02356
G1 X111.783 Y102.030 E6.13249
G1 X112.360 Y102.769 E6.24385
G1 X113.164 Y103.312 E6.35906
G1 X114.092 Y103.578 E6.47372
G1 X115.009 Y103.550 E6.58266
G1 X115.217 Y104.465 E6.69402
G1 X115.713 Y105.298 E6.80923
G1 X116.439 Y105.934 E6.92389
G1 X117.276 Y106.298 E7.03231
G1 X117.075 Y107.258 E7.14877
G1 X117.187 Y108.241 E7.26627
G1 X117.601 Y109.134 E7.38319
G1 X118.407 Y110.000 E7.52364
G1 X117.601 Y110.866 E7.66409
G1 X117.187 Y111.759 E7.78102
G1 X117.075 Y112.742 E7.89852
G1 X117.276 Y113.702 E8.01497
G1 X116.439 Y114.066 E8.12339
G1 X115.713 Y114.702 E8.23806
G1 X115.217 Y115.535 E8.35327
G1 X115.022 Y116.391 E8.45750
G1 X115.808 Y117.476 F11400.000
G1 X114.904 Y117.161 E8.57122 F1800.000
G1 X114.182 Y117.140 E8.65697
G1 X113.470 Y117.344 E8.74498
G1 X112.853 Y117.760 E8.83332
G1 X112.393 Y118.349 E8.92213
G1 X112.073 Y119.245 E9.03514
G1 X111.389 Y118.570 E9.14935
G1 X110.726 Y118.236 E9.23750
G1 X109.991 Y118.122 E9.32584
G1 X109.259 Y118.241 E9.41385
G1 X108.616 Y118.568 E9.49955
G1 X107.926 Y119.243 E9.61420
G1 X107.607 Y118.349 E9.72692
G1 X107.147 Y117.760 E9.81573
G1 X106.530 Y117.344 E9.90407
G1 X105.818 Y117.140 E9.99208
G1 X105.096 Y117.161 E10.07783
G1 X104.192 Y117.476 E10.19155
G1 X104.276 Y116.528 E10.30454
G1 X104.112 Y115.804 E10.39274
G1 X103.731 Y115.165 E10.48109
G1 X103.174 Y114.676 E10.56910
G1 X102.512 Y114.388 E10.65484
G1 X101.560 Y114.287 E10.76857
G1 X102.047 Y113.451 E10.88351
G1 X102.202 Y112.708 E10.97362
G1 X102.116 Y111.955 E11.06371
G1 X101.798 Y111.269 E11.15345
G1 X101.293 Y110.726 E11.24164
G1 X100.523 Y110.304 E11.34588
G1 X100.440 Y110.219 E11.36003
G1 X100.388 Y110.114 E11.37389
G1 X100.372 Y110.010 E11.38646
G1 X100.391 Y109.880 E11.40201
G1 X100.440 Y109.781 E11.41519
G1 X100.524 Y109.695 E11.42944
G1 X101.292 Y109.275 E11.53347
G1 X101.798 Y108.731 E11.62169
G1 X102.116 Y108.045 E11.71143
G1 X102.202 Y107.292 E11.80153
G1 X102.047 Y106.549 E11.89164
G1 X101.560 Y105.713 E12.00658
G1 X102.512 Y105.612 E12.12030
G1 X103.174 Y105.324 E12.20605
G1 X103.731 Y104.835 E12.29406
G1 X104.112 Y104.196 E12.38240
G1 X104.276 Y103.472 E12.47060
G1 X104.192 Y102.524 E12.58360
G1 X105.096 Y102.839 E12.69731
G1 X105.818 Y102.860 E12.78306
G1 X106.530 Y102.656 E12.87107
G1 X107.147 Y102.240 E12.95941
G1 X107.607 Y101.651 E13.04823
G1 X107.927 Y100.755 E13.16123
G1 X108.611 Y101.430 E13.27544
G1 X109.274 Y101.764 E13.36359
G1 X110.009 Y101.878 E13.45194
G1 X110.741 Y101.759 E13.53995
G1 X111.384 Y101.432 E13.62564
G1 X112.074 Y100.757 E13.74029
G1 X112.393 Y101.651 E13.85301
G1 X112.853 Y102.240 E13.94182
G1 X113.470 Y102.656 E14.03017
G1 X114.182 Y102.860 E14.11818
G1 X114.904 Y102.839 E14.20392
G1 X115.808 Y102.524 E14.31764
G1 X115.724 Y103.472 E14.43063
G1 X115.888 Y104.196 E14.51883
G1 X116.269 Y104.835 E14.60718
G1 X116.826 Y105.324 E14.69519
G1 X117.488 Y105.612 E14.78093
G1 X118.440 Y105.713 E14.89466
G1 X117.954 Y106.549 E15.00960
G1 X117.798 Y107.292 E15.09971
G1 X117.884 Y108.045 E15.18980
G1 X118.202 Y108.731 E15.27954
G1 X118.707 Y109.275 E15.36773
G1 X119.478 Y109.696 E15.47197
G1 X119.560 Y109.781 E15.48612
G1 X119.612 Y109.886 E15.49998
G1 X119.628 Y109.990 E15.51255
G1 X119.609 Y110.120 E15.52810
G1 X119.560 Y110.219 E15.54128
G1 X119.476 Y110.305 E15.55553
G1 X118.708 Y110.725 E15.65956
G1 X118.202 Y111.269 E15.74778
G1 X117.884 Y111.955 E15.83753
G1 X117.798 Y112.708 E15.92762
G1 X117.954 Y113.451 E16.01773
G1 X118.440 Y114.287 E16.13267
G1 X117.488 Y114.388 E16.24639
G1 X116.826 Y114.676 E16.33214
G1 X116.269 Y115.165 E16.42015
G1 X115.888 Y115.804 E16.50849
G1 X115.724 Y116.528 E16.59669
G1 X115.803 Y117.416 E16.70256
G1 X107.815 Y119.860 F11400.000
G1 X107.571 Y119.767 E16.73361 F1800.000
G1 X107.375 Y119.617 E16.76291
G1 X107.230 Y119.417 E16.79223
G1 X106.973 Y118.698 E16.88298
G1 X106.654 Y118.289 E16.94463
G1 X106.225 Y117.999 E17.00611
G1 X105.728 Y117.857 E17.06747
G1 X105.227 Y117.872 E17.12698
G1 X104.462 Y118.138 E17.22321
G1 X104.184 Y118.137 E17.25616
G1 X103.921 Y118.046 E17.28924
G1 X103.702 Y117.874 E17.32233
G1 X103.551 Y117.640 E17.35541
G1 X103.484 Y117.369 E17.38852
G1 X103.555 Y116.576 E17.48303
G1 X103.440 Y116.072 E17.54446
G1 X103.176 Y115.627 E17.60593
G1 X102.787 Y115.287 E17.66729
G1 X102.328 Y115.087 E17.72680
G1 X101.522 Y115.002 E17.82303
G1 X101.270 Y114.882 E17.85611
G1 X101.079 Y114.697 E17.88773
G1 X100.947 Y114.438 E17.92228
G1 X100.910 Y114.163 E17.95523
G1 X100.965 Y113.889 E17.98839
G1 X101.371 Y113.192 E18.08425
G1 X101.480 Y112.675 E18.14695
G1 X101.420 Y112.150 E18.20963
G1 X101.198 Y111.672 E18.27220
G1 X100.848 Y111.297 E18.33317
G1 X100.084 Y110.879 E18.43659
G1 X99.849 Y110.635 E18.47681
G1 X99.699 Y110.333 E18.51694
G1 X99.649 Y110.013 E18.55540
G1 X99.701 Y109.664 E18.59727
G1 X99.850 Y109.363 E18.63715
G1 X100.086 Y109.120 E18.67741
G1 X100.848 Y108.703 E18.78055
G1 X101.198 Y108.328 E18.84153
G1 X101.420 Y107.850 E18.90409
G1 X101.480 Y107.325 E18.96678
G1 X101.371 Y106.808 E19.02948
G1 X100.965 Y106.111 E19.12534
G1 X100.910 Y105.837 E19.15850
G1 X100.947 Y105.561 E19.19158
G1 X101.072 Y105.312 E19.22466
G1 X101.271 Y105.117 E19.25775
G1 X101.522 Y104.998 E19.29070
G1 X102.328 Y104.913 E19.38693
G1 X102.787 Y104.713 E19.44644
G1 X103.176 Y104.373 E19.50780
G1 X103.440 Y103.928 E19.56927
G1 X103.555 Y103.424 E19.63070
G1 X103.484 Y102.631 E19.72521
G1 X103.551 Y102.360 E19.75832
G1 X103.702 Y102.126 E19.79140
G1 X103.921 Y101.954 E19.82449
G1 X104.184 Y101.863 E19.85757
G1 X104.462 Y101.862 E19.89052
G1 X105.227 Y102.128 E19.98676
G1 X105.728 Y102.143 E20.04626
G1 X106.225 Y102.001 E20.10762
G1 X106.654 Y101.711 E20.16910
G1 X106.973 Y101.302 E20.23075
G1 X107.230 Y100.583 E20.32150
G1 X107.375 Y100.383 E20.35082
G1 X107.571 Y100.233 E20.38009
G1 X107.821 Y100.138 E20.41188
G1 X107.912 Y100.119 E20.42297
G1 X108.206 Y100.159 E20.45821
G1 X108.465 Y100.283 E20.49224
G1 X109.033 Y100.843 E20.58702
G1 X109.495 Y101.076 E20.64843
G1 X110.006 Y101.155 E20.70991
G1 X110.516 Y101.072 E20.77127
G1 X110.963 Y100.845 E20.83076
G1 X111.545 Y100.276 E20.92742
G1 X111.793 Y100.160 E20.95993
G1 X112.088 Y100.119 E20.99534
G1 X112.429 Y100.233 E21.03807
G1 X112.625 Y100.383 E21.06737
G1 X112.770 Y100.583 E21.09669
G1 X113.027 Y101.302 E21.18744
G1 X113.346 Y101.711 E21.24909
G1 X113.775 Y102.001 E21.31057
G1 X114.272 Y102.143 E21.37193
G1 X114.773 Y102.128 E21.43143
G1 X115.538 Y101.862 E21.52767
G1 X115.816 Y101.863 E21.56062
G1 X116.079 Y101.954 E21.59370
G1 X116.298 Y102.126 E21.62678
G1 X116.449 Y102.360 E21.65987
G1 X116.516 Y102.631 E21.69298
G1 X116.445 Y103.424 E21.78748
G1 X116.560 Y103.928 E21.84891
G1 X116.824 Y104.373 E21.91039
G1 X117.213 Y104.713 E21.97175
G1 X117.672 Y104.913 E22.03126
G1 X118.478 Y104.998 E22.12749
G1 X118.730 Y105.118 E22.16057
G1 X118.921 Y105.303 E22.19218
G1 X119.053 Y105.562 E22.22674
G1 X119.090 Y105.837 E22.25969
G1 X119.035 Y106.111 E22.29284
G1 X118.629 Y106.808 E22.38871
G1 X118.520 Y107.325 E22.45140
G1 X118.580 Y107.850 E22.51409
G1 X118.802 Y108.328 E22.57665
G1 X119.152 Y108.703 E22.63762
G1 X119.916 Y109.121 E22.74105
G1 X120.151 Y109.365 E22.78127
G1 X120.301 Y109.667 E22.82139
G1 X120.351 Y109.987 E22.85985
G1 X120.299 Y110.336 E22.90173
G1 X120.150 Y110.637 E22.94161
G1 X119.914 Y110.880 E22.98186
G1 X119.152 Y111.297 E23.08501
G1 X118.802 Y111.672 E23.14599
G1 X118.580 Y112.150 E23.20855
G1 X118.520 Y112.675 E23.27124
G1 X118.629 Y113.192 E23.33393
G1 X119.035 Y113.889 E23.42980
G1 X119.090 Y114.163 E23.46295
G1 X119.053 Y114.439 E23.49604
G1 X118.928 Y114.688 E23.52912
G1 X118.729 Y114.883 E23.56221
G1 X118.478 Y115.002 E23.59515
G1 X117.672 Y115.087 E23.69139
G1 X117.213 Y115.287 E23.75089
G1 X116.824 Y115.627 E23.81225
G1 X116.560 Y116.072 E23.87373
G1 X116.445 Y116.576 E23.93516
G1 X116.516 Y117.369 E24.02967
G1 X116.449 Y117.640 E24.06277
G1 X116.298 Y117.874 E24.09586
G1 X116.079 Y118.046 E24.12894
G1 X115.816 Y118.137 E24.16203
G1 X115.538 Y118.138 E24.19498
G1 X114.773 Y117.872 E24.29121
G1 X114.272 Y117.857 E24.35072
G1 X113.775 Y117.999 E24.41208
G1 X113.346 Y118.289 E24.47355
G1 X113.027 Y118.698 E24.53520
G1 X112.770 Y119.417 E24.62596
G1 X112.625 Y119.617 E24.65528
G1 X112.429 Y119.767 E24.68454
G1 X112.179 Y119.862 E24.71634
G1 X112.088 Y119.881 E24.72743
G1 X111.794 Y119.841 E24.76267
G1 X111.535 Y119.717 E24.79670
G1 X110.967 Y119.157 E24.89148
G1 X110.505 Y118.924 E24.95289
G1 X109.994 Y118.845 E25.01437
G1 X109.484 Y118.928 E25.07572
G1 X109.037 Y119.155 E25.13521
G1 X108.455 Y119.724 E25.23188
G1 X108.207 Y119.841 E25.26441
G1 X107.874 Y119.873 E25.30419
G1 X107.739 Y119.610 F11400.000
G1 X105.294 Y115.650 F11400.000
G1 X105.643 Y115.999 E25.36429 F1800.000
G1 X106.877 Y116.198 E25.51654
G1 X103.355 Y112.676 E26.12313
G1 X103.243 Y111.528 E26.26361
G1 X108.905 Y117.190 E27.23880
G1 X109.767 Y117.016 E27.34589
G1 X102.415 Y109.664 E28.61211
G1 X102.854 Y109.068 E28.70230
G1 X110.853 Y117.067 E30.07986
G1 X111.959 Y117.137 E30.21473
G1 X103.182 Y108.360 E31.72616
G1 X103.323 Y107.466 E31.83648
G1 X112.524 Y116.666 E33.42101
G1 X113.166 Y116.272 E33.51271
G1 X103.344 Y106.451 E35.20413
G1 X103.986 Y106.058 E35.29584
G1 X113.970 Y116.042 E37.01529
G1 X114.745 Y115.781 E37.11483
G1 X104.538 Y105.574 E38.87262
G1 X104.941 Y104.941 E38.96397
G1 X115.059 Y115.059 E40.70648
G1 X115.462 Y114.426 E40.79783
G1 X105.255 Y104.219 E42.55562
G1 X106.030 Y103.958 E42.65516
G1 X116.014 Y113.942 E44.37461
G1 X116.656 Y113.549 E44.46632
G1 X106.834 Y103.728 E46.15774
G1 X107.476 Y103.334 E46.24944
G1 X116.677 Y112.534 E47.83397
G1 X116.818 Y111.640 E47.94429
G1 X108.041 Y102.863 E49.45572
G1 X109.147 Y102.933 E49.59059
G1 X117.146 Y110.932 E50.96815
G1 X117.585 Y110.336 E51.05834
G1 X110.233 Y102.984 E52.32457
G1 X111.095 Y102.810 E52.43165
G1 X116.757 Y108.472 E53.40684
G1 X116.645 Y107.324 E53.54732
G1 X113.123 Y103.802 E54.15392
G1 X114.357 Y104.001 E54.30617
G1 X114.706 Y104.350 E54.36626
G1 Z0.500 F11400.000
G1 X108.036 Y118.768 F11400.000
G1 X107.837 Y118.214 E54.38239 F3600.000
G1 X107.320 Y117.558 E54.40525
G1 X106.631 Y117.097 E54.42795
G1 X105.840 Y116.875 E54.45043
G1 X105.061 Y116.899 E54.47178
G1 X104.489 Y117.094 E54.48833
G1 X104.542 Y116.503 E54.50457
G1 X104.355 Y115.695 E54.52729
G1 X103.927 Y114.985 E54.54998
G1 X103.307 Y114.447 E54.57247
G1 X102.592 Y114.136 E54.59381
G1 X101.990 Y114.069 E54.61040
G1 X102.299 Y113.538 E54.62722
G1 X102.469 Y112.707 E54.65043
G1 X102.368 Y111.869 E54.67355
G1 X102.012 Y111.112 E54.69646
G1 X101.464 Y110.523 E54.71848
G1 X100.513 Y110.000 E54.74820
G1 X101.464 Y109.478 E54.77789
G1 X102.012 Y108.888 E54.79993
G1 X102.368 Y108.131 E54.82283
G1 X102.469 Y107.293 E54.84595
G1 X102.299 Y106.462 E54.86916
G1 X101.990 Y105.931 E54.88599
G1 X102.592 Y105.864 E54.90257
G1 X103.307 Y105.553 E54.92392
G1 X103.927 Y105.015 E54.94640
G1 X104.355 Y104.305 E54.96910
G1 X104.542 Y103.497 E54.99181
G1 X104.489 Y102.906 E55.00805
G1 X105.061 Y103.101 E55.02461
G1 X105.840 Y103.125 E55.04595
G1 X106.631 Y102.903 E55.06843
G1 X107.320 Y102.442 E55.09113
G1 X107.837 Y101.786 E55.11399
G1 X108.036 Y101.231 E55.13015
G1 X108.462 Y101.650 E55.14652
G1 X109.203 Y102.021 E55.16922
G1 X110.023 Y102.144 E55.19192
G1 X110.833 Y102.008 E55.21440
G1 X111.528 Y101.655 E55.23573
G1 X111.964 Y101.232 E55.25238
G1 X112.163 Y101.786 E55.26851
G1 X112.680 Y102.442 E55.29137
G1 X113.369 Y102.903 E55.31407
G1 X114.160 Y103.125 E55.33655
G1 X114.939 Y103.101 E55.35789
G1 X115.511 Y102.906 E55.37445
G1 X115.458 Y103.497 E55.39069
G1 X115.645 Y104.305 E55.41340
G1 X116.073 Y105.015 E55.43610
G1 X116.693 Y105.553 E55.45858
G1 X117.408 Y105.864 E55.47993
G1 X118.010 Y105.931 E55.49651
G1 X117.701 Y106.462 E55.51334
G1 X117.531 Y107.293 E55.53655
G1 X117.632 Y108.131 E55.55967
G1 X117.988 Y108.888 E55.58257
G1 X118.536 Y109.477 E55.60459
G1 X119.487 Y110.000 E55.63431
G1 X118.536 Y110.522 E55.66401
G1 X117.988 Y111.112 E55.68604
G1 X117.632 Y111.869 E55.70895
G1 X117.531 Y112.707 E55.73207
G1 X117.701 Y113.538 E55.75528
G1 X118.010 Y114.069 E55.77210
G1 X117.408 Y114.136 E55.78869
G1 X116.693 Y114.447 E55.81003
G1 X116.073 Y114.985 E55.83252
G1 X115.645 Y115.695 E55.85521
