; generated by Slic3r 1.2.9 on 2016-11-20 at 21:07:39

; external perimeters extrusion width = 0.40mm
; perimeters extrusion width = 0.68mm
; infill extrusion width = 1.28mm
; solid infill extrusion width = 0.68mm
; top infill extrusion width = 0.68mm

M107
M190 S30 ; set bed temperature
M104 S190 ; set temperature
G28 ; home all axes
G1 Z5 F5000 ; lift nozzle

M109 S190 ; wait for temperature to be reached
G21 ; set units to millimeters
G90 ; use absolute coordinates
M82 ; use absolute distances for extrusion
G92 E0
G1 Z0.400 F11400.000
G1 E-2.00000 F2400.00000
G92 E0
G1 X98.491 Y97.275 F11400.000
G1 E2.00000 F2400.00000
G1 X99.292 Y96.541 E2.12904 F1800.000
G1 X99.609 Y96.295 E2.17675
G1 X100.559 Y95.679 E2.31117
G1 X104.513 Y93.806 E2.83087
G1 X104.975 Y93.609 E2.89049
G1 X105.706 Y93.345 E2.98274
G1 X106.533 Y93.139 E3.08398
G1 X107.897 Y92.999 E3.24692
G1 X112.103 Y92.999 E3.74633
G1 X113.455 Y93.136 E3.90780
G1 X114.296 Y93.345 E4.01070 F1800.000
G1 X115.025 Y93.609 E4.10276
G1 X115.487 Y93.806 E4.16238
G1 X119.432 Y95.673 E4.68077
G1 X120.391 Y96.295 E4.81650
G1 X120.708 Y96.541 E4.86420
G1 X121.510 Y97.276 E4.99330
G1 X121.774 Y97.577 E5.04090
G1 X124.639 Y101.060 E5.57656
G1 X125.241 Y102.030 E5.71214
G1 X125.423 Y102.388 E5.75984
G1 X125.835 Y103.393 E5.88882
G1 X127.111 Y107.594 E6.41023
G1 X127.322 Y108.517 E6.52274
G1 X127.415 Y109.134 E6.59674
G1 X127.392 Y111.029 E6.82184
G1 X127.286 Y111.689 E6.90132
G1 X127.110 Y112.408 E6.98920
G1 X125.835 Y116.607 E7.51036
G1 X125.423 Y117.612 E7.63934
G1 X125.241 Y117.970 E7.68704
G1 X124.638 Y118.940 E7.82271
G1 X121.517 Y122.717 E8.40462
G1 X120.708 Y123.459 E8.53495
G1 X120.391 Y123.705 E8.58266
G1 X119.442 Y124.321 E8.71699
G1 X119.122 Y124.482 E8.75953
G1 X115.487 Y126.194 E9.23680
G1 X115.025 Y126.391 E9.29642
G1 X114.294 Y126.655 E9.38866
G1 X113.467 Y126.861 E9.48993
G1 X112.103 Y127.002 E9.65284
G1 X107.897 Y127.002 E10.15225
G1 X106.533 Y126.861 E10.31517
G1 X106.261 Y126.803 E10.34815
G1 X105.705 Y126.655 E10.41655
G1 X105.304 Y126.516 E10.46693
G1 X104.513 Y126.194 E10.56832
G1 X100.568 Y124.327 E11.08674
G1 X99.609 Y123.705 E11.22244
G1 X99.292 Y123.459 E11.27014
G1 X98.491 Y122.725 E11.39914
G1 X98.226 Y122.423 E11.44684
G1 X95.361 Y118.940 E11.98247
G1 X94.759 Y117.970 E12.11808
G1 X94.577 Y117.612 E12.16578
G1 X94.165 Y116.606 E12.29487
G1 X92.889 Y112.406 E12.81617
G1 X92.678 Y111.483 E12.92867
G1 X92.585 Y110.867 E13.00266
G1 X92.608 Y108.971 E13.22778
G1 X92.711 Y108.323 E13.30573
G1 X92.890 Y107.592 E13.39514
G1 X94.165 Y103.394 E13.91616
G1 X94.577 Y102.388 E14.04528
G1 X94.759 Y102.030 E14.09299
G1 X95.355 Y101.069 E14.22726
G1 X95.575 Y100.788 E14.26966
G1 X98.451 Y97.320 E14.80475
G1 E12.80475 F2400.00000
G92 E0
G1 X115.009 Y116.450 F11400.000
G1 E2.00000 F2400.00000
G1 X114.091 Y116.422 E2.10919 F1800.000
G1 X113.162 Y116.689 E2.22392
G1 X112.359 Y117.232 E2.33909
G1 X111.783 Y117.969 E2.45015
G1 X110.949 Y117.548 E2.56121
G1 X109.990 Y117.399 E2.67637
G1 X109.037 Y117.553 E2.79111
G1 X108.217 Y117.970 E2.90029
G1 X107.641 Y117.232 E3.01142
G1 X106.838 Y116.689 E3.12659
G1 X105.909 Y116.422 E3.24132
G1 X104.991 Y116.450 E3.35050
G1 X104.784 Y115.537 E3.46163
G1 X104.289 Y114.704 E3.57679
G1 X103.562 Y114.067 E3.69153
G1 X102.723 Y113.702 E3.80021
G1 X102.925 Y112.745 E3.91637
G1 X102.813 Y111.762 E4.03384
G1 X102.400 Y110.867 E4.15086
G1 X101.593 Y110.000 E4.29157
G1 X102.400 Y109.133 E4.43228
G1 X102.813 Y108.238 E4.54929
G1 X102.925 Y107.255 E4.66677
G1 X102.723 Y106.298 E4.78293
G1 X103.562 Y105.933 E4.89161
G1 X104.289 Y105.296 E5.00634
G1 X104.784 Y104.463 E5.12151
G1 X104.991 Y103.550 E5.23264
G1 X105.909 Y103.578 E5.34182
G1 X106.838 Y103.311 E5.45655
G1 X107.641 Y102.768 E5.57172
G1 X108.217 Y102.031 E5.68278
G1 X109.051 Y102.452 E5.79384
G1 X110.010 Y102.601 E5.90901
G1 X110.963 Y102.447 E6.02374
G1 X111.783 Y102.030 E6.13293
G1 X112.359 Y102.768 E6.24405
G1 X113.162 Y103.311 E6.35922
G1 X114.091 Y103.578 E6.47395
G1 X115.009 Y103.550 E6.58314
G1 X115.216 Y104.463 E6.69426
G1 X115.711 Y105.296 E6.80943
G1 X116.438 Y105.933 E6.92416
G1 X117.277 Y106.298 E7.03285
G1 X117.075 Y107.255 E7.14901
G1 X117.187 Y108.238 E7.26648
G1 X117.600 Y109.133 E7.38349
G1 X118.407 Y110.000 E7.52420
G1 X117.600 Y110.867 E7.66491
G1 X117.187 Y111.762 E7.78193
G1 X117.075 Y112.745 E7.89940
G1 X117.277 Y113.702 E8.01556
G1 X116.438 Y114.067 E8.12424
G1 X115.711 Y114.704 E8.23898
G1 X115.216 Y115.537 E8.35415
G1 X115.023 Y116.391 E8.45814
G1 X115.808 Y117.476 F11400.000
G1 X114.906 Y117.161 E8.57163 F1800.000
G1 X114.181 Y117.140 E8.65780
G1 X113.468 Y117.345 E8.74585
G1 X112.852 Y117.761 E8.83416
G1 X112.392 Y118.350 E8.92293
G1 X112.073 Y119.245 E9.03578
G1 X111.389 Y118.571 E9.14988
G1 X110.727 Y118.236 E9.23796
G1 X109.993 Y118.122 E9.32627
G1 X109.261 Y118.240 E9.41432
G1 X108.614 Y118.569 E9.50044
G1 X107.926 Y119.243 E9.61488
G1 X107.608 Y118.350 E9.72751
G1 X107.148 Y117.761 E9.81627
G1 X106.532 Y117.345 E9.90459
G1 X105.819 Y117.140 E9.99263
G1 X105.094 Y117.161 E10.07880
G1 X104.192 Y117.476 E10.19229
G1 X104.276 Y116.529 E10.30520
G1 X104.113 Y115.805 E10.39333
G1 X103.732 Y115.166 E10.48165
G1 X103.175 Y114.677 E10.56970
G1 X102.510 Y114.388 E10.65586
G1 X101.560 Y114.288 E10.76936
G1 X102.046 Y113.452 E10.88417
G1 X102.202 Y112.710 E10.97421
G1 X102.117 Y111.957 E11.06429
G1 X101.799 Y111.271 E11.15408
G1 X101.291 Y110.724 E11.24268
G1 X100.522 Y110.304 E11.34675
G1 X100.440 Y110.219 E11.36086
G1 X100.388 Y110.114 E11.37472
G1 X100.371 Y110.008 E11.38754
G1 X100.390 Y109.881 E11.40274
G1 X100.440 Y109.781 E11.41604
G1 X100.523 Y109.695 E11.43023
G1 X101.291 Y109.276 E11.53414
G1 X101.799 Y108.729 E11.62276
G1 X102.117 Y108.043 E11.71256
G1 X102.202 Y107.290 E11.80263
G1 X102.046 Y106.548 E11.89268
G1 X101.560 Y105.712 E12.00749
G1 X102.510 Y105.612 E12.12098
G1 X103.175 Y105.323 E12.20715
G1 X103.732 Y104.834 E12.29520
G1 X104.113 Y104.195 E12.38351
G1 X104.276 Y103.471 E12.47164
G1 X104.192 Y102.524 E12.58455
G1 X105.094 Y102.839 E12.69804
G1 X105.819 Y102.860 E12.78421
G1 X106.532 Y102.656 E12.87226
G1 X107.148 Y102.239 E12.96057
G1 X107.608 Y101.650 E13.04933
G1 X107.927 Y100.755 E13.16219
G1 X108.611 Y101.429 E13.27628
G1 X109.273 Y101.764 E13.36437
G1 X110.007 Y101.878 E13.45268
G1 X110.739 Y101.760 E13.54073
G1 X111.386 Y101.431 E13.62685
G1 X112.074 Y100.757 E13.74129
G1 X112.392 Y101.650 E13.85392
G1 X112.852 Y102.239 E13.94268
G1 X113.468 Y102.656 E14.03099
G1 X114.181 Y102.860 E14.11904
G1 X114.906 Y102.839 E14.20521
G1 X115.808 Y102.524 E14.31870
G1 X115.724 Y103.471 E14.43161
G1 X115.887 Y104.195 E14.51974
G1 X116.268 Y104.834 E14.60806
G1 X116.825 Y105.323 E14.69610
G1 X117.490 Y105.612 E14.78227
G1 X118.440 Y105.712 E14.89577
G1 X117.954 Y106.548 E15.01057
G1 X117.798 Y107.290 E15.10062
G1 X117.883 Y108.043 E15.19070
G1 X118.201 Y108.729 E15.28049
G1 X118.709 Y109.276 E15.36909
G1 X119.478 Y109.696 E15.47315
G1 X119.560 Y109.781 E15.48727
G1 X119.612 Y109.886 E15.50113
G1 X119.629 Y109.992 E15.51394
G1 X119.610 Y110.119 E15.52914
G1 X119.560 Y110.219 E15.54245
G1 X119.477 Y110.305 E15.55664
G1 X118.709 Y110.724 E15.66055
G1 X118.201 Y111.271 E15.74917
G1 X117.883 Y111.957 E15.83896
G1 X117.798 Y112.710 E15.92904
G1 X117.954 Y113.452 E16.01909
G1 X118.440 Y114.288 E16.13389
G1 X117.490 Y114.388 E16.24739
G1 X116.825 Y114.677 E16.33356
G1 X116.268 Y115.166 E16.42160
G1 X115.887 Y115.805 E16.50992
G1 X115.724 Y116.529 E16.59805
G1 X115.803 Y117.416 E16.70383
G1 X107.816 Y119.861 F11400.000
G1 X107.570 Y119.766 E16.73514 F1800.000
G1 X107.375 Y119.617 E16.76438
G1 X107.230 Y119.417 E16.79368
G1 X106.974 Y118.698 E16.88431
G1 X106.655 Y118.289 E16.94593
G1 X106.226 Y118.000 E17.00739
G1 X105.729 Y117.857 E17.06875
G1 X105.225 Y117.872 E17.12861
G1 X104.463 Y118.138 E17.22454
G1 X104.185 Y118.137 E17.25750
G1 X103.922 Y118.046 E17.29058
G1 X103.703 Y117.874 E17.32367
G1 X103.551 Y117.641 E17.35676
G1 X103.484 Y117.370 E17.38985
G1 X103.555 Y116.577 E17.48440
G1 X103.441 Y116.073 E17.54579
G1 X103.176 Y115.628 E17.60725
G1 X102.788 Y115.287 E17.66861
G1 X102.326 Y115.086 E17.72847
G1 X101.523 Y115.002 E17.82440
G1 X101.271 Y114.883 E17.85746
G1 X101.078 Y114.696 E17.88937
G1 X100.947 Y114.439 E17.92364
G1 X100.910 Y114.164 E17.95662
G1 X100.965 Y113.890 E17.98975
G1 X101.371 Y113.193 E18.08562
G1 X101.480 Y112.676 E18.14829
G1 X101.420 Y112.152 E18.21096
G1 X101.199 Y111.674 E18.27354
G1 X100.847 Y111.296 E18.33486
G1 X100.084 Y110.879 E18.43811
G1 X99.849 Y110.635 E18.47831
G1 X99.699 Y110.333 E18.51843
G1 X99.649 Y110.010 E18.55721
G1 X99.700 Y109.664 E18.59873
G1 X99.850 Y109.363 E18.63864
G1 X100.086 Y109.120 E18.67888
G1 X100.847 Y108.704 E18.78190
G1 X101.199 Y108.326 E18.84323
G1 X101.420 Y107.848 E18.90580
G1 X101.480 Y107.324 E18.96848
G1 X101.371 Y106.807 E19.03115
G1 X100.965 Y106.110 E19.12702
G1 X100.910 Y105.836 E19.16015
G1 X100.947 Y105.560 E19.19324
G1 X101.072 Y105.311 E19.22633
G1 X101.272 Y105.117 E19.25942
G1 X101.523 Y104.998 E19.29237
G1 X102.326 Y104.914 E19.38830
G1 X102.788 Y104.713 E19.44816
G1 X103.176 Y104.372 E19.50952
G1 X103.441 Y103.927 E19.57098
G1 X103.555 Y103.423 E19.63237
G1 X103.484 Y102.630 E19.72692
G1 X103.551 Y102.359 E19.76001
G1 X103.703 Y102.126 E19.79310
G1 X103.922 Y101.954 E19.82619
G1 X104.185 Y101.863 E19.85927
G1 X104.463 Y101.862 E19.89223
G1 X105.225 Y102.128 E19.98816
G1 X105.729 Y102.143 E20.04802
G1 X106.226 Y102.000 E20.10938
G1 X106.655 Y101.711 E20.17084
G1 X106.974 Y101.302 E20.23246
G1 X107.230 Y100.583 E20.32309
G1 X107.375 Y100.383 E20.35238
G1 X107.570 Y100.234 E20.38161
G1 X107.821 Y100.138 E20.41350
G1 X107.912 Y100.119 E20.42461
G1 X108.205 Y100.159 E20.45971
G1 X108.464 Y100.282 E20.49373
G1 X109.032 Y100.842 E20.58855
G1 X109.494 Y101.075 E20.64993
G1 X110.005 Y101.155 E20.71139
G1 X110.515 Y101.072 E20.77275
G1 X110.964 Y100.844 E20.83259
G1 X111.544 Y100.276 E20.92892
G1 X111.794 Y100.159 E20.96173
G1 X112.088 Y100.119 E20.99697
G1 X112.184 Y100.140 E21.00861
G1 X112.430 Y100.234 E21.03992
G1 X112.625 Y100.383 E21.06916
G1 X112.770 Y100.583 E21.09846
G1 X113.026 Y101.302 E21.18909
G1 X113.345 Y101.711 E21.25071
G1 X113.774 Y102.000 E21.31217
G1 X114.271 Y102.143 E21.37353
G1 X114.775 Y102.128 E21.43339
G1 X115.537 Y101.862 E21.52931
G1 X115.815 Y101.863 E21.56228
G1 X116.078 Y101.954 E21.59536
G1 X116.297 Y102.126 E21.62845
G1 X116.449 Y102.359 E21.66154
G1 X116.516 Y102.630 E21.69463
G1 X116.445 Y103.423 E21.78918
G1 X116.559 Y103.927 E21.85057
G1 X116.824 Y104.372 E21.91203
G1 X117.212 Y104.713 E21.97339
G1 X117.674 Y104.914 E22.03325
G1 X118.477 Y104.998 E22.12917
G1 X118.729 Y105.117 E22.16224
G1 X118.922 Y105.304 E22.19415
G1 X119.053 Y105.561 E22.22842
G1 X119.090 Y105.836 E22.26140
G1 X119.035 Y106.110 E22.29453
G1 X118.629 Y106.807 E22.39040
G1 X118.520 Y107.324 E22.45307
G1 X118.580 Y107.848 E22.51574
G1 X118.801 Y108.326 E22.57832
G1 X119.153 Y108.704 E22.63964
G1 X119.916 Y109.121 E22.74289
G1 X120.151 Y109.365 E22.78309
G1 X120.301 Y109.667 E22.82321
G1 X120.351 Y109.990 E22.86199
G1 X120.300 Y110.336 E22.90351
G1 X120.150 Y110.637 E22.94342
G1 X119.914 Y110.880 E22.98366
G1 X119.153 Y111.296 E23.08668
G1 X118.801 Y111.674 E23.14801
G1 X118.580 Y112.152 E23.21058
G1 X118.520 Y112.676 E23.27326
G1 X118.629 Y113.193 E23.33593
G1 X119.035 Y113.890 E23.43179
G1 X119.090 Y114.164 E23.46493
G1 X119.053 Y114.440 E23.49802
G1 X118.928 Y114.689 E23.53111
G1 X118.728 Y114.883 E23.56419
G1 X118.477 Y115.002 E23.59715
G1 X117.674 Y115.086 E23.69308
G1 X117.212 Y115.287 E23.75294
G1 X116.824 Y115.628 E23.81430
G1 X116.559 Y116.073 E23.87576
G1 X116.445 Y116.577 E23.93715
G1 X116.516 Y117.370 E24.03170
G1 X116.449 Y117.641 E24.06479
G1 X116.297 Y117.874 E24.09788
G1 X116.078 Y118.046 E24.13096
G1 X115.815 Y118.137 E24.16405
G1 X115.537 Y118.138 E24.19701
G1 X114.775 Y117.872 E24.29294
G1 X114.271 Y117.857 E24.35280
G1 X113.774 Y118.000 E24.41416
G1 X113.345 Y118.289 E24.47562
G1 X113.026 Y118.698 E24.53724
G1 X112.770 Y119.417 E24.62787
G1 X112.625 Y119.617 E24.65716
G1 X112.430 Y119.766 E24.68639
G1 X112.179 Y119.862 E24.71828
G1 X112.088 Y119.881 E24.72939
G1 X111.795 Y119.841 E24.76449
G1 X111.536 Y119.718 E24.79851
G1 X110.968 Y119.158 E24.89333
G1 X110.506 Y118.925 E24.95471
G1 X109.995 Y118.845 E25.01617
G1 X109.485 Y118.928 E25.07753
G1 X109.036 Y119.156 E25.13737
G1 X108.456 Y119.724 E25.23370
G1 X108.206 Y119.841 E25.26652
G1 X107.875 Y119.873 E25.30602
G1 X107.739 Y119.608 F11400.000
G1 X105.294 Y115.650 F11400.000
G1 X105.643 Y115.999 E25.36611 F1800.000
G1 X106.878 Y116.198 E25.51837
G1 X103.356 Y112.676 E26.12492
G1 X103.243 Y111.528 E26.26538
G1 X108.905 Y117.190 E27.24047
G1 X109.767 Y117.017 E27.34756
G1 X102.415 Y109.664 E28.61382
G1 X102.855 Y109.068 E28.70400
G1 X110.853 Y117.067 E30.08152
G1 X111.958 Y117.136 E30.21636
G1 X103.182 Y108.360 E31.72781
G1 X103.323 Y107.465 E31.83811
G1 X112.524 Y116.666 E33.42265
G1 X113.166 Y116.273 E33.51436
G1 X103.344 Y106.451 E35.20584
G1 X103.987 Y106.058 E35.29756
G1 X113.970 Y116.041 E37.01693
G1 X114.745 Y115.780 E37.11648
G1 X104.538 Y105.574 E38.87429
G1 X104.941 Y104.941 E38.96563
G1 X115.059 Y115.059 E40.70814
G1 X115.462 Y114.426 E40.79948
G1 X105.255 Y104.220 E42.55729
G1 X106.030 Y103.959 E42.65683
G1 X116.013 Y113.942 E44.37621
G1 X116.656 Y113.549 E44.46792
G1 X106.834 Y103.727 E46.15941
G1 X107.476 Y103.334 E46.25111
G1 X116.677 Y112.535 E47.83566
G1 X116.818 Y111.640 E47.94596
G1 X108.042 Y102.864 E49.45741
G1 X109.147 Y102.933 E49.59225
G1 X117.145 Y110.932 E50.96977
G1 X117.585 Y110.336 E51.05995
G1 X110.233 Y102.983 E52.32620
G1 X111.095 Y102.810 E52.43329
G1 X116.757 Y108.472 E53.40839
G1 X116.644 Y107.324 E53.54885
G1 X113.122 Y103.802 E54.15540
G1 X114.357 Y104.001 E54.30766
G1 X114.706 Y104.350 E54.36775
G1 Z0.500 F11400.000
G1 X108.036 Y118.768 F11400.000
G1 X107.838 Y118.216 E54.38380 F3600.000
G1 X107.323 Y117.560 E54.40663
G1 X106.635 Y117.099 E54.42931
G1 X105.844 Y116.875 E54.45181
G1 X105.056 Y116.899 E54.47339
G1 X104.489 Y117.094 E54.48981
G1 X104.542 Y116.506 E54.50598
G1 X104.356 Y115.699 E54.52866
G1 X103.930 Y114.988 E54.55133
G1 X103.310 Y114.449 E54.57384
G1 X102.588 Y114.134 E54.59542
G1 X101.990 Y114.069 E54.61187
G1 X102.297 Y113.541 E54.62859
G1 X102.468 Y112.712 E54.65176
G1 X102.370 Y111.874 E54.67487
G1 X102.015 Y111.115 E54.69781
G1 X101.461 Y110.520 E54.72005
G1 X100.513 Y110.000 E54.74967
G1 X101.461 Y109.480 E54.77926
G1 X102.015 Y108.885 E54.80151
G1 X102.370 Y108.126 E54.82445
G1 X102.468 Y107.288 E54.84756
G1 X102.297 Y106.459 E54.87073
G1 X101.990 Y105.931 E54.88745
G1 X102.588 Y105.866 E54.90390
G1 X103.310 Y105.551 E54.92548
G1 X103.930 Y105.012 E54.94799
G1 X104.356 Y104.301 E54.97067
G1 X104.542 Y103.494 E54.99334
G1 X104.489 Y102.906 E55.00951
G1 X105.056 Y103.101 E55.02593
G1 X105.844 Y103.125 E55.04751
G1 X106.635 Y102.901 E55.07002
G1 X107.323 Y102.440 E55.09269
G1 X107.838 Y101.784 E55.11553
G1 X108.036 Y101.231 E55.13160
G1 X108.460 Y101.649 E55.14789
G1 X109.200 Y102.020 E55.17055
G1 X110.019 Y102.144 E55.19323
G1 X110.830 Y102.009 E55.21574
G1 X111.532 Y101.652 E55.23730
G1 X111.964 Y101.232 E55.25382
G1 X112.162 Y101.784 E55.26987
G1 X112.677 Y102.440 E55.29270
G1 X113.365 Y102.901 E55.31538
G1 X114.156 Y103.125 E55.33789
G1 X114.944 Y103.101 E55.35947
G1 X115.511 Y102.906 E55.37589
G1 X115.458 Y103.494 E55.39206
G1 X115.644 Y104.301 E55.41473
G1 X116.070 Y105.012 E55.43741
G1 X116.690 Y105.551 E55.45992
G1 X117.412 Y105.866 E55.48150
G1 X118.010 Y105.931 E55.49794
G1 X117.703 Y106.459 E55.51467
G1 X117.532 Y107.288 E55.53784
G1 X117.630 Y108.126 E55.56095
G1 X117.985 Y108.885 E55.58389
G1 X118.539 Y109.480 E55.60613
G1 X119.487 Y110.000 E55.63574
G1 X118.539 Y110.520 E55.66533
G1 X117.985 Y111.115 E55.68759
G1 X117.630 Y111.874 E55.71052
G1 X117.532 Y112.712 E55.73364
G1 X117.703 Y113.541 E55.75680
G1 X118.010 Y114.069 E55.77353
G1 X117.412 Y114.134 E55.78998
G1 X116.690 Y114.449 E55.81156
G1 X116.070 Y114.988 E55.83406
