; generated by Slic3r 1.2.9 on 2016-06-07 at 18:18:22

; external perimeters extrusion width = 0.40mm
; perimeters extrusion width = 0.48mm
; infill extrusion width = 0.48mm
; solid infill extrusion width = 0.48mm
; top infill extrusion width = 0.48mm

M107
M190 S55 ; set bed temperature
M104 S200 ; set temperature
G28 ; home all axes
G1 Z5 F5000 ; lift nozzle

M109 S200 ; wait for temperature to be reached
G21 ; set units to millimeters
G90 ; use absolute coordinates
M82 ; use absolute distances for extrusion
G92 E0
G1 Z0.400 F11400.000
G1 E-2.00000 F2400.00000
G92 E0
G1 X84.774 Y84.519 F11400.000
G1 E2.00000 F2400.00000
G1 X85.486 Y83.849 E2.11606 F1800.000
G1 X86.191 Y83.244 E2.22641
G1 X86.778 Y82.776 E2.31562
G1 X87.342 Y82.357 E2.39904
G1 X88.149 Y81.805 E2.51513
G1 X88.935 Y81.317 E2.62502
G1 X90.165 Y80.642 E2.79165
G1 X90.977 Y80.250 E2.89874
G1 X91.868 Y79.866 E3.01397
G1 X92.729 Y79.540 E3.12327
G1 X94.065 Y79.114 E3.28989
G1 X94.942 Y78.883 E3.39755
G1 X95.889 Y78.679 E3.51258
G1 X96.793 Y78.525 E3.62151
G1 X98.186 Y78.363 E3.78814
G1 X99.095 Y78.305 E3.89628
G1 X100.073 Y78.286 E4.01240
G1 X100.905 Y78.305 E4.11125 F1800.000
G1 X101.742 Y78.356 E4.21087
G1 X102.580 Y78.440 E4.31094
G1 X103.410 Y78.555 E4.41036
G1 X104.237 Y78.704 E4.51024
G1 X105.059 Y78.884 E4.61019
G1 X105.872 Y79.095 E4.70990
G1 X106.675 Y79.338 E4.80956
G1 X107.471 Y79.612 E4.90946
G1 X108.253 Y79.916 E5.00913
G1 X109.023 Y80.250 E5.10881
G1 X109.781 Y80.614 E5.20875
G1 X110.523 Y81.006 E5.30836
G1 X111.249 Y81.427 E5.40813
G1 X111.960 Y81.877 E5.50802
G1 X112.698 Y82.387 E5.61456
G1 X113.809 Y83.244 E5.78119
G1 X114.446 Y83.790 E5.88084
G1 X115.128 Y84.423 E5.99127
G1 X115.655 Y84.954 E6.08015
G1 X116.286 Y85.638 E6.19070
G1 X116.830 Y86.280 E6.29062
G1 X117.348 Y86.941 E6.39034
G1 X117.835 Y87.614 E6.48911
G1 X118.306 Y88.321 E6.58988
G1 X118.813 Y89.158 E6.70612
G1 X119.235 Y89.927 E6.81038
G1 X119.846 Y91.190 E6.97701
G1 X119.881 Y91.268 E6.98713
G1 X120.427 Y93.315 E7.23873
G1 X120.668 Y95.666 E7.51941
G1 X120.714 Y96.500 E7.61861
G1 X120.714 Y103.500 E8.44997
G1 X120.695 Y104.001 E8.50956
G1 X120.427 Y106.685 E8.82987
G1 X119.881 Y108.732 E9.08146
G1 X119.846 Y108.810 E9.09160
G1 X119.235 Y110.073 E9.25822
G1 X118.813 Y110.843 E9.36252
G1 X118.306 Y111.679 E9.47870
G1 X117.840 Y112.379 E9.57862
G1 X117.290 Y113.134 E9.68949
G1 X116.406 Y114.224 E9.85612
G1 X115.718 Y114.981 E9.97765
G1 X115.127 Y115.578 E10.07746
G1 X114.446 Y116.210 E10.18773
G1 X113.369 Y117.109 E10.35436
G1 X112.651 Y117.648 E10.46097
G1 X111.851 Y118.195 E10.57613
G1 X111.139 Y118.639 E10.67579
G1 X110.335 Y119.096 E10.78562
G1 X109.080 Y119.724 E10.95226
G1 X108.252 Y120.085 E11.05956
G1 X107.349 Y120.433 E11.17448
G1 X106.551 Y120.702 E11.27446
G1 X105.745 Y120.940 E11.37424
G1 X104.856 Y121.163 E11.48317
G1 X104.034 Y121.335 E11.58283
G1 X102.648 Y121.551 E11.74946
G1 X101.744 Y121.644 E11.85746
G1 X100.906 Y121.695 E11.95716
G1 X100.067 Y121.714 E12.05683
G1 X99.094 Y121.695 E12.17233
G1 X98.256 Y121.644 E12.27203
G1 X97.352 Y121.551 E12.38002
G1 X95.966 Y121.335 E12.54666
G1 X95.144 Y121.163 E12.64631
G1 X94.255 Y120.940 E12.75525
G1 X93.448 Y120.702 E12.85516
G1 X92.652 Y120.433 E12.95491
G1 X91.748 Y120.085 E13.07002
G1 X90.975 Y119.749 E13.17003
G1 X90.165 Y119.358 E13.27689
G1 X88.935 Y118.683 E13.44352
G1 X88.222 Y118.241 E13.54316
G1 X87.454 Y117.723 E13.65315
G1 X86.778 Y117.224 E13.75300
G1 X86.121 Y116.700 E13.85279
G1 X85.486 Y116.151 E13.95241
G1 X84.872 Y115.577 E14.05221
G1 X84.187 Y114.880 E14.16834
G1 X83.628 Y114.263 E14.26719
G1 X83.057 Y113.579 E14.37306
G1 X82.215 Y112.457 E14.53968
G1 X81.747 Y111.760 E14.63934
G1 X81.257 Y110.963 E14.75051
G1 X80.846 Y110.229 E14.85033
G1 X80.465 Y109.481 E14.95010
G1 X80.119 Y108.732 E15.04802
G1 X79.573 Y106.685 E15.29967
G1 X79.332 Y104.334 E15.58035
G1 X79.286 Y103.500 E15.67955
G1 X79.286 Y96.500 E16.51091
G1 X79.332 Y95.666 E16.61011
G1 X79.573 Y93.315 E16.89079
G1 X80.119 Y91.269 E17.14233
G1 X80.465 Y90.519 E17.24041
G1 X80.765 Y89.927 E17.31917
G1 X81.256 Y89.037 E17.43992
G1 X81.695 Y88.320 E17.53971
G1 X82.082 Y87.735 E17.62305
G1 X82.710 Y86.866 E17.75043
G1 X83.170 Y86.279 E17.83903
G1 X83.714 Y85.639 E17.93876
G1 X84.281 Y85.020 E18.03847
G1 X84.732 Y84.562 E18.11482
G1 E16.11482 F2400.00000
G92 E0
G1 X103.221 Y102.999 F11400.000
G1 E2.00000 F2400.00000
G1 X102.757 Y103.429 E2.07515 F1800.000
G1 X102.473 Y103.640 E2.11721
G1 X101.897 Y103.971 E2.19604
G1 X101.306 Y104.202 E2.27143
G1 X100.981 Y104.290 E2.31145
G1 X100.635 Y104.354 E2.35322
G1 X100.001 Y104.401 E2.42866
G1 X99.331 Y104.350 E2.50856
G1 X98.712 Y104.208 E2.58395
G1 X98.387 Y104.094 E2.62479
G1 X97.799 Y103.812 E2.70227
G1 X97.262 Y103.445 E2.77951
G1 X97.001 Y103.221 E2.82037
G1 X96.564 Y102.750 E2.89671
G1 X96.364 Y102.479 E2.93668
G1 X96.185 Y102.194 E2.97665
G1 X95.903 Y101.608 E3.05388
G1 X95.709 Y100.979 E3.13199
G1 X95.613 Y100.346 E3.20803
G1 X95.599 Y99.993 E3.25002
G1 X95.646 Y99.362 E3.32523
G1 X95.711 Y99.014 E3.36724
G1 X95.903 Y98.392 E3.44452
G1 X96.189 Y97.799 E3.52265
G1 X96.555 Y97.262 E3.59988
G1 X96.779 Y97.001 E3.64074
G1 X97.250 Y96.564 E3.71708
G1 X97.527 Y96.360 E3.75795
G1 X98.092 Y96.034 E3.83540
G1 X98.683 Y95.802 E3.91078
G1 X99.022 Y95.710 E3.95256
G1 X99.353 Y95.647 E3.99257
G1 X99.987 Y95.599 E4.06797 F1800.000
G1 X100.657 Y95.648 E4.14786
G1 X101.277 Y95.789 E4.22330
G1 X101.609 Y95.904 E4.26508
G1 X101.918 Y96.039 E4.30509
G1 X102.468 Y96.356 E4.38048
G1 X102.993 Y96.773 E4.46015
G1 X103.436 Y97.250 E4.53744
G1 X103.636 Y97.521 E4.57741
G1 X103.815 Y97.806 E4.61738
G1 X104.097 Y98.392 E4.69461
G1 X104.291 Y99.021 E4.77272
G1 X104.387 Y99.654 E4.84876
G1 X104.400 Y100.000 E4.88993
G1 X104.387 Y100.346 E4.93111
G1 X104.291 Y100.979 E5.00715
G1 X104.097 Y101.608 E5.08525
G1 X103.811 Y102.201 E5.16338
G1 X103.445 Y102.738 E5.24061
G1 X103.260 Y102.953 E5.27433
G1 X103.325 Y103.385 F11400.000
G1 X103.100 Y105.873 F11400.000
G1 X103.100 Y113.101 E6.13280 F1800.000
G1 X96.905 Y113.101 E6.86846
G1 X96.905 Y105.873 E7.72693
G1 X103.040 Y105.873 E8.45547
G1 X102.385 Y106.587 F11400.000
G1 X102.385 Y112.387 E9.14431 F1800.000
G1 X97.620 Y112.387 E9.71033
G1 X97.620 Y106.587 E10.39917
G1 X102.325 Y106.587 E10.95807
G1 X102.785 Y106.587 F11400.000
G1 X96.191 Y105.159 F11400.000
G1 X96.191 Y112.618 E11.84399 F1800.000
G1 X95.036 Y112.199 E11.98994
G1 X94.099 Y111.775 E12.11206
G1 X93.673 Y111.552 E12.16922
G1 X92.777 Y111.013 E12.29338
G1 X92.379 Y110.742 E12.35055
G1 X91.551 Y110.104 E12.47466
G1 X91.182 Y109.784 E12.53271
G1 X90.447 Y109.066 E12.65478
G1 X89.768 Y108.294 E12.77685
G1 X89.311 Y107.707 E12.86518
G1 X89.874 Y107.604 E12.93320
G1 X90.751 Y107.331 E13.04224
G1 X91.239 Y107.129 E13.10497
G1 X92.052 Y106.702 E13.21400
G1 X92.830 Y106.165 E13.32632
G1 X93.538 Y105.538 E13.43864
G1 X94.165 Y104.830 E13.55096
G1 X94.702 Y104.052 E13.66328
G1 X95.138 Y103.222 E13.77456
G1 X95.463 Y103.662 E13.83955
G1 X96.009 Y104.251 E13.93494
G1 X96.391 Y104.580 E13.99486
G1 X96.797 Y104.856 E14.05313
G1 X96.703 Y105.159 E14.09068
G1 X96.251 Y105.159 E14.14439
G1 X103.814 Y105.159 F11400.000
G1 X103.317 Y105.159 E14.20343 F1800.000
G1 X103.220 Y104.865 E14.24021
G1 X103.672 Y104.529 E14.30704
G1 X104.251 Y103.991 E14.40104
G1 X104.580 Y103.609 E14.46089
G1 X104.854 Y103.206 E14.51872
G1 X105.264 Y103.990 E14.62372
G1 X105.569 Y104.467 E14.69093
G1 X106.138 Y105.193 E14.80055
G1 X106.807 Y105.862 E14.91287
G1 X107.551 Y106.445 E15.02519
G1 X108.360 Y106.935 E15.13751
G1 X109.223 Y107.323 E15.24983
G1 X110.099 Y107.596 E15.35886
G1 X110.663 Y107.717 E15.42733
G1 X110.220 Y108.307 E15.51491
G1 X109.553 Y109.066 E15.63492
G1 X108.825 Y109.777 E15.75581
G1 X108.044 Y110.429 E15.87668
G1 X107.214 Y111.019 E15.99755
G1 X106.342 Y111.543 E16.11844
G1 X105.423 Y112.003 E16.24049
G1 X104.974 Y112.196 E16.29850
G1 X103.814 Y112.616 E16.44504
G1 X103.814 Y105.219 E17.32353
G1 X105.016 Y101.346 F11400.000
G1 X105.206 Y102.117 E17.41790 F1800.000
G1 X105.510 Y102.920 E17.51986
G1 X105.883 Y103.632 E17.61524
G1 X106.152 Y104.053 E17.67469
G1 X106.673 Y104.719 E17.77511
G1 X107.281 Y105.327 E17.87717
G1 X107.958 Y105.857 E17.97923
G1 X108.693 Y106.301 E18.08128
G1 X109.477 Y106.654 E18.18334
G1 X110.281 Y106.904 E18.28340
G1 X110.734 Y107.002 E18.33844
G1 X111.896 Y107.143 E18.47750
G1 X111.425 Y107.891 E18.58246
G1 X110.775 Y108.757 E18.71115
G1 X110.072 Y109.558 E18.83770
G1 X109.304 Y110.307 E18.96514
G1 X108.480 Y110.995 E19.09257
G1 X107.606 Y111.617 E19.22000
G1 X106.686 Y112.169 E19.34744
G1 X105.724 Y112.651 E19.47522
G1 X105.237 Y112.860 E19.53819
G1 X104.218 Y113.229 E19.66688
G1 X103.100 Y113.539 E19.80469
G1 X102.138 Y113.719 E19.92090
G1 X101.072 Y113.844 E20.04833
G1 X100.000 Y113.885 E20.17577
G1 X98.925 Y113.844 E20.30356
G1 X98.397 Y113.792 E20.36654
G1 X97.334 Y113.627 E20.49435
G1 X96.286 Y113.380 E20.62215
G1 X95.778 Y113.228 E20.68513
G1 X94.767 Y112.861 E20.81293
G1 X93.786 Y112.417 E20.94076
G1 X93.323 Y112.175 E21.00285
G1 X92.391 Y111.615 E21.13192
G1 X91.959 Y111.320 E21.19400
G1 X91.099 Y110.657 E21.32305
G1 X90.698 Y110.309 E21.38604
G1 X89.928 Y109.558 E21.51383
G1 X89.218 Y108.749 E21.64164
G1 X88.892 Y108.331 E21.70464
G1 X88.284 Y107.452 E21.83153
G1 X88.098 Y107.132 E21.87557
G1 X88.874 Y107.061 E21.96819
G1 X89.703 Y106.909 E22.06825
G1 X90.507 Y106.659 E22.16830
G1 X90.936 Y106.481 E22.22335
G1 X91.681 Y106.090 E22.32340
G1 X92.389 Y105.602 E22.42546
G1 X93.032 Y105.032 E22.52752
G1 X93.602 Y104.389 E22.62958
G1 X94.090 Y103.681 E22.73163
G1 X94.489 Y102.921 E22.83369
G1 X94.794 Y102.117 E22.93575
G1 X94.984 Y101.346 E23.03012
G1 X95.559 Y102.540 E23.18754
G1 X95.774 Y102.881 E23.23545
G1 X96.013 Y103.206 E23.28335
G1 X96.505 Y103.736 E23.36922
G1 X96.827 Y104.013 E23.41961
G1 X97.441 Y104.432 E23.50797
G1 X98.114 Y104.755 E23.59660
G1 X98.514 Y104.895 E23.64692
G1 X99.223 Y105.058 E23.73333
G1 X100.000 Y105.117 E23.82593
G1 X100.727 Y105.063 E23.91247
G1 X101.139 Y104.987 E23.96223
G1 X101.530 Y104.882 E24.01026
G1 X102.207 Y104.616 E24.09665
G1 X102.865 Y104.239 E24.18673
G1 X103.214 Y103.979 E24.23845
G1 X103.736 Y103.495 E24.32302
G1 X104.013 Y103.173 E24.37337
G1 X104.432 Y102.559 E24.46172
G1 X104.990 Y101.400 E24.61450
G1 X103.044 Y94.212 F11400.000
G1 X96.852 Y94.212 E25.34997 F1800.000
G1 X96.852 Y86.984 E26.20844
G1 X103.044 Y86.984 E26.94391
G1 X103.044 Y94.152 E27.79526
G1 X102.330 Y93.498 F11400.000
G1 X97.566 Y93.498 E28.36110 F1800.000
G1 X97.566 Y87.698 E29.04994
G1 X102.330 Y87.698 E29.61577
G1 X102.330 Y93.438 E30.29749
G1 X102.330 Y93.898 F11400.000
G1 X96.138 Y94.926 F11400.000
G1 X96.568 Y94.926 E30.34863 F1800.000
G1 X96.665 Y95.221 E30.38546
G1 X96.338 Y95.463 E30.43377
G1 X95.749 Y96.009 E30.52916
G1 X95.420 Y96.391 E30.58907
G1 X95.146 Y96.793 E30.64688
G1 X94.702 Y95.948 E30.76023
G1 X94.165 Y95.170 E30.87255
G1 X93.538 Y94.462 E30.98487
G1 X92.851 Y93.853 E31.09390
G1 X92.419 Y93.536 E31.15751
G1 X91.639 Y93.065 E31.26576
G1 X90.778 Y92.678 E31.37781
G1 X89.942 Y92.416 E31.48195
G1 X89.337 Y92.282 E31.55544
G1 X89.780 Y91.693 E31.64291
G1 X90.447 Y90.934 E31.76293
G1 X91.175 Y90.223 E31.88382
G1 X91.956 Y89.571 E32.00469
G1 X92.786 Y88.981 E32.12556
G1 X93.658 Y88.457 E32.24643
G1 X94.568 Y88.002 E32.36730
G1 X95.511 Y87.618 E32.48818
G1 X96.138 Y87.418 E32.56629
G1 X96.138 Y94.866 E33.45090
G1 X103.326 Y95.214 F11400.000
G1 X103.426 Y94.926 E33.48705 F1800.000
G1 X103.758 Y94.926 E33.52653
G1 X103.758 Y87.364 E34.42472
G1 X104.964 Y87.801 E34.57704
G1 X105.901 Y88.225 E34.69915
G1 X106.327 Y88.448 E34.75632
G1 X107.223 Y88.987 E34.88047
G1 X107.621 Y89.258 E34.93764
G1 X108.449 Y89.896 E35.06175
G1 X108.818 Y90.216 E35.11980
G1 X109.553 Y90.934 E35.24187
G1 X110.232 Y91.706 E35.36394
G1 X110.689 Y92.293 E35.45227
G1 X110.126 Y92.396 E35.52030
G1 X109.223 Y92.677 E35.63262
G1 X108.386 Y93.054 E35.74165
G1 X107.926 Y93.314 E35.80439
G1 X107.170 Y93.835 E35.91342
G1 X106.462 Y94.462 E36.02574
G1 X105.835 Y95.170 E36.13805
G1 X105.298 Y95.948 E36.25037
G1 X104.862 Y96.778 E36.36166
G1 X104.537 Y96.338 E36.42665
G1 X103.966 Y95.722 E36.52636
G1 X103.373 Y95.251 E36.61635
G1 X105.016 Y98.654 F11400.000
G1 X104.441 Y97.460 E36.77377 F1800.000
G1 X104.226 Y97.119 E36.82168
G1 X103.987 Y96.794 E36.86959
G1 X103.480 Y96.248 E36.95809
G1 X102.870 Y95.764 E37.05050
G1 X102.240 Y95.401 E37.13689
G1 X101.869 Y95.239 E37.18492
G1 X101.474 Y95.102 E37.23468
G1 X100.763 Y94.940 E37.32122
G1 X99.986 Y94.883 E37.41382
G1 X99.260 Y94.938 E37.50023
G1 X98.863 Y95.013 E37.54827
G1 X98.458 Y95.123 E37.59803
G1 X97.781 Y95.389 E37.68441
G1 X97.136 Y95.761 E37.77295
G1 X96.794 Y96.013 E37.82336
G1 X96.264 Y96.505 E37.90922
G1 X95.987 Y96.827 E37.95961
G1 X95.568 Y97.441 E38.04796
G1 X94.984 Y98.654 E38.20786
G1 X94.794 Y97.883 E38.30223
G1 X94.489 Y97.079 E38.40429
G1 X94.090 Y96.319 E38.50635
G1 X93.602 Y95.611 E38.60841
G1 X93.032 Y94.968 E38.71047
G1 X92.401 Y94.409 E38.81052
G1 X92.022 Y94.131 E38.86641
G1 X91.307 Y93.699 E38.96568
G1 X90.524 Y93.347 E39.06758
G1 X89.758 Y93.106 E39.16297
G1 X89.269 Y92.999 E39.22241
G1 X88.104 Y92.857 E39.36184
G1 X88.575 Y92.109 E39.46680
G1 X89.225 Y91.243 E39.59548
G1 X89.928 Y90.442 E39.72204
G1 X90.696 Y89.693 E39.84948
G1 X91.520 Y89.005 E39.97690
G1 X92.394 Y88.383 E40.10433
G1 X93.314 Y87.831 E40.23176
G1 X94.274 Y87.351 E40.35919
G1 X95.267 Y86.946 E40.48663
G1 X96.292 Y86.619 E40.61441
G1 X96.806 Y86.487 E40.67738
G1 X97.869 Y86.279 E40.80607
G1 X98.928 Y86.156 E40.93259
G1 X100.007 Y86.115 E41.06094
G1 X101.072 Y86.156 E41.18748
G1 X102.141 Y86.281 E41.31528
G1 X102.663 Y86.372 E41.37828
G1 X103.714 Y86.620 E41.50643
G1 X104.222 Y86.772 E41.56943
G1 X105.233 Y87.139 E41.69723
G1 X106.214 Y87.583 E41.82506
G1 X106.677 Y87.825 E41.88714
G1 X107.609 Y88.385 E42.01621
G1 X108.041 Y88.680 E42.07830
G1 X108.901 Y89.343 E42.20735
G1 X109.302 Y89.691 E42.27033
G1 X110.072 Y90.442 E42.39813
G1 X110.782 Y91.251 E42.52593
G1 X111.108 Y91.669 E42.58893
G1 X111.716 Y92.548 E42.71583
G1 X111.902 Y92.868 E42.75986
G1 X111.126 Y92.939 E42.85249
G1 X110.297 Y93.091 E42.95254
G1 X109.477 Y93.346 E43.05460
G1 X108.708 Y93.692 E43.15466
G1 X108.305 Y93.920 E43.20970
G1 X107.611 Y94.398 E43.30976
G1 X106.968 Y94.968 E43.41181
G1 X106.398 Y95.611 E43.51387
G1 X105.910 Y96.319 E43.61593
G1 X105.511 Y97.079 E43.71799
G1 X105.206 Y97.883 E43.82005
G1 X105.030 Y98.596 E43.90729
G1 X104.817 Y96.267 F11400.000
G1 X104.688 Y94.882 F11400.000
G1 X105.314 Y93.416 F11400.000
G1 X105.630 Y92.686 F11400.000
G1 X105.828 Y92.263 F11400.000
G1 X107.683 Y94.489 F11400.000
G1 X113.112 Y93.603 F11400.000
G1 X111.619 Y93.611 E44.08464 F1800.000
G1 X111.223 Y93.647 E44.13187
G1 X110.468 Y93.785 E44.22294
G1 X109.730 Y94.015 E44.31474
G1 X109.031 Y94.330 E44.40582
G1 X108.684 Y94.526 E44.45317
G1 X108.053 Y94.961 E44.54425
G1 X107.474 Y95.474 E44.63605
G1 X106.961 Y96.053 E44.72785
G1 X106.522 Y96.689 E44.81964
G1 X106.163 Y97.373 E44.91144
G1 X105.889 Y98.096 E45.00324
G1 X105.704 Y98.846 E45.09504
G1 X105.611 Y99.614 E45.18683
G1 X105.611 Y100.386 E45.27863
G1 X105.704 Y101.154 E45.37043
G1 X105.889 Y101.904 E45.46223
G1 X106.163 Y102.627 E45.55399
G1 X106.501 Y103.273 E45.64063
G1 X106.735 Y103.640 E45.69232
G1 X107.209 Y104.244 E45.78353
G1 X107.756 Y104.791 E45.87533
G1 X108.364 Y105.268 E45.96712
G1 X109.025 Y105.668 E46.05892
G1 X109.730 Y105.985 E46.15072
G1 X110.462 Y106.213 E46.24180
G1 X110.852 Y106.297 E46.28915
G1 X111.612 Y106.389 E46.38010
G1 X113.112 Y106.397 E46.55817
G1 X112.891 Y106.854 E46.61853
G1 X112.325 Y107.826 E46.75204
G1 X112.009 Y108.303 E46.81996
G1 X111.330 Y109.208 E46.95440
G1 X110.590 Y110.050 E47.08749
G1 X109.783 Y110.838 E47.22148
G1 X108.917 Y111.561 E47.35546
G1 X107.997 Y112.215 E47.48945
G1 X107.030 Y112.796 E47.62344
G1 X106.025 Y113.299 E47.75696
G1 X105.499 Y113.524 E47.82488
G1 X104.435 Y113.910 E47.95932
G1 X103.355 Y114.209 E48.09240
G1 X102.248 Y114.426 E48.22639
G1 X101.127 Y114.556 E48.36038
