; generated by Slic3r 1.2.9 on 2016-06-06 at 22:24:55

; external perimeters extrusion width = 0.40mm
; perimeters extrusion width = 0.67mm
; infill extrusion width = 0.67mm
; solid infill extrusion width = 0.67mm
; top infill extrusion width = 0.67mm

M107
M190 S55 ; set bed temperature
M104 S200 ; set temperature
G28 ; home all axes
G1 Z5 F5000 ; lift nozzle

M109 S200 ; wait for temperature to be reached
G21 ; set units to millimeters
G90 ; use absolute coordinates
M82 ; use absolute distances for extrusion
G92 E0
G1 Z0.400 F11400.000
G1 E-2.00000 F2400.00000
G92 E0
G1 X84.774 Y84.519 F11400.000
G1 E2.00000 F2400.00000
G1 X85.486 Y83.849 E2.11606 F1800.000
G1 X86.191 Y83.244 E2.22641
G1 X86.778 Y82.776 E2.31562
G1 X87.342 Y82.357 E2.39904
G1 X88.149 Y81.805 E2.51513
G1 X88.935 Y81.317 E2.62502
G1 X90.165 Y80.642 E2.79165
G1 X90.977 Y80.250 E2.89874
G1 X91.868 Y79.866 E3.01397
G1 X92.729 Y79.540 E3.12327
G1 X94.065 Y79.114 E3.28989
G1 X94.942 Y78.883 E3.39755
G1 X95.889 Y78.679 E3.51258
G1 X96.793 Y78.525 E3.62151
G1 X98.186 Y78.363 E3.78814
G1 X99.095 Y78.305 E3.89628
G1 X100.073 Y78.286 E4.01240
G1 X100.905 Y78.305 E4.11125 F1800.000
G1 X101.742 Y78.356 E4.21087
G1 X102.580 Y78.440 E4.31094
G1 X103.410 Y78.555 E4.41036
G1 X104.237 Y78.704 E4.51024
G1 X105.059 Y78.884 E4.61019
G1 X105.872 Y79.095 E4.70990
G1 X106.675 Y79.338 E4.80956
G1 X107.471 Y79.612 E4.90946
G1 X108.253 Y79.916 E5.00913
G1 X109.023 Y80.250 E5.10881
G1 X109.781 Y80.614 E5.20875
G1 X110.523 Y81.006 E5.30836
G1 X111.249 Y81.427 E5.40813
G1 X111.960 Y81.877 E5.50802
G1 X112.698 Y82.387 E5.61456
G1 X113.809 Y83.244 E5.78119
G1 X114.446 Y83.790 E5.88084
G1 X115.128 Y84.423 E5.99127
G1 X115.655 Y84.954 E6.08015
G1 X116.286 Y85.638 E6.19070
G1 X116.830 Y86.280 E6.29062
G1 X117.348 Y86.941 E6.39034
G1 X117.835 Y87.614 E6.48911
G1 X118.306 Y88.321 E6.58988
G1 X118.813 Y89.158 E6.70612
G1 X119.235 Y89.927 E6.81038
G1 X119.846 Y91.190 E6.97701
G1 X119.881 Y91.268 E6.98713
G1 X120.427 Y93.315 E7.23873
G1 X120.668 Y95.666 E7.51941
G1 X120.714 Y96.500 E7.61861
G1 X120.714 Y103.500 E8.44997
G1 X120.695 Y104.001 E8.50956
G1 X120.427 Y106.685 E8.82987
G1 X119.881 Y108.732 E9.08146
G1 X119.846 Y108.810 E9.09160
G1 X119.235 Y110.073 E9.25822
G1 X118.813 Y110.843 E9.36252
G1 X118.306 Y111.679 E9.47870
G1 X117.840 Y112.379 E9.57862
G1 X117.290 Y113.134 E9.68949
G1 X116.406 Y114.224 E9.85612
G1 X115.718 Y114.981 E9.97765
G1 X115.127 Y115.578 E10.07746
G1 X114.446 Y116.210 E10.18773
G1 X113.369 Y117.109 E10.35436
G1 X112.651 Y117.648 E10.46097
G1 X111.851 Y118.195 E10.57613
G1 X111.139 Y118.639 E10.67579
G1 X110.335 Y119.096 E10.78562
G1 X109.080 Y119.724 E10.95226
G1 X108.252 Y120.085 E11.05956
G1 X107.349 Y120.433 E11.17448
G1 X106.551 Y120.702 E11.27446
G1 X105.745 Y120.940 E11.37424
G1 X104.856 Y121.163 E11.48317
G1 X104.034 Y121.335 E11.58283
G1 X102.648 Y121.551 E11.74946
G1 X101.744 Y121.644 E11.85746
G1 X100.906 Y121.695 E11.95716
G1 X100.067 Y121.714 E12.05683
G1 X99.094 Y121.695 E12.17233
G1 X98.256 Y121.644 E12.27203
G1 X97.352 Y121.551 E12.38002
G1 X95.966 Y121.335 E12.54666
G1 X95.144 Y121.163 E12.64631
G1 X94.255 Y120.940 E12.75525
G1 X93.448 Y120.702 E12.85516
G1 X92.652 Y120.433 E12.95491
G1 X91.748 Y120.085 E13.07002
G1 X90.975 Y119.749 E13.17003
G1 X90.165 Y119.358 E13.27689
G1 X88.935 Y118.683 E13.44352
G1 X88.222 Y118.241 E13.54316
G1 X87.454 Y117.723 E13.65315
G1 X86.778 Y117.224 E13.75300
G1 X86.121 Y116.700 E13.85279
G1 X85.486 Y116.151 E13.95241
G1 X84.872 Y115.577 E14.05221
G1 X84.187 Y114.880 E14.16834
G1 X83.628 Y114.263 E14.26719
G1 X83.057 Y113.579 E14.37306
G1 X82.215 Y112.457 E14.53968
G1 X81.747 Y111.760 E14.63934
G1 X81.257 Y110.963 E14.75051
G1 X80.846 Y110.229 E14.85033
G1 X80.465 Y109.481 E14.95010
G1 X80.119 Y108.732 E15.04802
G1 X79.573 Y106.685 E15.29967
G1 X79.332 Y104.334 E15.58035
G1 X79.286 Y103.500 E15.67955
G1 X79.286 Y96.500 E16.51091
G1 X79.332 Y95.666 E16.61011
G1 X79.573 Y93.315 E16.89079
G1 X80.119 Y91.269 E17.14233
G1 X80.465 Y90.519 E17.24041
G1 X80.765 Y89.927 E17.31917
G1 X81.256 Y89.037 E17.43992
G1 X81.695 Y88.320 E17.53971
G1 X82.082 Y87.735 E17.62305
G1 X82.710 Y86.866 E17.75043
G1 X83.170 Y86.279 E17.83903
G1 X83.714 Y85.639 E17.93876
G1 X84.281 Y85.020 E18.03847
G1 X84.732 Y84.562 E18.11482
G1 E16.11482 F2400.00000
G92 E0
G1 X102.385 Y112.387 F11400.000
G1 E2.00000 F2400.00000
G1 X97.620 Y112.387 E2.56603 F1800.000
G1 X97.620 Y106.587 E3.25486
G1 X102.385 Y106.587 E3.82089
G1 X102.385 Y112.327 E4.50260
G1 X102.985 Y105.987 F11400.000
G1 X102.599 Y104.921 F11400.000
G1 X102.216 Y105.009 F11400.000
G1 X101.863 Y105.078 F11400.000
G1 X101.527 Y104.232 F11400.000
G1 X100.705 Y103.837 F11400.000
G1 X100.076 Y103.901 E4.57773 F1800.000
G1 X99.445 Y103.861 E4.65285
G1 X98.862 Y103.731 E4.72372
G1 X98.555 Y103.623 E4.76239
G1 X97.996 Y103.347 E4.83653
G1 X97.505 Y102.999 E4.90793
G1 X97.264 Y102.780 E4.94663
G1 X96.867 Y102.324 E5.01836
G1 X96.684 Y102.054 E5.05708
G1 X96.407 Y101.518 E5.12881
G1 X96.293 Y101.213 E5.16752
G1 X96.150 Y100.628 E5.23905
G1 X96.099 Y100.008 E5.31283
G1 X96.112 Y99.682 E5.35160
G1 X96.209 Y99.078 E5.42428
G1 X96.403 Y98.489 E5.49790
G1 X96.688 Y97.938 E5.57153
G1 X97.051 Y97.446 E5.64420
G1 X97.275 Y97.209 E5.68294
G1 X97.742 Y96.820 E5.75511
G1 X98.015 Y96.643 E5.79373
G1 X98.550 Y96.379 E5.86461
G1 X99.154 Y96.191 E5.93974
G1 X99.781 Y96.105 E6.01485 F1800.000
G1 X100.377 Y96.118 E6.08573
G1 X100.699 Y96.163 E6.12434
G1 X101.290 Y96.318 E6.19691
G1 X101.868 Y96.575 E6.27199
G1 X102.368 Y96.901 E6.34289
G1 X102.623 Y97.113 E6.38235
G1 X103.043 Y97.559 E6.45506
G1 X103.387 Y98.065 E6.52773
G1 X103.533 Y98.348 E6.56551
G1 X103.656 Y98.641 E6.60329
G1 X103.824 Y99.229 E6.67597
G1 X103.897 Y99.837 E6.74864
G1 X103.897 Y100.163 E6.78735
G1 X103.826 Y100.761 E6.85888
G1 X103.654 Y101.366 E6.93361
G1 X103.391 Y101.928 E7.00728
G1 X103.048 Y102.434 E7.07996
G1 X102.839 Y102.674 E7.11774
G1 X102.612 Y102.897 E7.15550
G1 X102.134 Y103.266 E7.22725
G1 X101.585 Y103.564 E7.30140
G1 X101.282 Y103.684 E7.34005
G1 X100.763 Y103.821 E7.40381
G1 E5.40381 F2400.00000
G92 E0
G1 X103.511 Y97.184 F11400.000
G1 X104.324 Y95.333 F11400.000
G1 X103.170 Y95.269 F11400.000
G1 X103.018 Y95.235 F11400.000
G1 X102.930 Y95.213 F11400.000
G1 X102.930 Y94.098 F11400.000
G1 X102.330 Y93.498 F11400.000
G1 E2.00000 F2400.00000
G1 X97.566 Y93.498 E2.56584 F1800.000
G1 X97.566 Y87.698 E3.25468
G1 X102.330 Y87.698 E3.82051
G1 X102.330 Y93.438 E4.50223
G1 X113.112 Y93.603 F11400.000
G1 X111.619 Y93.611 E4.67957 F1800.000
G1 X111.223 Y93.647 E4.72680
G1 X110.468 Y93.785 E4.81788
G1 X109.730 Y94.015 E4.90968
G1 X109.031 Y94.330 E5.00076
G1 X108.684 Y94.526 E5.04811
G1 X108.053 Y94.961 E5.13919
G1 X107.474 Y95.474 E5.23098
G1 X106.961 Y96.053 E5.32278
G1 X106.522 Y96.689 E5.41458
G1 X106.163 Y97.373 E5.50638
G1 X105.889 Y98.096 E5.59817
G1 X105.704 Y98.846 E5.68997
G1 X105.611 Y99.614 E5.78177
G1 X105.611 Y100.386 E5.87357
G1 X105.704 Y101.154 E5.96536
G1 X105.889 Y101.904 E6.05716
G1 X106.163 Y102.627 E6.14892
G1 X106.501 Y103.273 E6.23557
G1 X106.735 Y103.640 E6.28725
G1 X107.209 Y104.244 E6.37846
G1 X107.756 Y104.791 E6.47026
G1 X108.364 Y105.268 E6.56206
G1 X109.025 Y105.668 E6.65386
G1 X109.730 Y105.985 E6.74565
G1 X110.462 Y106.213 E6.83673
G1 X110.852 Y106.297 E6.88408
G1 X111.612 Y106.389 E6.97504
G1 X113.112 Y106.397 E7.15311
G1 X112.891 Y106.854 E7.21346
G1 X112.325 Y107.826 E7.34698
G1 X112.009 Y108.303 E7.41489
G1 X111.330 Y109.208 E7.54933
G1 X110.590 Y110.050 E7.68242
G1 X109.783 Y110.838 E7.81641
G1 X108.917 Y111.561 E7.95040
G1 X107.997 Y112.215 E8.08439
G1 X107.030 Y112.796 E8.21838
G1 X106.025 Y113.299 E8.35190
G1 X105.499 Y113.524 E8.41981
G1 X104.435 Y113.910 E8.55425
G1 X103.355 Y114.209 E8.68734
G1 X102.248 Y114.426 E8.82133
G1 X101.127 Y114.556 E8.95531
G1 X100.000 Y114.600 E9.08931
G1 X98.877 Y114.556 E9.22283
G1 X98.307 Y114.501 E9.29075
G1 X97.196 Y114.328 E9.42428
G1 X96.102 Y114.070 E9.55781
G1 X95.554 Y113.906 E9.62574
G1 X94.497 Y113.523 E9.75926
G1 X93.473 Y113.059 E9.89281
G1 X92.973 Y112.798 E9.95981
G1 X92.006 Y112.217 E10.09380
G1 X91.540 Y111.899 E10.16081
G1 X90.646 Y111.210 E10.29479
G1 X90.215 Y110.835 E10.36271
G1 X89.410 Y110.050 E10.49623
G1 X88.668 Y109.205 E10.62977
G1 X88.316 Y108.754 E10.69770
G1 X87.681 Y107.836 E10.83031
G1 X87.109 Y106.854 E10.96521
G1 X86.888 Y106.397 E11.02555
G1 X88.381 Y106.389 E11.20290
G1 X88.777 Y106.353 E11.25013
G1 X89.532 Y106.215 E11.34121
G1 X90.264 Y105.987 E11.43229
G1 X90.632 Y105.834 E11.47964
G1 X91.311 Y105.478 E11.57072
G1 X91.947 Y105.039 E11.66252
G1 X92.526 Y104.526 E11.75431
G1 X93.039 Y103.947 E11.84611
G1 X93.478 Y103.311 E11.93791
G1 X93.837 Y102.627 E12.02971
G1 X94.111 Y101.904 E12.12150
G1 X94.296 Y101.154 E12.21330
G1 X94.389 Y100.386 E12.30510
G1 X94.389 Y99.614 E12.39690
G1 X94.296 Y98.846 E12.48869
G1 X94.111 Y98.096 E12.58049
G1 X93.837 Y97.373 E12.67229
G1 X93.478 Y96.689 E12.76409
G1 X93.039 Y96.053 E12.85588
G1 X92.526 Y95.474 E12.94768
G1 X91.952 Y94.965 E13.03876
G1 X91.625 Y94.725 E13.08692
G1 X90.974 Y94.332 E13.17721
G1 X90.270 Y94.015 E13.26895
G1 X89.574 Y93.797 E13.35560
G1 X89.149 Y93.704 E13.40729
G1 X88.388 Y93.611 E13.49837
G1 X86.888 Y93.603 E13.67644
G1 X87.109 Y93.146 E13.73679
G1 X87.675 Y92.174 E13.87031
G1 X87.991 Y91.697 E13.93823
G1 X88.670 Y90.792 E14.07267
G1 X89.410 Y89.950 E14.20575
G1 X90.217 Y89.162 E14.33975
G1 X91.083 Y88.439 E14.47373
G1 X92.003 Y87.785 E14.60772
G1 X92.970 Y87.204 E14.74171
G1 X93.979 Y86.700 E14.87569
G1 X95.024 Y86.275 E15.00968
G1 X96.095 Y85.932 E15.14321
G1 X96.649 Y85.790 E15.21112
G1 X97.760 Y85.573 E15.34556
G1 X98.873 Y85.444 E15.47863
G1 X100.008 Y85.400 E15.61354
G1 X101.127 Y85.444 E15.74662
G1 X102.244 Y85.574 E15.88015
G1 X102.807 Y85.673 E15.94808
G1 X103.898 Y85.930 E16.08114
G1 X104.446 Y86.094 E16.14907
G1 X105.503 Y86.477 E16.28259
G1 X106.527 Y86.941 E16.41614
G1 X107.027 Y87.202 E16.48314
G1 X107.994 Y87.783 E16.61713
G1 X108.460 Y88.101 E16.68414
G1 X109.354 Y88.790 E16.81812
G1 X109.785 Y89.165 E16.88604
G1 X110.590 Y89.950 E17.01956
G1 X111.332 Y90.795 E17.15310
G1 X111.684 Y91.246 E17.22103
G1 X112.319 Y92.164 E17.35364
G1 X112.891 Y93.146 E17.48854
G1 X113.086 Y93.549 E17.54176
G1 X110.520 Y90.739 F11400.000
G1 X109.165 Y89.383 E17.77552 F1800.000
G1 X106.014 Y87.270 F11400.000
G1 X111.919 Y93.175 E18.79384 F1800.000
G1 X110.981 Y93.274 E18.90885
G1 X104.262 Y86.555 E20.06750
G1 X102.838 Y86.167 E20.24753
G1 X110.141 Y93.471 E21.50704
G1 X109.382 Y93.748 E21.60566
G1 X101.588 Y85.955 E22.94965
G1 X100.456 Y85.860 E23.08815
G1 X101.859 Y87.263 E23.33009
G1 X100.822 Y87.263 E23.45653
G1 X99.413 Y85.853 E23.69956
G1 X98.439 Y85.916 E23.81859
G1 X99.785 Y87.263 E24.05078
G1 X98.748 Y87.263 E24.17722
G1 X97.522 Y86.037 E24.38864
G1 X96.655 Y86.206 E24.49644
G1 X97.711 Y87.263 E24.67866
G1 X97.130 Y87.719 F11400.000
G1 X95.841 Y86.430 E24.90096 F1800.000
G1 X95.056 Y86.682 E25.00147
G1 X97.130 Y88.756 E25.35910
G1 X97.130 Y89.793 E25.48554
G1 X94.319 Y86.982 E25.97027
G1 X93.613 Y87.312 E26.06540
G1 X97.130 Y90.830 E26.67201
G1 X97.130 Y91.867 E26.79846
G1 X92.933 Y87.669 E27.52232
G1 X92.285 Y88.058 E27.61447
G1 X97.130 Y92.904 E28.45004
G1 X97.123 Y93.934 E28.57565
G1 X99.010 Y95.820 E28.90095
G1 X98.251 Y96.098 E28.99953
G1 X91.081 Y88.928 E30.23592
G1 X90.516 Y89.400 E30.32569
G1 X97.586 Y96.470 E31.54498
G1 X97.018 Y96.939 E31.63481
G1 X89.997 Y89.918 E32.84542
G1 X89.479 Y90.437 E32.93483
G1 X96.544 Y97.502 E34.15318
G1 X96.150 Y98.145 E34.24513
G1 X88.994 Y90.989 E35.47918
G1 X88.548 Y91.580 E35.56945
G1 X90.565 Y93.596 E35.91723
G1 X89.180 Y93.249 E36.09127
G1 X88.118 Y92.187 E36.27437
G1 X87.730 Y92.835 E36.36653
G1 X88.067 Y93.173 E36.42477
G1 X91.672 Y88.482 F11400.000
G1 X97.130 Y93.940 E37.36607 F1800.000
G1 X98.160 Y93.934 E37.49169
G1 X99.896 Y95.669 E37.79099
G1 X101.014 Y95.750 E37.92763
G1 X99.197 Y93.934 E38.24084
G1 X100.234 Y93.934 E38.36729
G1 X105.268 Y98.967 E39.23532
G1 X105.465 Y98.128 E39.34048
G1 X101.271 Y93.934 E40.06375
G1 X102.308 Y93.934 E40.19019
G1 X105.745 Y97.371 E40.78289
G1 X106.094 Y96.682 E40.87698
G1 X102.766 Y93.354 E41.45090
G1 X102.766 Y92.317 E41.57735
G1 X106.503 Y96.054 E42.22183
G1 X106.968 Y95.482 E42.31171
G1 X102.766 Y91.280 E43.03639
G1 X102.766 Y90.243 E43.16283
G1 X107.487 Y94.964 E43.97696
G1 X108.059 Y94.500 E44.06685
G1 X102.766 Y89.206 E44.97969
G1 X102.766 Y88.169 E45.10614
G1 X108.685 Y94.088 E46.12685
G1 E44.12685 F2400.00000
G92 E0
G1 X105.454 Y97.518 F11400.000
G1 X103.680 Y95.332 F11400.000
G1 X102.714 Y95.154 F11400.000
G1 X102.251 Y95.043 F11400.000
G1 X102.149 Y95.021 F11400.000
G1 X101.847 Y94.963 F11400.000
G1 X101.527 Y95.768 F11400.000
G1 X95.855 Y98.887 F11400.000
G1 E2.00000 F2400.00000
G1 X94.389 Y97.421 E2.25294 F1800.000
G1 X94.751 Y98.820 E2.42919
G1 X95.109 Y99.178 E2.49088
G1 X94.746 Y100.017 F11400.000
G1 X95.425 Y100.004 E2.57154 F1800.000
G1 X95.700 Y100.245 E2.61494
G1 X95.734 Y100.297 E2.62236
G1 X95.752 Y100.408 E2.63565
G1 E0.63565 F2400.00000
G92 E0
G1 X100.136 Y104.497 F11400.000
G1 X101.863 Y105.078 F11400.000
G1 X103.040 Y104.803 F11400.000
G1 X103.550 Y104.709 F11400.000
G1 X103.702 Y104.694 F11400.000
G1 X104.140 Y104.677 F11400.000
G1 X103.020 Y103.337 F11400.000
G1 X104.254 Y100.001 F11400.000
G1 E2.00000 F2400.00000
G1 X105.254 Y100.001 E2.11871 F1800.000
G1 X104.905 Y100.836 F11400.000
G1 X105.249 Y101.180 E2.17801 F1800.000
G1 X105.611 Y102.579 E2.35426
G1 X104.142 Y101.111 E2.60757
G1 X102.754 Y103.559 F11400.000
G1 X102.985 Y104.818 F11400.000
G1 X102.296 Y104.992 F11400.000
G1 X102.165 Y105.020 F11400.000
G1 X101.863 Y105.078 F11400.000
G1 X101.527 Y104.232 F11400.000
G1 X100.095 Y104.322 F11400.000
G1 X101.925 Y106.151 E2.92309 F1800.000
G1 X100.888 Y106.151 E3.04954
G1 X98.977 Y104.240 E3.37911
G1 X97.777 Y106.151 F11400.000
G1 X94.255 Y102.629 E3.98649 F1800.000
G1 X94.535 Y101.872 E4.08492
G1 X98.814 Y106.151 E4.82286
G1 X99.851 Y106.151 E4.94931
G1 X94.732 Y101.033 E5.83202
G1 X97.184 Y106.596 F11400.000
G1 X93.906 Y103.318 E6.39727 F1800.000
G1 X93.497 Y103.946 E6.48865
G1 X97.184 Y107.633 E7.12446
G1 X97.184 Y108.670 E7.25090
G1 X93.032 Y104.518 E7.96690
G1 X92.513 Y105.036 E8.05631
G1 X97.184 Y109.706 E8.86176
G1 X97.184 Y110.743 E8.98821
G1 X91.941 Y105.500 E9.89238
G1 X91.313 Y105.909 E9.98377
G1 X97.184 Y111.780 E10.99629
G1 X97.184 Y112.817 E11.12274
G1 X90.625 Y106.258 E12.25385
G1 X89.859 Y106.529 E12.35294
G1 X97.162 Y113.833 E13.61241
G1 X98.419 Y114.052 E13.76801
G1 X97.189 Y112.823 E13.98011
G1 X98.226 Y112.823 E14.10656
G1 X99.544 Y114.140 E14.33382
G1 X100.587 Y114.147 E14.46107
G1 X99.263 Y112.823 E14.68945
G1 X100.300 Y112.823 E14.81590
G1 X101.561 Y114.084 E15.03339
G1 X102.478 Y113.964 E15.14614
G1 X101.337 Y112.823 E15.34292
G1 X102.374 Y112.823 E15.46936
G1 X103.345 Y113.794 E15.63687
G1 X104.159 Y113.571 E15.73975
G1 X102.821 Y112.233 E15.97049
G1 X102.821 Y111.196 E16.09693
G1 X104.936 Y113.310 E16.46164
G1 X105.685 Y113.022 E16.55948
G1 X102.821 Y110.159 E17.05334
G1 X102.821 Y109.122 E17.17979
G1 X106.387 Y112.688 E17.79482
G1 X107.067 Y112.331 E17.88846
G1 X102.821 Y108.085 E18.62073
G1 X102.821 Y107.048 E18.74717
G1 X107.715 Y111.942 E19.59114
G1 X108.328 Y111.518 E19.68203
G1 X100.988 Y104.177 E20.94789
G1 X101.754 Y103.907 E21.04697
G1 X108.919 Y111.072 E22.28259
G1 X109.484 Y110.600 E22.37237
G1 X102.410 Y103.526 E23.59229
G1 X102.980 Y103.059 E23.68214
G1 X110.003 Y110.082 E24.89324
G1 X110.521 Y109.563 E24.98265
G1 X103.458 Y102.500 E26.20062
G1 X103.851 Y101.856 E26.29262
G1 X111.006 Y109.011 E27.52649
G1 X111.452 Y108.420 E27.61677
G1 X109.435 Y106.403 E27.96456
G1 X110.820 Y106.751 E28.13860
G1 X111.882 Y107.813 E28.32170
G1 X111.933 Y106.827 E28.44206
G1 X112.270 Y107.165 E28.50030
G1 X110.868 Y108.825 F11400.000
G1 X105.774 Y109.610 F11400.000
G1 X104.318 Y111.909 F11400.000
G1 X103.139 Y113.292 F11400.000
G1 X100.000 Y113.493 F11400.000
G1 X98.434 Y113.448 F11400.000
