; generated by Slic3r 1.2.9 on 2016-09-01 at 22:31:23

; external perimeters extrusion width = 0.40mm
; perimeters extrusion width = 0.42mm
; infill extrusion width = 0.42mm
; solid infill extrusion width = 0.42mm
; top infill extrusion width = 0.42mm

M107
M190 S30 ; set bed temperature
M104 S190 ; set temperature
G28 ; home all axes
G1 Z5 F5000 ; lift nozzle

M109 S190 ; wait for temperature to be reached
G21 ; set units to millimeters
G90 ; use absolute coordinates
M82 ; use absolute distances for extrusion
G92 E0
G1 Z0.400 F11400.000
G1 E-2.00000 F2400.00000
G92 E0
G1 X89.384 Y85.765 F11400.000
G1 E2.00000 F2400.00000
G1 X108.903 Y65.423 E5.34817 F1800.000
G1 X110.764 Y64.057 E5.62240
G1 X113.747 Y63.357 E5.98633
G1 X119.158 Y63.357 E6.62894
G1 X121.433 Y63.754 E6.90316
G1 X123.438 Y64.898 E7.17739 F1800.000
G1 X124.662 Y66.226 E7.39183
G1 X142.237 Y91.381 E11.03634
G1 X142.821 Y92.247 E11.16035
G1 X143.327 Y93.050 E11.27306
G1 X143.809 Y93.867 E11.38576
G1 X144.266 Y94.699 E11.49848
G1 X144.698 Y95.544 E11.61118
G1 X145.105 Y96.401 E11.72389
G1 X145.486 Y97.271 E11.83660
G1 X145.841 Y98.151 E11.94931
G1 X146.169 Y99.041 E12.06202
G1 X146.470 Y99.941 E12.17473
G1 X146.745 Y100.850 E12.28744
G1 X146.992 Y101.766 E12.40014
G1 X147.211 Y102.689 E12.51286
G1 X147.403 Y103.619 E12.62557
G1 X147.567 Y104.553 E12.73827
G1 X147.785 Y106.198 E12.93537
G1 X147.875 Y107.181 E13.05253
G1 X147.932 Y108.128 E13.16523
G1 X147.961 Y109.077 E13.27794
G1 X147.961 Y110.026 E13.39066
G1 X147.933 Y110.974 E13.50335
G1 X147.877 Y111.922 E13.61608
G1 X147.792 Y112.867 E13.72878
G1 X147.679 Y113.809 E13.84149
G1 X147.538 Y114.748 E13.95420
G1 X147.329 Y115.878 E14.09076
G1 X147.126 Y116.805 E14.20347
G1 X146.895 Y117.726 E14.31619
G1 X146.637 Y118.639 E14.42889
G1 X146.352 Y119.544 E14.54160
G1 X146.040 Y120.441 E14.65431
G1 X145.701 Y121.327 E14.76701
G1 X145.336 Y122.203 E14.87974
G1 X144.945 Y123.067 E14.99244
G1 X144.528 Y123.920 E15.10515
G1 X144.122 Y124.694 E15.20897
G1 X128.888 Y152.551 E18.97975
G1 X127.448 Y154.356 E19.25397
G1 X125.482 Y155.566 E19.52820
G1 X124.033 Y155.963 E19.70659
G1 X120.194 Y156.562 E20.16800
G1 X119.158 Y156.643 E20.29143
G1 X113.747 Y156.643 E20.93404
G1 X111.473 Y156.246 E21.20826
G1 X108.845 Y154.516 E21.58198
G1 X75.853 Y119.251 E27.31731
G1 X75.083 Y118.353 E27.45777
G1 X74.621 Y117.731 E27.54981
G1 X74.004 Y116.773 E27.68518
G1 X73.629 Y116.095 E27.77718
G1 X73.292 Y115.397 E27.86919
G1 X72.993 Y114.683 E27.96116
G1 X72.613 Y113.563 E28.10165
G1 X72.415 Y112.814 E28.19365
G1 X72.259 Y112.055 E28.28566
G1 X72.144 Y111.289 E28.37761
G1 X72.070 Y110.518 E28.46963
G1 X72.039 Y109.379 E28.60497
G1 X72.070 Y108.604 E28.69701
G1 X72.144 Y107.833 E28.78903
G1 X72.259 Y107.067 E28.88098
G1 X72.415 Y106.309 E28.97299
G1 X72.613 Y105.560 E29.06499
G1 X72.993 Y104.440 E29.20548
G1 X73.292 Y103.725 E29.29746
G1 X73.629 Y103.027 E29.38949
G1 X74.004 Y102.349 E29.48151
G1 X74.621 Y101.391 E29.61686
G1 X75.083 Y100.770 E29.70886
G1 X75.853 Y99.871 E29.84939
G1 X89.343 Y85.808 E32.16375
G1 E30.16375 F2400.00000
G92 E0
G1 X118.758 Y147.162 F11400.000
G1 E2.00000 F2400.00000
G1 X118.758 Y149.529 E2.28106 F1800.000
G1 X114.147 Y149.529 E2.82866
G1 X114.147 Y145.275 E3.33383
G1 X109.080 Y143.201 E3.98409
G1 X109.080 Y141.703 E4.16195
G1 X114.147 Y139.757 E4.80660
G1 X114.147 Y134.550 E5.42502
G1 X112.813 Y134.689 E5.58440
G1 X112.368 Y134.662 E5.63727
G1 X111.908 Y134.594 E5.69250
G1 X111.479 Y134.465 E5.74576
G1 X111.044 Y134.291 E5.80143
G1 X110.562 Y134.011 E5.86757
G1 X110.295 Y133.806 E5.90758
G1 X109.836 Y133.312 E5.98762
G1 X109.027 Y133.076 E6.08778
G1 X107.642 Y132.605 E6.26148
G1 X106.321 Y132.068 E6.43081
G1 X105.627 Y131.749 E6.52153
G1 X104.977 Y131.425 E6.60783
G1 X103.729 Y130.735 E6.77715
G1 X102.465 Y129.935 E6.95489
G1 X101.281 Y129.081 E7.12821
G1 X100.175 Y128.181 E7.29754
G1 X99.607 Y127.675 E7.38791
G1 X98.558 Y126.652 E7.56192
G1 X98.062 Y126.124 E7.64790
G1 X97.110 Y125.014 E7.82160
G1 X96.248 Y123.879 E7.99093
G1 X95.812 Y123.251 E8.08165
G1 X95.417 Y122.642 E8.16795
G1 X94.676 Y121.380 E8.34164
G1 X94.013 Y120.080 E8.51500
G1 X93.442 Y118.774 E8.68432
G1 X93.167 Y118.064 E8.77469
G1 X92.703 Y116.678 E8.94836
G1 X92.331 Y115.301 E9.11769
G1 X92.005 Y113.851 E9.29421
G1 X90.919 Y114.910 E9.47437
G1 X90.629 Y115.150 E9.51903
G1 X89.991 Y115.596 E9.61154
G1 X89.312 Y115.967 E9.70342
G1 X88.610 Y116.257 E9.79357
G1 X88.233 Y116.379 E9.84064
G1 X87.489 Y116.552 E9.93138
G1 X86.712 Y116.646 E10.02429
G1 X85.933 Y116.653 E10.11681
G1 X85.164 Y116.577 E10.20867
G1 X84.407 Y116.417 E10.30053
G1 X83.672 Y116.176 E10.39240
G1 X82.963 Y115.854 E10.48491
G1 X82.634 Y115.671 E10.52956
G1 X81.982 Y115.234 E10.62272
G1 X81.688 Y115.000 E10.66739
G1 X81.134 Y114.482 E10.75753
G1 X80.616 Y113.880 E10.85179
G1 X80.180 Y113.242 E10.94361
G1 X79.816 Y112.559 E11.03547
G1 X79.528 Y111.842 E11.12734
G1 X79.320 Y111.097 E11.21920
G1 X79.194 Y110.334 E11.31106
G1 X79.151 Y109.556 E11.40357
G1 X79.162 Y109.174 E11.44888
G1 X79.193 Y108.794 E11.49418
G1 X79.320 Y108.026 E11.58669
G1 X79.528 Y107.281 E11.67857
G1 X79.810 Y106.576 E11.76872
G1 X79.986 Y106.221 E11.81580
G1 X80.382 Y105.567 E11.90653
G1 X80.613 Y105.246 E11.95360
G1 X81.120 Y104.655 E12.04606
G1 X81.673 Y104.135 E12.13621
G1 X81.983 Y103.888 E12.18329
G1 X82.618 Y103.462 E12.27402
G1 X83.311 Y103.099 E12.36694
G1 X84.041 Y102.814 E12.46010
G1 X84.402 Y102.706 E12.50477
G1 X85.144 Y102.549 E12.59490
G1 X85.939 Y102.468 E12.68982
G1 X86.315 Y102.462 E12.73444
G1 X87.072 Y102.510 E12.82458
G1 X87.854 Y102.645 E12.91884
G1 X88.597 Y102.861 E13.01068
G1 X89.299 Y103.150 E13.10082
G1 X89.986 Y103.523 E13.19374
G1 X90.629 Y103.972 E13.28690
G1 X90.919 Y104.212 E13.33155
G1 X91.997 Y105.263 E13.51037
G1 X92.505 Y103.138 E13.76992
G1 X92.920 Y101.765 E13.94028
G1 X93.173 Y101.042 E14.03120
G1 X93.725 Y99.675 E14.20628
G1 X94.027 Y99.013 E14.29278
G1 X94.698 Y97.703 E14.46754
G1 X95.445 Y96.435 E14.64230
G1 X95.843 Y95.825 E14.72880
G1 X96.703 Y94.627 E14.90391
G1 X97.153 Y94.055 E14.99042
G1 X98.090 Y92.969 E15.16078
G1 X99.139 Y91.888 E15.33960
G1 X100.224 Y90.899 E15.51397
G1 X101.366 Y89.976 E15.68838
G1 X102.561 Y89.123 E15.86279
G1 X103.776 Y88.360 E16.03315
G1 X104.441 Y87.981 E16.12407
G1 X105.753 Y87.314 E16.29881
G1 X107.067 Y86.740 E16.46917
G1 X107.782 Y86.465 E16.56009
G1 X109.180 Y85.999 E16.73517
G1 X109.881 Y85.800 E16.82167
G1 X112.037 Y85.291 E17.08477
G1 X112.341 Y85.255 E17.12112
G1 X110.992 Y84.466 E17.30668
G1 X110.592 Y84.202 E17.36362
G1 X110.189 Y83.809 E17.43043
G1 X109.924 Y83.505 E17.47836
G1 X109.765 Y83.280 E17.51110
G1 X109.557 Y82.910 E17.56153
G1 X109.317 Y82.395 E17.62899
G1 X109.106 Y81.744 E17.71033
G1 X108.983 Y81.271 E17.76830
G1 X108.901 Y80.771 E17.82844
G1 X108.837 Y79.742 E17.95098
G1 X108.894 Y78.787 E18.06455
G1 X108.985 Y78.104 E18.14641
G1 X109.083 Y77.671 E18.19913
G1 X109.223 Y77.231 E18.25392
G1 X109.669 Y76.151 E18.39273
G1 X110.169 Y75.417 E18.49823
G1 X110.591 Y74.913 E18.57631
G1 X110.892 Y74.634 E18.62500
G1 X111.226 Y74.383 E18.67463
G1 X112.189 Y73.800 E18.80833
G1 X113.017 Y73.472 E18.91408
G1 X114.147 Y73.115 E19.05490
G1 X114.147 Y70.471 E19.36887
G1 X118.758 Y70.471 E19.91647
G1 X118.758 Y73.474 E20.27309
G1 X119.538 Y73.805 E20.37371
G1 X120.294 Y74.288 E20.48020
G1 X120.807 Y74.687 E20.55749
G1 X121.241 Y75.142 E20.63209
G1 X121.507 Y75.496 E20.68466
G1 X121.986 Y76.234 E20.78919
G1 X122.444 Y77.354 E20.93294
G1 X122.578 Y77.775 E20.98536
G1 X122.680 Y78.216 E21.03909
G1 X122.779 Y78.940 E21.12590
G1 X122.840 Y79.884 E21.23830
G1 X122.761 Y81.004 E21.37159
G1 X122.670 Y81.546 E21.43682
G1 X122.531 Y82.087 E21.50323
G1 X122.309 Y82.791 E21.59088
G1 X122.072 Y83.327 E21.66050
G1 X121.665 Y84.141 E21.76859
G1 X120.874 Y85.376 E21.94269
G1 X122.857 Y85.865 E22.18526
G1 X124.230 Y86.292 E22.35605
G1 X124.953 Y86.552 E22.44719
G1 X126.316 Y87.115 E22.62235
G1 X127.640 Y87.757 E22.79719
G1 X128.924 Y88.477 E22.97202
G1 X130.165 Y89.275 E23.14721
G1 X130.761 Y89.696 E23.23394
G1 X131.899 Y90.581 E23.40507
G1 X132.484 Y91.078 E23.49622
G1 X133.562 Y92.084 E23.67138
G1 X134.577 Y93.150 E23.84621
G1 X135.526 Y94.276 E24.02106
G1 X136.385 Y95.429 E24.19184
G1 X136.817 Y96.063 E24.28299
G1 X137.589 Y97.320 E24.45814
G1 X138.283 Y98.618 E24.63298
G1 X138.897 Y99.954 E24.80759
G1 X139.174 Y100.635 E24.89489
G1 X139.668 Y102.025 E25.07007
G1 X140.078 Y103.442 E25.24527
G1 X140.400 Y104.872 E25.41939
G1 X140.637 Y106.328 E25.59458
G1 X140.787 Y107.792 E25.76941
G1 X140.849 Y109.263 E25.94425
G1 X140.823 Y110.738 E26.11944
G1 X140.777 Y111.467 E26.20616
G1 X140.618 Y112.936 E26.38170
G1 X140.507 Y113.658 E26.46842
G1 X140.217 Y115.107 E26.64396
G1 X140.042 Y115.816 E26.73068
G1 X139.625 Y117.231 E26.90587
G1 X139.123 Y118.618 E27.08106
G1 X138.844 Y119.293 E27.16779
G1 X138.235 Y120.599 E27.33892
G1 X137.880 Y121.280 E27.43007
G1 X137.138 Y122.557 E27.60559
G1 X136.743 Y123.171 E27.69230
G1 X135.888 Y124.378 E27.86785
G1 X134.971 Y125.521 E28.04197
G1 X133.979 Y126.617 E28.21752
G1 X133.465 Y127.135 E28.30423
G1 X132.380 Y128.135 E28.47943
G1 X131.267 Y129.046 E28.65022
G1 X130.652 Y129.505 E28.74136
G1 X129.429 Y130.334 E28.91688
G1 X128.168 Y131.082 E29.09101
G1 X126.890 Y131.741 E29.26178
G1 X125.510 Y132.352 E29.44106
G1 X124.162 Y132.854 E29.61181
G1 X123.429 Y133.091 E29.70332
G1 X122.725 Y133.294 E29.79036
G1 X121.288 Y133.640 E29.96590
G1 X120.571 Y133.779 E30.05262
G1 X118.758 Y134.046 E30.27024
G1 X118.758 Y137.987 E30.73824
G1 X122.597 Y136.513 E31.22658
G1 X122.597 Y137.662 E31.36307
G1 X118.758 Y139.054 E31.84799
G1 X118.758 Y145.967 E32.66905
G1 X122.597 Y147.445 E33.15758
G1 X122.597 Y148.733 E33.31051
G1 X118.814 Y147.185 E33.79597
G1 X118.362 Y147.110 F11400.000
G1 X118.158 Y133.515 F11400.000
G1 X114.747 Y91.065 F11400.000
G1 X110.751 Y89.037 F11400.000
G1 X108.937 Y89.610 F11400.000
G1 X108.345 Y89.838 F11400.000
G1 X107.880 Y88.676 F11400.000
G1 X107.322 Y87.284 F11400.000
G1 X112.364 Y85.252 F11400.000
G1 X112.665 Y84.158 E33.93072 F1800.000
G1 X112.085 Y83.928 E34.00481
G1 X111.638 Y83.690 E34.06493
G1 X111.184 Y83.404 E34.12867
G1 X110.676 Y82.901 E34.21354
G1 X110.516 Y82.698 E34.24424
G1 X110.270 Y82.291 E34.30071
G1 X110.068 Y81.874 E34.35573
G1 X109.887 Y81.349 E34.42176
G1 X109.753 Y80.828 E34.48565
G1 X109.685 Y80.295 E34.54945
G1 X109.657 Y79.751 E34.61412
G1 X109.682 Y79.150 E34.68563
G1 X109.748 Y78.555 E34.75664
G1 X109.816 Y78.225 E34.79670
G1 X110.085 Y77.354 E34.90492
G1 X110.418 Y76.681 E34.99405
G1 X110.710 Y76.245 E35.05647
G1 X111.218 Y75.677 E35.14698
G1 X111.766 Y75.245 E35.22987
G1 X112.348 Y74.898 E35.31037
G1 X112.756 Y74.701 E35.36419
G1 X114.147 Y74.250 E35.53786
G1 X114.147 Y85.042 E36.81966
G1 X112.424 Y85.245 E37.02577
G1 X111.968 Y85.197 F11400.000
G1 X118.758 Y84.358 F11400.000
G1 X118.758 Y74.536 E38.19226 F1800.000
G1 X119.933 Y75.312 E38.35951
G1 X120.209 Y75.531 E38.40129
G1 X120.463 Y75.775 E38.44319
G1 X120.690 Y76.043 E38.48486
G1 X120.892 Y76.324 E38.52598
G1 X121.264 Y76.919 E38.60936
G1 X121.552 Y77.623 E38.69960
G1 X121.768 Y78.317 E38.78593
G1 X121.881 Y79.035 E38.87224
G1 X121.933 Y79.779 E38.96089
G1 X121.860 Y80.742 E39.07553
G1 X121.733 Y81.399 E39.15509
G1 X121.438 Y82.322 E39.27008
G1 X121.215 Y82.832 E39.33625
G1 X120.973 Y83.313 E39.40019
G1 X120.683 Y83.769 E39.46436
G1 X120.250 Y84.358 E39.55118
G1 X118.818 Y84.358 E39.72122
G1 X118.358 Y84.358 F11400.000
G1 X118.044 Y85.072 F11400.000
G1 X120.221 Y85.072 E39.97973 F1800.000
G1 X119.735 Y85.830 E40.08664
G1 X122.666 Y86.553 E40.44508
G1 X124.003 Y86.969 E40.61148
G1 X124.695 Y87.218 E40.69881
G1 X126.023 Y87.767 E40.86946
G1 X127.310 Y88.390 E41.03922
G1 X128.556 Y89.089 E41.20897
G1 X129.766 Y89.867 E41.37972
G1 X130.336 Y90.270 E41.46265
G1 X131.449 Y91.135 E41.63005
G1 X132.009 Y91.611 E41.71737
G1 X133.060 Y92.591 E41.88802
G1 X134.045 Y93.627 E42.05778
G1 X134.966 Y94.720 E42.22756
G1 X135.804 Y95.843 E42.39396
G1 X136.217 Y96.451 E42.48128
G1 X136.969 Y97.676 E42.65194
G1 X137.643 Y98.936 E42.82170
G1 X138.242 Y100.238 E42.99188
G1 X138.507 Y100.889 E43.07536
G1 X138.988 Y102.244 E43.24610
G1 X139.387 Y103.625 E43.41684
G1 X139.553 Y104.312 E43.50074
G1 X139.698 Y105.003 E43.58464
G1 X139.929 Y106.422 E43.75539
G1 X140.074 Y107.844 E43.92515
G1 X140.135 Y109.272 E44.09490
G1 X140.109 Y110.709 E44.26565
G1 X140.065 Y111.406 E44.34856
G1 X139.910 Y112.844 E44.52030
G1 X139.804 Y113.534 E44.60321
G1 X139.520 Y114.952 E44.77494
G1 X139.353 Y115.629 E44.85785
G1 X138.946 Y117.008 E45.02860
G1 X138.457 Y118.360 E45.19935
G1 X138.190 Y119.006 E45.28228
G1 X137.594 Y120.283 E45.44967
G1 X137.255 Y120.935 E45.53700
G1 X136.528 Y122.185 E45.70864
G1 X136.151 Y122.772 E45.79155
G1 X135.315 Y123.952 E45.96329
G1 X134.881 Y124.509 E46.04718
G1 X134.431 Y125.054 E46.13108
G1 X133.460 Y126.125 E46.30282
G1 X132.969 Y126.621 E46.38573
G1 X131.912 Y127.596 E46.55650
G1 X130.827 Y128.483 E46.72290
G1 X130.238 Y128.923 E46.81023
G1 X129.041 Y129.734 E46.98187
G1 X128.439 Y130.103 E47.06577
G1 X127.826 Y130.454 E47.14969
G1 X126.581 Y131.096 E47.31607
G1 X125.240 Y131.690 E47.49027
G1 X123.928 Y132.179 E47.65659
G1 X122.542 Y132.603 E47.82869
G1 X121.136 Y132.942 E48.00043
G1 X120.451 Y133.075 E48.08334
G1 X118.044 Y133.430 E48.37228
G1 X118.044 Y148.814 E50.19944
G1 X114.862 Y148.814 E50.57741
G1 X114.862 Y133.758 E52.36557
G1 X112.798 Y133.973 E52.61198
G1 X112.443 Y133.951 E52.65426
G1 X112.064 Y133.895 E52.69974
G1 X111.715 Y133.790 E52.74303
G1 X111.358 Y133.647 E52.78872
G1 X110.960 Y133.416 E52.84330
G1 X110.777 Y133.276 E52.87076
G1 X110.225 Y132.682 E52.96702
G1 X109.241 Y132.395 E53.08872
G1 X107.892 Y131.936 E53.25804
G1 X106.605 Y131.412 E53.42302
G1 X105.309 Y130.793 E53.59367
G1 X104.093 Y130.120 E53.75863
G1 X102.865 Y129.343 E53.93131
G1 X101.715 Y128.514 E54.09958
G1 X100.638 Y127.637 E54.26456
G1 X100.094 Y127.153 E54.35113
G1 X99.068 Y126.152 E54.52131
G1 X98.594 Y125.647 E54.60352
G1 X97.666 Y124.565 E54.77283
G1 X96.826 Y123.459 E54.93781
G1 X96.025 Y122.266 E55.10844
G1 X95.303 Y121.037 E55.27773
G1 X94.659 Y119.774 E55.44607
G1 X94.102 Y118.502 E55.61105
G1 X93.839 Y117.822 E55.69763
G1 X93.387 Y116.471 E55.86685
G1 X93.024 Y115.130 E56.03183
G1 X92.422 Y112.447 E56.35837
G1 X91.572 Y113.276 E56.49937
G1 X91.275 Y113.026 E56.54549
G1 X91.503 Y112.694 E56.59336
G1 X91.717 Y112.304 E56.64612
G1 X92.015 Y111.606 E56.73635
G1 X92.154 Y111.159 E56.79190
G1 X92.309 Y110.395 E56.88451
G1 X92.354 Y109.951 E56.93747
G1 X92.354 Y109.171 E57.03007
G1 X92.309 Y108.728 E57.08304
G1 X92.150 Y107.945 E57.17786
G1 X91.888 Y107.191 E57.27269
G1 X91.701 Y106.786 E57.32565
G1 X91.287 Y106.088 E57.42202
G1 X91.582 Y105.856 E57.46662
G1 X92.400 Y106.653 E57.60220
G1 X93.194 Y103.324 E58.00869
G1 X93.599 Y101.986 E58.17468
G1 X93.842 Y101.294 E58.26179
G1 X94.381 Y99.957 E58.43301
G1 X94.670 Y99.324 E58.51571
G1 X95.324 Y98.047 E58.68604
G1 X96.052 Y96.812 E58.85637
G1 X96.433 Y96.228 E58.93907
G1 X97.274 Y95.056 E59.11039
G1 X97.705 Y94.509 E59.19311
G1 X98.617 Y93.451 E59.35908
G1 X99.636 Y92.401 E59.53282
G1 X100.689 Y91.441 E59.70209
G1 X101.798 Y90.545 E59.87142
G1 X102.959 Y89.716 E60.04079
G1 X104.142 Y88.973 E60.20677
G1 X104.780 Y88.610 E60.29388
G1 X106.058 Y87.960 E60.46414
G1 X107.339 Y87.401 E60.63013
G1 X108.023 Y87.137 E60.71724
G1 X109.391 Y86.682 E60.88846
G1 X110.061 Y86.492 E60.97116
G1 X112.161 Y85.996 E61.22749
G1 X114.862 Y85.677 E61.55043
G1 X114.862 Y71.186 E63.27157
G1 X118.044 Y71.186 E63.64953
G1 X118.044 Y85.012 E65.29163
G1 X118.758 Y113.249 F11400.000
G1 X121.221 Y114.040 E65.59886 F1800.000
G1 X121.223 Y114.694 E65.67651
G1 X118.758 Y115.507 E65.98477
G1 X118.758 Y113.309 E66.24581
G1 X118.841 Y112.857 F11400.000
G1 X118.758 Y112.393 F11400.000
G1 X118.758 Y108.870 E66.66423 F1800.000
G1 X122.597 Y108.870 E67.12011
G1 X122.597 Y107.844 E67.24198
G1 X118.758 Y107.844 E67.69786
G1 X118.758 Y103.822 E68.17554
G1 X122.597 Y105.393 E68.66812
