; generated by Slic3r 1.2.9 on 2016-09-01 at 23:10:37

; external perimeters extrusion width = 0.40mm
; perimeters extrusion width = 0.42mm
; infill extrusion width = 0.42mm
; solid infill extrusion width = 0.42mm
; top infill extrusion width = 0.42mm

M107
M190 S30 ; set bed temperature
M104 S190 ; set temperature
G28 ; home all axes
G1 Z5 F5000 ; lift nozzle

M109 S190 ; wait for temperature to be reached
G21 ; set units to millimeters
G90 ; use absolute coordinates
M82 ; use absolute distances for extrusion
G92 E0
G1 Z0.400 F11400.000
G1 E-2.00000 F2400.00000
G92 E0
G1 X92.329 Y83.211 F11400.000
G1 E2.00000 F2400.00000
G1 X105.546 Y68.546 E4.34470 F1800.000
G1 X107.364 Y67.122 E4.61893
G1 X110.534 Y66.327 E5.00706
G1 X114.739 Y66.327 E5.50651
G1 X117.014 Y66.724 E5.78074
G1 X119.019 Y67.868 E6.05496 F1800.000
G1 X120.345 Y69.345 E6.29064
G1 X129.180 Y82.766 E8.19899
G1 X129.748 Y83.761 E8.33503
G1 X130.155 Y84.573 E8.44287
G1 X130.407 Y85.128 E8.51533
G1 X130.832 Y86.192 E8.65137
G1 X131.250 Y87.471 E8.81117
G1 X131.489 Y88.386 E8.92345
G1 X131.650 Y89.141 E9.01525
G1 X131.807 Y90.074 E9.12753
G1 X131.901 Y90.841 E9.21933
G1 X135.418 Y129.716 E13.85514
G1 X135.456 Y130.529 E13.95185
G1 X135.463 Y131.255 E14.03802
G1 X135.431 Y132.317 E14.16423
G1 X135.371 Y133.127 E14.26078
G1 X135.292 Y133.850 E14.34712
G1 X135.133 Y134.901 E14.47332
G1 X134.830 Y136.331 E14.64696
G1 X134.643 Y137.035 E14.73348
G1 X134.329 Y138.050 E14.85967
G1 X133.818 Y139.417 E15.03304
G1 X133.527 Y140.088 E15.11982
G1 X133.065 Y141.045 E15.24604
G1 X132.356 Y142.318 E15.41914
G1 X131.967 Y142.940 E15.50618
G1 X131.367 Y143.817 E15.63238
G1 X130.477 Y144.969 E15.80533
G1 X129.999 Y145.527 E15.89253
G1 X129.275 Y146.304 E16.01874
G1 X128.224 Y147.310 E16.19141
G1 X127.667 Y147.791 E16.27888
G1 X126.835 Y148.452 E16.40510
G1 X125.648 Y149.288 E16.57753
G1 X125.023 Y149.682 E16.66525
G1 X124.102 Y150.211 E16.79145
G1 X123.391 Y150.580 E16.88651
G1 X122.770 Y150.875 E16.96817
G1 X121.607 Y151.366 E17.11816
G1 X120.521 Y151.754 E17.25509
G1 X119.671 Y152.014 E17.36070
G1 X118.499 Y152.312 E17.50427
G1 X117.398 Y152.529 E17.63757
G1 X116.407 Y152.674 E17.75649
G1 X115.339 Y152.779 E17.88391
G1 X114.177 Y152.833 E18.02210
G1 X113.176 Y152.829 E18.14102
G1 X112.125 Y152.776 E18.26600
G1 X110.947 Y152.655 E18.40664
G1 X110.025 Y152.515 E18.51740
G1 X108.915 Y152.292 E18.65181
G1 X107.658 Y151.965 E18.80615
G1 X106.484 Y151.585 E18.95264
G1 X105.652 Y151.271 E19.05823
G1 X104.619 Y150.824 E19.19197
G1 X103.456 Y150.242 E19.34634
G1 X102.383 Y149.624 E19.49347
G1 X101.635 Y149.143 E19.59905
G1 X88.870 Y139.978 E21.46542
G1 X88.398 Y139.590 E21.53800
G1 X87.788 Y139.019 E21.63724
G1 X87.356 Y138.558 E21.71227
G1 X86.963 Y138.090 E21.78481
G1 X86.597 Y137.601 E21.85739
G1 X86.257 Y137.092 E21.92999
G1 X85.774 Y136.244 E22.04597
G1 X85.510 Y135.693 E22.11857
G1 X85.276 Y135.128 E22.19112
G1 X85.074 Y134.552 E22.26368
G1 X84.903 Y133.965 E22.33627
G1 X84.760 Y133.350 E22.41125
G1 X84.625 Y132.525 E22.51051
G1 X84.565 Y131.917 E22.58311
G1 X84.538 Y131.306 E22.65567
G1 X84.545 Y130.695 E22.72825
G1 X87.345 Y92.095 E27.32471
G1 X87.406 Y91.466 E27.39976
G1 X87.493 Y90.903 E27.46745
G1 X87.611 Y90.345 E27.53519
G1 X87.820 Y89.598 E27.62721
G1 X88.008 Y89.060 E27.69489
G1 X88.225 Y88.533 E27.76259
G1 X88.471 Y88.019 E27.83037
G1 X88.745 Y87.518 E27.89806
G1 X89.252 Y86.732 E28.00920
G1 X89.723 Y86.117 E28.10119
G1 X92.289 Y83.256 E28.55766
G1 E26.55766 F2400.00000
G92 E0
G1 X100.283 Y94.265 F11400.000
G1 E2.00000 F2400.00000
G1 X99.938 Y94.733 E2.06900 F1800.000
G1 X99.507 Y95.122 E2.13800
G1 X99.007 Y95.418 E2.20699
G1 X98.458 Y95.609 E2.27599
G1 X97.883 Y95.686 E2.34499
G1 X97.303 Y95.647 E2.41399
G1 X96.743 Y95.494 E2.48298
G1 X96.224 Y95.232 E2.55198
G1 X95.768 Y94.872 E2.62098
G1 X95.393 Y94.428 E2.68998
G1 X95.114 Y93.919 E2.75897
G1 X94.942 Y93.364 E2.82797
G1 X94.884 Y92.786 E2.89697
G1 X94.942 Y92.208 E2.96597
G1 X95.114 Y91.653 E3.03497
G1 X95.393 Y91.143 E3.10396
G1 X95.768 Y90.700 E3.17296
G1 X96.224 Y90.340 E3.24190
G1 X96.720 Y90.088 E3.30801
G1 X97.119 Y89.962 E3.35766
G1 X97.689 Y89.885 E3.42597 F1800.000
G1 X98.268 Y89.924 E3.49497
G1 X98.829 Y90.078 E3.56396
G1 X99.341 Y90.337 E3.63216
G1 X99.664 Y90.575 E3.67978
G1 X100.063 Y90.987 E3.74798
G1 X100.376 Y91.477 E3.81698
G1 X100.585 Y92.019 E3.88597
G1 X100.681 Y92.592 E3.95497
G1 X100.662 Y93.173 E4.02397
G1 X100.527 Y93.738 E4.09297
G1 X100.308 Y94.210 E4.15484
G1 X100.467 Y94.620 F11400.000
G1 X102.868 Y98.608 F11400.000
G1 X106.266 Y101.175 F11400.000
G1 X108.197 Y102.369 F11400.000
G1 X110.282 Y103.123 F11400.000
G1 X111.043 Y103.508 F11400.000
G1 X112.637 Y102.560 F11400.000
G1 X112.636 Y102.589 F11400.000
G1 X113.739 Y102.589 F11400.000
G1 X113.625 Y102.776 F11400.000
G1 X113.625 Y82.788 E6.52873 F1800.000
G1 X115.044 Y83.185 E6.70377
G1 X115.044 Y82.973 E6.72899
G1 X117.226 Y83.977 E7.01426
G1 X117.851 Y84.320 E7.09886
G1 X118.717 Y84.902 E7.22279
G1 X119.524 Y85.579 E7.34789
G1 X120.247 Y86.332 E7.47182
G1 X120.693 Y86.888 E7.55659
G1 X121.115 Y87.501 E7.64496
G1 X121.608 Y88.372 E7.76384
G1 X121.903 Y89.020 E7.84836
G1 X122.148 Y89.678 E7.93178
G1 X122.348 Y90.362 E8.01638
G1 X122.550 Y91.376 E8.13913
G1 X122.625 Y92.084 E8.22373
G1 X122.650 Y92.786 E8.30715
G1 X122.625 Y93.488 E8.39057
G1 X122.551 Y94.186 E8.47399
G1 X122.426 Y94.877 E8.55741
G1 X122.253 Y95.558 E8.64083
G1 X122.032 Y96.225 E8.72424
G1 X121.764 Y96.874 E8.80766
G1 X121.450 Y97.502 E8.89108
G1 X121.092 Y98.107 E8.97450
G1 X120.693 Y98.685 E9.05792
G1 X120.253 Y99.232 E9.14134
G1 X119.775 Y99.747 E9.22476
G1 X119.261 Y100.228 E9.30835
G1 X118.682 Y100.695 E9.39673
G1 X117.850 Y101.252 E9.51561
G1 X117.226 Y101.595 E9.60013
G1 X115.044 Y102.599 E9.88540
G1 X115.044 Y102.387 E9.91061
G1 X113.683 Y102.760 E10.07827
G1 X114.339 Y101.840 F11400.000
G1 X114.339 Y83.729 E12.22912 F1800.000
G1 X115.759 Y84.127 E12.40416
G1 X115.759 Y84.088 E12.40880
G1 X116.905 Y84.615 E12.55864
G1 X117.479 Y84.931 E12.63644
G1 X118.287 Y85.474 E12.75206
G1 X119.035 Y86.102 E12.86809
G1 X119.710 Y86.804 E12.98371
G1 X120.120 Y87.315 E13.06157
G1 X120.509 Y87.880 E13.14309
G1 X120.972 Y88.697 E13.25453
G1 X121.243 Y89.293 E13.33230
G1 X121.470 Y89.903 E13.40967
G1 X121.654 Y90.532 E13.48747
G1 X121.843 Y91.483 E13.60267
G1 X121.913 Y92.135 E13.68047
G1 X121.936 Y92.786 E13.75784
G1 X121.913 Y93.437 E13.83522
G1 X121.843 Y94.085 E13.91260
G1 X121.728 Y94.726 E13.98997
G1 X121.567 Y95.357 E14.06735
G1 X121.362 Y95.976 E14.14473
G1 X121.113 Y96.578 E14.22210
G1 X120.822 Y97.161 E14.29948
G1 X120.491 Y97.722 E14.37686
G1 X120.120 Y98.257 E14.45423
G1 X119.712 Y98.765 E14.53161
G1 X119.269 Y99.243 E14.60899
G1 X118.793 Y99.688 E14.68642
G1 X118.258 Y100.119 E14.76795
G1 X117.479 Y100.641 E14.87938
G1 X116.905 Y100.957 E14.95715
G1 X115.759 Y101.484 E15.10700
G1 X115.759 Y101.450 E15.11103
G1 X114.397 Y101.824 E15.27869
G1 X113.941 Y101.875 F11400.000
G1 X111.648 Y102.730 F11400.000
G1 X110.115 Y102.279 E15.46853 F1800.000
G1 X110.115 Y102.517 E15.49683
G1 X107.892 Y101.351 E15.79497
G1 X107.257 Y100.956 E15.88380
G1 X106.453 Y100.350 E16.00330
G1 X105.922 Y99.871 E16.08826
G1 X105.433 Y99.362 E16.17211
G1 X104.981 Y98.819 E16.25597
G1 X104.569 Y98.246 E16.33982
G1 X104.195 Y97.636 E16.42486
G1 X103.732 Y96.705 E16.54824
G1 X103.472 Y96.038 E16.63328
G1 X103.264 Y95.364 E16.71714
G1 X103.104 Y94.676 E16.80099
G1 X102.993 Y93.979 E16.88484
G1 X102.933 Y93.275 E16.96869
G1 X102.923 Y92.569 E17.05255
G1 X102.964 Y91.864 E17.13640
G1 X103.055 Y91.163 E17.22042
G1 X103.206 Y90.430 E17.30926
G1 X103.496 Y89.467 E17.42876
G1 X103.761 Y88.802 E17.51371
G1 X104.069 Y88.167 E17.59757
G1 X104.422 Y87.555 E17.68142
G1 X104.817 Y86.970 E17.76527
G1 X105.254 Y86.415 E17.84913
G1 X105.728 Y85.893 E17.93298
G1 X106.240 Y85.406 E18.01683
G1 X106.784 Y84.957 E18.10069
G1 X107.360 Y84.547 E18.18454
G1 X107.963 Y84.180 E18.26839
G1 X108.591 Y83.857 E18.35225
G1 X109.241 Y83.580 E18.43627
G1 X109.930 Y83.344 E18.52265
G1 X111.648 Y82.854 E18.73491
G1 X111.648 Y102.670 E21.08840
G1 X110.934 Y101.776 F11400.000
G1 X109.400 Y101.336 E21.27786 F1800.000
G1 X108.247 Y100.731 E21.43257
G1 X107.661 Y100.366 E21.51452
G1 X106.908 Y99.799 E21.62653
G1 X106.419 Y99.358 E21.70471
G1 X105.965 Y98.886 E21.78249
G1 X105.546 Y98.382 E21.86027
G1 X105.165 Y97.850 E21.93804
G1 X104.820 Y97.289 E22.01625
G1 X104.386 Y96.416 E22.13204
G1 X104.147 Y95.803 E22.21024
G1 X103.953 Y95.177 E22.28802
G1 X103.805 Y94.539 E22.36580
G1 X103.703 Y93.892 E22.44358
G1 X103.647 Y93.240 E22.52136
G1 X103.638 Y92.585 E22.59914
G1 X103.675 Y91.931 E22.67692
G1 X103.760 Y91.281 E22.75476
G1 X103.899 Y90.605 E22.83670
G1 X104.171 Y89.702 E22.94872
G1 X104.415 Y89.091 E23.02689
G1 X104.700 Y88.501 E23.10467
G1 X105.028 Y87.934 E23.18245
G1 X105.394 Y87.392 E23.26023
G1 X105.799 Y86.877 E23.33801
G1 X106.240 Y86.392 E23.41579
G1 X106.714 Y85.940 E23.49357
G1 X107.219 Y85.524 E23.57134
G1 X107.753 Y85.144 E23.64912
G1 X108.312 Y84.804 E23.72690
G1 X108.895 Y84.504 E23.80468
G1 X109.497 Y84.247 E23.88252
G1 X110.143 Y84.026 E23.96359
G1 X110.934 Y83.800 E24.06125
G1 X110.934 Y101.716 E26.18897
G1 X110.860 Y102.169 F11400.000
G1 X111.648 Y104.707 F11400.000
G1 X110.559 Y104.314 E26.32643 F1800.000
G1 X110.412 Y104.216 E26.34747
G1 X110.083 Y103.861 E26.40498
G1 X109.127 Y103.567 E26.52376
G1 X108.201 Y103.206 E26.64177
G1 X107.565 Y102.904 E26.72535
G1 X106.976 Y102.577 E26.80544
G1 X106.405 Y102.215 E26.88567
G1 X105.857 Y101.820 E26.96589
G1 X105.340 Y101.399 E27.04514
G1 X104.598 Y100.696 E27.16650
G1 X103.945 Y99.958 E27.28353
G1 X103.518 Y99.399 E27.36711
G1 X103.142 Y98.839 E27.44720
G1 X102.801 Y98.256 E27.52743
G1 X102.497 Y97.662 E27.60667
G1 X102.099 Y96.712 E27.72895
G1 X101.890 Y96.087 E27.80721
G1 X101.276 Y93.675 E28.10288
G1 X101.373 Y93.268 E28.15249
G1 X101.397 Y92.544 E28.23855
G1 X101.284 Y91.871 E28.31957
G1 X101.882 Y89.512 E28.60859
G1 X102.106 Y88.841 E28.69268
G1 X102.356 Y88.219 E28.77227
G1 X102.815 Y87.290 E28.89529
G1 X103.152 Y86.719 E28.97410
G1 X103.722 Y85.897 E29.09284
G1 X104.167 Y85.347 E29.17693
G1 X104.620 Y84.852 E29.25658
G1 X105.348 Y84.167 E29.37532
G1 X105.897 Y83.721 E29.45941
G1 X106.443 Y83.331 E29.53899
G1 X107.328 Y82.794 E29.66202
G1 X107.919 Y82.493 E29.74076
G1 X108.875 Y82.093 E29.86379
G1 X109.504 Y81.884 E29.94254
G1 X113.048 Y80.990 E30.37659
G1 X111.648 Y80.099 E30.57366
G1 X111.648 Y74.155 E31.27958
G1 X113.625 Y74.155 E31.51438
G1 X113.625 Y80.612 E32.28118
G1 X113.991 Y80.726 E32.32667
G1 X113.639 Y81.275 E32.40405
G1 X115.841 Y81.818 E32.67339
G1 X116.463 Y82.011 E32.75075
G1 X117.436 Y82.393 E32.87485
G1 X118.047 Y82.689 E32.95546
G1 X118.639 Y83.020 E33.03608
G1 X119.211 Y83.387 E33.11674
G1 X120.019 Y83.994 E33.23678
G1 X120.535 Y84.445 E33.31820
G1 X121.019 Y84.922 E33.39882
G1 X121.473 Y85.426 E33.47943
G1 X121.896 Y85.957 E33.56010
G1 X122.271 Y86.490 E33.63745
G1 X122.809 Y87.386 E33.76155
G1 X123.109 Y87.985 E33.84118
G1 X123.499 Y88.934 E33.96306
G1 X123.803 Y89.915 E34.08494
G1 X123.951 Y90.560 E34.16358
G1 X124.107 Y91.583 E34.28644
G1 X124.158 Y92.243 E34.36508
G1 X124.160 Y93.277 E34.48795
G1 X124.112 Y93.946 E34.56758
G1 X124.024 Y94.611 E34.64720
G1 X123.813 Y95.615 E34.76908
G1 X123.516 Y96.589 E34.88997
G1 X123.134 Y97.532 E35.01086
G1 X122.669 Y98.437 E35.13175
G1 X122.124 Y99.298 E35.25271
G1 X121.523 Y100.085 E35.37031
G1 X121.053 Y100.614 E35.45429
G1 X120.579 Y101.086 E35.53378
G1 X119.800 Y101.753 E35.65565
G1 X118.971 Y102.344 E35.77655
G1 X118.092 Y102.859 E35.89751
G1 X117.196 Y103.281 E36.01510
G1 X116.544 Y103.533 E36.09809
G1 X115.562 Y103.827 E36.21983
G1 X113.625 Y104.223 E36.45465
G1 X113.625 Y111.855 E37.36114
G1 X111.648 Y111.855 E37.59594
G1 X111.648 Y104.767 E38.43781
G1 X110.934 Y105.209 F11400.000
G1 X110.261 Y104.966 E38.52275 F1800.000
G1 X110.127 Y104.890 E38.54104
G1 X109.937 Y104.754 E38.56881
G1 X109.689 Y104.487 E38.61204
G1 X108.892 Y104.242 E38.71114
G1 X107.917 Y103.862 E38.83536
G1 X107.239 Y103.539 E38.92465
G1 X106.611 Y103.192 E39.00986
G1 X106.005 Y102.807 E39.09512
G1 X105.422 Y102.387 E39.18038
G1 X104.868 Y101.936 E39.26529
G1 X104.084 Y101.193 E39.39353
G1 X103.393 Y100.412 E39.51740
G1 X102.937 Y99.815 E39.60669
G1 X102.537 Y99.218 E39.69190
G1 X102.174 Y98.599 E39.77716
G1 X101.849 Y97.962 E39.86207
G1 X101.430 Y96.964 E39.99064
G1 X101.204 Y96.289 E40.07520
G1 X100.768 Y94.575 E40.28531
G1 X99.845 Y95.427 E40.43458
G1 X99.550 Y95.633 E40.47727
G1 X99.235 Y95.805 E40.51996
G1 X98.713 Y96.004 E40.58622
G1 X98.363 Y96.085 E40.62891
G1 X98.006 Y96.128 E40.67160
G1 X97.448 Y96.118 E40.73785
G1 X97.093 Y96.063 E40.78054
G1 X96.741 Y95.968 E40.82388
G1 X96.401 Y95.836 E40.86722
G1 X96.082 Y95.669 E40.90991
G1 X95.627 Y95.347 E40.97617
G1 X95.369 Y95.104 E41.01825
G1 X95.029 Y94.687 E41.08218
G1 X94.831 Y94.363 E41.12725
G1 X94.677 Y94.033 E41.17049
G1 X94.562 Y93.693 E41.21318
G1 X94.456 Y93.145 E41.27944
G1 X94.436 Y92.786 E41.32213
G1 X94.456 Y92.427 E41.36482
G1 X94.562 Y91.879 E41.43108
G1 X94.677 Y91.539 E41.47377
G1 X94.829 Y91.213 E41.51646
G1 X95.131 Y90.744 E41.58271
G1 X95.361 Y90.475 E41.62475
G1 X95.774 Y90.108 E41.69036
G1 X96.237 Y89.817 E41.75532
G1 X96.741 Y89.604 E41.82027
G1 X97.278 Y89.475 E41.88588
G1 X97.630 Y89.440 E41.92792
G1 X98.188 Y89.461 E41.99417
G1 X98.542 Y89.523 E42.03686
G1 X98.887 Y89.623 E42.07955
G1 X99.392 Y89.848 E42.14516
G1 X99.849 Y90.148 E42.21011
G1 X100.769 Y90.998 E42.35880
G1 X101.196 Y89.312 E42.56537
G1 X101.435 Y88.594 E42.65521
G1 X101.704 Y87.927 E42.74058
G1 X102.186 Y86.951 E42.86994
G1 X102.550 Y86.333 E42.95504
G1 X103.150 Y85.469 E43.08002
G1 X103.625 Y84.881 E43.16985
G1 X104.111 Y84.350 E43.25525
G1 X104.877 Y83.629 E43.38023
G1 X105.465 Y83.152 E43.47006
G1 X106.050 Y82.735 E43.55544
G1 X106.981 Y82.170 E43.68480
G1 X107.619 Y81.845 E43.76987
G1 X108.624 Y81.424 E43.89923
G1 X109.304 Y81.198 E43.98431
G1 X111.267 Y80.703 E44.22476
G1 X110.934 Y80.491 E44.27162
G1 X110.934 Y73.441 E45.10890
G1 X114.339 Y73.441 E45.51335
G1 X114.339 Y75.074 E45.70727
G1 X114.975 Y75.514 E45.79907
G1 X114.339 Y75.730 E45.87876
G1 X114.339 Y80.087 E46.39623
G1 X115.096 Y80.325 E46.49039
G1 X114.778 Y80.820 E46.56028
G1 X116.033 Y81.130 E46.71370
G1 X117.058 Y81.465 E46.84188
G1 X117.728 Y81.741 E46.92784
G1 X118.377 Y82.055 E47.01351
G1 X119.006 Y82.408 E47.09919
G1 X119.614 Y82.797 E47.18488
G1 X120.477 Y83.445 E47.31305
G1 X121.022 Y83.922 E47.39902
G1 X121.535 Y84.428 E47.48469
G1 X122.018 Y84.964 E47.57036
G1 X122.467 Y85.529 E47.65605
G1 X123.076 Y86.420 E47.78423
G1 X123.438 Y87.047 E47.87019
G1 X123.760 Y87.689 E47.95551
G1 X124.172 Y88.693 E48.08435
G1 X124.493 Y89.729 E48.21318
G1 X124.653 Y90.426 E48.29815
G1 X124.817 Y91.501 E48.42734
G1 X124.872 Y92.215 E48.51230
G1 X124.874 Y93.302 E48.64149
G1 X124.822 Y94.019 E48.72681
G1 X124.728 Y94.731 E48.81213
G1 X124.506 Y95.793 E48.94097
G1 X124.190 Y96.828 E49.06945
G1 X123.784 Y97.830 E49.19793
G1 X123.289 Y98.792 E49.32641
G1 X122.711 Y99.707 E49.45492
G1 X122.074 Y100.539 E49.57938
G1 X121.573 Y101.104 E49.66910
G1 X121.064 Y101.611 E49.75437
G1 X120.240 Y102.317 E49.88320
G1 X119.359 Y102.944 E50.01168
G1 X118.425 Y103.491 E50.14019
G1 X117.477 Y103.938 E50.26466
G1 X116.775 Y104.209 E50.35402
G1 X115.737 Y104.520 E50.48280
G1 X114.339 Y104.806 E50.65219
G1 X114.339 Y112.570 E51.57426
G1 X110.934 Y112.570 E51.97870
G1 X110.934 Y105.269 E52.84581
G1 X111.025 Y104.819 F11400.000
G1 E50.84581 F2400.00000
G92 E0
G1 X106.626 Y102.497 F11400.000
G1 X109.057 Y102.767 F11400.000
G1 X111.251 Y103.567 F11400.000
G1 X112.637 Y102.560 F11400.000
G1 X112.636 Y82.979 F11400.000
G1 X114.866 Y82.360 F11400.000
G1 X115.347 Y82.401 F11400.000
G1 X115.540 Y81.621 F11400.000
G1 X115.239 Y75.847 F11400.000
G1 E2.00000 F2400.00000
G1 X115.513 Y76.393 E2.07260 F1800.000
G1 X115.694 Y76.861 E2.13217
G1 X115.792 Y77.262 E2.18117
G1 X115.851 Y77.936 E2.26154
G1 X115.807 Y78.476 E2.32585
