; generated by Slic3r 1.2.9 on 2016-08-08 at 14:30:48

; external perimeters extrusion width = 0.40mm
; perimeters extrusion width = 0.67mm
; infill extrusion width = 0.67mm
; solid infill extrusion width = 0.67mm
; top infill extrusion width = 0.67mm
; support material extrusion width = 0.40mm

M107
M190 S50 ; set bed temperature
M104 S210 ; set temperature
G28 ; home all axes
G1 Z5 F5000 ; lift nozzle

M109 S210 ; wait for temperature to be reached
G21 ; set units to millimeters
G90 ; use absolute coordinates
M82 ; use absolute distances for extrusion
G92 E0
G1 Z0.400 F11400.000
G1 E-2.00000 F2400.00000
G92 E0
G1 X100.879 Y76.092 F11400.000
G1 E2.00000 F2400.00000
G1 X101.469 Y75.407 E2.10734 F1800.000
G1 X101.970 Y74.924 E2.18997
G1 X102.724 Y74.305 E2.30585
G1 X103.477 Y73.764 E2.41596
G1 X105.557 Y72.760 E2.69019
G1 X106.943 Y72.519 E2.85737
G1 X108.597 Y72.408 E3.05417
G1 X110.670 Y72.390 E3.30037
G1 X112.264 Y72.396 E3.48978 F1800.000
G1 X114.737 Y72.877 E3.78893
G1 X116.067 Y73.410 E3.95916
G1 X118.031 Y74.624 E4.23338
G1 X119.380 Y76.275 E4.48654
G1 X120.237 Y77.753 E4.68944
G1 X121.108 Y80.446 E5.02558
G1 X123.587 Y104.985 E7.95488
G1 X123.649 Y105.773 E8.04870
G1 X123.659 Y106.637 E8.15128
G1 X123.616 Y107.434 E8.24611
G1 X123.358 Y108.953 E8.42907
G1 X122.864 Y110.652 E8.63922
G1 X122.420 Y111.784 E8.78371
G1 X121.854 Y112.913 E8.93365
G1 X121.144 Y114.036 E9.09147
G1 X120.146 Y115.314 E9.28402
G1 X119.325 Y116.192 E9.42680
G1 X118.678 Y116.769 E9.52967
G1 X118.084 Y117.242 E9.61994
G1 X117.530 Y117.633 E9.70040
G1 X117.033 Y117.953 E9.77071
G1 X116.018 Y118.515 E9.90841
G1 X115.133 Y118.916 E10.02378
G1 X114.689 Y119.090 E10.08049
G1 X113.850 Y119.372 E10.18556
G1 X113.416 Y119.495 E10.23918
G1 X112.616 Y119.679 E10.33662
G1 X111.851 Y119.809 E10.42882
G1 X111.107 Y119.892 E10.51773
G1 X110.023 Y119.941 E10.64657
G1 X109.329 Y119.927 E10.72906
G1 X108.652 Y119.880 E10.80960
G1 X107.965 Y119.795 E10.89186
G1 X107.309 Y119.681 E10.97089
G1 X106.679 Y119.540 E11.04764
G1 X106.064 Y119.371 E11.12337
G1 X105.464 Y119.176 E11.19829
G1 X104.820 Y118.930 E11.28017
G1 X104.302 Y118.697 E11.34767
G1 X103.445 Y118.268 E11.46143
G1 X102.956 Y117.997 E11.52780
G1 X102.358 Y117.619 E11.61185
G1 X101.844 Y117.254 E11.68675
G1 X101.342 Y116.862 E11.76241
G1 X100.852 Y116.441 E11.83910
G1 X100.375 Y115.991 E11.91703
G1 X99.912 Y115.508 E11.99646
G1 X99.462 Y114.991 E12.07781
G1 X99.023 Y114.429 E12.16259
G1 X98.615 Y113.845 E12.24718
G1 X98.037 Y112.888 E12.37990
G1 X97.675 Y112.179 E12.47454
G1 X97.343 Y111.420 E12.57286
G1 X97.047 Y110.608 E12.67557
G1 X96.918 Y110.192 E12.72724
G1 X96.682 Y109.281 E12.83896
G1 X96.488 Y108.201 E12.96936
G1 X96.422 Y107.621 E13.03871
G1 X96.381 Y107.027 E13.10940
G1 X96.363 Y106.348 E13.19000
G1 X96.375 Y105.758 E13.26013
G1 X97.751 Y83.831 E15.86944
G1 X98.216 Y81.763 E16.12118
G1 X99.621 Y78.242 E16.57134
G1 X99.932 Y77.569 E16.65948
G1 X100.229 Y77.042 E16.73131
G1 X100.843 Y76.139 E16.86093
G1 E14.86093 F2400.00000
G92 E0
G1 X105.146 Y101.335 F11400.000
G1 E2.00000 F2400.00000
G1 X103.150 Y105.318 E2.23279 F1800.000
G1 X103.076 Y106.179 F11400.000
G1 X105.792 Y100.758 E2.54957 F1800.000
G1 X106.345 Y100.367 E2.58496
G1 X103.093 Y106.857 E2.96424
G1 X103.159 Y107.437 E2.99474
G1 X106.850 Y100.073 E3.42508
G1 X107.318 Y99.852 E3.45212
G1 X103.262 Y107.944 E3.92501
G1 X103.389 Y108.403 E3.94991
G1 X107.762 Y99.678 E4.45982
G1 X108.187 Y99.543 E4.48313
G1 X103.535 Y108.824 E5.02555
G1 X103.698 Y109.212 E5.04753
G1 X108.595 Y99.442 E5.61848
G1 X108.988 Y99.370 E5.63937
G1 X103.875 Y109.572 E6.23554
G1 X104.065 Y109.906 E6.25561
G1 X109.369 Y99.322 E6.87411
G1 X109.740 Y99.296 E6.89351
G1 X104.265 Y110.218 E7.53181
G1 X104.476 Y110.511 E7.55065
G1 X110.100 Y99.289 E8.20644
G1 X110.451 Y99.301 E8.22481
G1 X104.696 Y110.785 E8.89593
G1 X104.924 Y111.041 E8.91388
G1 X110.794 Y99.329 E9.59834
G1 X111.129 Y99.375 E9.61597
G1 X105.161 Y111.282 E10.31181
G1 X105.405 Y111.507 E10.32917
G1 X111.455 Y99.436 E11.03462
G1 X111.775 Y99.511 E11.05176
G1 X105.657 Y111.718 E11.76512
G1 X105.915 Y111.915 E11.78209
G1 X112.087 Y99.601 E12.50173
G1 X112.392 Y99.704 E12.51858
G1 X106.180 Y112.099 E13.24293
G1 X106.454 Y112.266 E13.25967
G1 X112.690 Y99.823 E13.98683
G1 X112.975 Y99.966 E14.00351
G1 X106.739 Y112.409 E14.73067
G1 X107.025 Y112.552 E14.74735
G1 X113.261 Y100.109 E15.47452
G1 X113.546 Y100.252 E15.49120
G1 X107.310 Y112.695 E16.21836
G1 X107.608 Y112.814 E16.23510
G1 X113.820 Y100.419 E16.95945
G1 X114.085 Y100.602 E16.97630
G1 X107.913 Y112.917 E17.69594
G1 X108.225 Y113.006 E17.71291
G1 X114.343 Y100.799 E18.42627
G1 X114.595 Y101.010 E18.44341
G1 X108.545 Y113.082 E19.14886
G1 X108.871 Y113.143 E19.16622
G1 X114.839 Y101.236 E19.86206
G1 X115.076 Y101.476 E19.87969
G1 X109.206 Y113.188 E20.56414
G1 X109.549 Y113.217 E20.58212
G1 X115.304 Y101.733 E21.25324
G1 X115.524 Y102.006 E21.27159
G1 X109.900 Y113.228 E21.92739
G1 X110.260 Y113.221 E21.94622
G1 X115.735 Y102.299 E22.58452
G1 X115.935 Y102.612 E22.60392
G1 X110.631 Y113.195 E23.22242
G1 X111.012 Y113.147 E23.24249
G1 X116.125 Y102.946 E23.83867
G1 X116.302 Y103.305 E23.85960
G1 X111.405 Y113.075 E24.43055
G1 X111.813 Y112.975 E24.45247
G1 X116.465 Y103.693 E24.99489
G1 X116.611 Y104.114 E25.01816
G1 X112.238 Y112.839 E25.52808
G1 X112.682 Y112.665 E25.55303
G1 X116.738 Y104.573 E26.02592
G1 X116.841 Y105.080 E26.05295
G1 X113.150 Y112.444 E26.48329
G1 X113.654 Y112.150 E26.51377
G1 X116.907 Y105.660 E26.89305
G1 X116.954 Y106.279 E26.92549
G1 X114.208 Y111.759 E27.24574
G1 X114.854 Y111.183 F11400.000
G1 X116.912 Y107.077 E27.48567 F1800.000
G1 X116.417 Y108.776 F11400.000
G1 X115.852 Y109.905 E27.55164 F1800.000
G1 E25.55164 F2400.00000
G92 E0
G1 X103.583 Y103.741 F11400.000
G1 E2.00000 F2400.00000
G1 X104.148 Y102.613 E2.06594 F1800.000
G1 E0.06594 F2400.00000
G92 E0
G1 X108.304 Y90.152 F11400.000
G1 E2.00000 F2400.00000
G1 X109.099 Y88.565 E2.21079 F1800.000
G1 X108.541 Y86.491 E2.46591
G1 X105.558 Y92.442 E3.25652
G1 X105.560 Y89.252 E3.63537
G1 X107.211 Y85.957 E4.07307
G1 X106.255 Y84.677 E4.26282
G1 X105.343 Y86.497 E4.50460
G1 X104.552 Y84.887 E4.71763
G1 X104.909 Y84.174 E4.81240
G1 X105.662 Y82.673 F11400.000
G1 X107.393 Y79.218 E5.27131 F1800.000
G1 X109.047 Y79.107 E5.46811
G1 X106.629 Y83.931 E6.10901
G1 X109.099 Y82.189 E6.46804
G1 X108.033 Y84.317 E6.75070
G1 E4.75070 F2400.00000
G92 E0
G1 X109.467 Y81.455 F11400.000
G1 E2.00000 F2400.00000
G1 X110.646 Y79.104 E2.31235 F1800.000
G1 X112.241 Y79.110 E2.50176
G1 X109.630 Y84.318 E3.19365
G1 X111.228 Y84.318 E3.38341
G1 X113.571 Y79.643 E4.00447
G1 X114.428 Y81.121 E4.20737
G1 X112.953 Y84.063 E4.59830
G1 E2.59830 F2400.00000
G92 E0
G1 X109.467 Y87.831 F11400.000
G1 E2.00000 F2400.00000
G1 X110.140 Y86.489 E2.17821 F1800.000
G1 X111.737 Y86.491 E2.36787
G1 X109.903 Y90.150 E2.85399
G1 X111.499 Y90.152 E3.04365
G1 X113.681 Y85.798 E3.62195
G1 X114.457 Y87.438 E3.83734
G1 X112.833 Y90.679 E4.26792
G1 X114.770 Y90.001 E4.51163
G1 X114.012 Y91.514 E4.71263
M140 S30 ; wait for bed temperature to be reached
G1 Z0.800 F11400.000
G1 X114.855 Y91.077 F11400.000
G1 X114.241 Y90.142 E4.77107 F1864.789
G1 X113.447 Y90.142 E4.81251
G1 X113.447 Y90.619 E4.83741
G1 X113.647 Y90.930 E4.85675
G1 X114.855 Y91.077 E4.92032
G1 X114.340 Y89.721 F11400.000
G1 X114.329 Y89.315 E4.94156 F1864.789
G1 X113.133 Y89.315 E5.00403
G1 X113.133 Y90.722 E5.07756
G1 X113.453 Y91.223 E5.10862
G1 X115.034 Y91.415 E5.19179
G1 X115.233 Y91.415 E5.20223
G1 X115.233 Y91.081 E5.21969
G1 X114.340 Y89.721 E5.30467
G1 X114.028 Y89.785 F11400.000
G1 X114.023 Y89.629 E5.31282 F1864.789
G1 X113.447 Y89.629 E5.34291
G1 X113.447 Y89.785 E5.35106
G1 X114.028 Y89.785 E5.38137
G1 E3.38137 F2400.00000
G92 E0
G1 X107.326 Y87.428 F11400.000
G1 E2.00000 F2400.00000
G1 X106.171 Y85.428 E2.12065 F1864.789
G1 X105.380 Y85.428 E2.16199
G1 X106.525 Y87.760 E2.29775
G1 X106.925 Y88.362 E2.33547
G1 X106.103 Y89.614 E2.41374
G1 X106.198 Y89.738 E2.42191
G1 X107.326 Y87.785 E2.53973
G1 X108.669 Y87.785 E2.60992
G1 X108.669 Y87.428 E2.62857
G1 X107.326 Y87.428 E2.69876
G1 X105.513 Y84.984 F11400.000
G1 X105.083 Y84.823 E2.72275 F1864.789
G1 X105.204 Y85.071 E2.73718
G1 X105.745 Y85.071 E2.76544
G1 X105.513 Y84.984 E2.77842
G1 X105.481 Y84.636 F11400.000
G1 X104.452 Y84.251 E2.83579 F1864.789
G1 X106.252 Y87.916 E3.04910
G1 X106.547 Y88.365 E3.07715
G1 X105.718 Y89.628 E3.15613
G1 X106.720 Y90.932 E3.24204
G1 X106.973 Y90.570 E3.26512
G1 X107.137 Y90.383 E3.27811
G1 X107.446 Y90.113 E3.29955
G1 X107.616 Y90.019 E3.30972
G1 X107.811 Y89.953 E3.32049
G1 X107.965 Y89.939 E3.32852
G1 X108.983 Y89.941 E3.38175
G1 X108.983 Y86.701 E3.55099
G1 X107.967 Y86.703 E3.60411
G1 X107.799 Y86.678 E3.61295
G1 X107.600 Y86.604 E3.62408
G1 X107.428 Y86.497 E3.63467
G1 X107.272 Y86.360 E3.64547
G1 X106.971 Y85.996 E3.67018
G1 X106.576 Y85.322 E3.71098
G1 X106.432 Y84.993 E3.72975
G1 X105.677 Y84.710 E3.77187
G1 X105.474 Y84.530 E3.78604
G1 X105.481 Y84.636 E3.79161
G1 E1.79161 F2400.00000
G92 E0
G1 X107.326 Y82.714 F11400.000
G1 E2.00000 F2400.00000
G1 X106.196 Y80.757 E2.11806 F1864.789
G1 X106.109 Y80.953 E2.12929
G1 X105.998 Y81.358 E2.15122
G1 X105.963 Y81.781 E2.17340
G1 X105.985 Y82.026 E2.18622
G1 X106.038 Y82.271 E2.19932
G1 X106.119 Y82.505 E2.21228
G1 X106.229 Y82.738 E2.22570
G1 X106.351 Y82.933 E2.23775
G1 X106.520 Y83.139 E2.25165
G1 X106.760 Y83.365 E2.26889
G1 X107.051 Y83.547 E2.28680
G1 X107.326 Y83.071 E2.31550
G1 X108.669 Y83.071 E2.38569
G1 X108.669 Y82.714 E2.40434
G1 X107.326 Y82.714 E2.47453
G1 X108.983 Y79.315 F11400.000
G1 X107.926 Y79.315 E2.52978 F1864.789
G1 X107.542 Y79.354 E2.54992
G1 X107.082 Y79.502 E2.57517
G1 X106.640 Y79.759 E2.60188
G1 X106.398 Y79.971 E2.61871
G1 X106.248 Y80.123 E2.62985
G1 X106.085 Y80.340 E2.64405
G1 X105.857 Y80.731 E2.66770
G1 X105.706 Y81.205 E2.69367
G1 X105.659 Y81.490 E2.70878
G1 X105.648 Y81.791 E2.72453
G1 X105.674 Y82.073 E2.73931
G1 X105.735 Y82.355 E2.75439
G1 X105.827 Y82.623 E2.76921
G1 X105.952 Y82.888 E2.78451
G1 X106.095 Y83.117 E2.79860
G1 X106.290 Y83.354 E2.81461
G1 X106.566 Y83.613 E2.83438
G1 X106.833 Y83.787 E2.85104
G1 X107.100 Y83.928 E2.86683
G1 X107.517 Y84.057 E2.88964
G1 X107.801 Y84.094 E2.90459
G1 X108.983 Y84.106 E2.96637
G1 X108.983 Y79.315 E3.21668
G1 E1.21668 F2400.00000
G92 E0
G1 X112.193 Y79.325 F11400.000
G1 E2.00000 F2400.00000
G1 X112.183 Y82.365 E2.15884 F1864.789
G1 X114.261 Y82.365 E2.26736
G1 X114.327 Y82.057 E2.28382
G1 X114.350 Y81.781 E2.29830
G1 X114.341 Y81.504 E2.31279
G1 X114.300 Y81.232 E2.32715
G1 X114.130 Y80.697 E2.35646
G1 X113.886 Y80.296 E2.38101
G1 X113.649 Y80.004 E2.40064
G1 X113.320 Y79.732 E2.42293
G1 X113.198 Y79.656 E2.43047
G1 X112.977 Y79.533 E2.44365
G1 X112.675 Y79.413 E2.46065
G1 X112.330 Y79.335 E2.47913
G1 X112.193 Y79.325 E2.48632
G1 X112.580 Y79.714 F11400.000
G1 X112.497 Y79.694 E2.49076 F1864.789
G1 X112.497 Y80.357 E2.52538
G1 X113.531 Y80.357 E2.57935
G1 X113.425 Y80.226 E2.58813
G1 X113.137 Y79.988 E2.60767
G1 X112.842 Y79.818 E2.62542
G1 X112.580 Y79.714 E2.64016
G1 X113.785 Y80.725 F11400.000
G1 X112.497 Y80.714 E2.70742 F1864.789
G1 X112.497 Y82.051 E2.77727
G1 X114.008 Y82.051 E2.85616
G1 X114.036 Y81.773 E2.87075
G1 X114.028 Y81.532 E2.88332
G1 X113.992 Y81.296 E2.89580
G1 X113.887 Y80.944 E2.91502
G1 X113.785 Y80.725 E2.92765
G1 Z1.000 F11400.000
G1 E0.92765 F2400.00000
G92 E0
G1 X104.647 Y106.417 F11400.000
G1 E2.00000 F2400.00000
G1 X104.655 Y105.969 E2.02490 F932.395
G1 X104.713 Y105.391 E2.05717
G1 X104.875 Y104.706 E2.09627
G1 X104.996 Y104.355 E2.11691
G1 X105.266 Y103.752 E2.15364
G1 X105.480 Y103.389 E2.17707
G1 X105.885 Y102.829 E2.21544
G1 X106.130 Y102.559 E2.23572
G1 X106.387 Y102.306 E2.25577
G1 X106.926 Y101.874 E2.29414
G1 X107.237 Y101.671 E2.31478
G1 X107.850 Y101.355 E2.35315
G1 X108.196 Y101.218 E2.37379
G1 X108.859 Y101.028 E2.41215
G1 X109.225 Y100.960 E2.43280
G1 X109.913 Y100.904 E2.47117
G1 X110.284 Y100.911 E2.49182
G1 X110.970 Y100.993 E2.53019
G1 X111.333 Y101.073 E2.55082
G1 X111.989 Y101.288 E2.58919
G1 X112.330 Y101.436 E2.60984
G1 X112.931 Y101.775 E2.64822
G1 X113.233 Y101.991 E2.66885
G1 X113.756 Y102.442 E2.70722
G1 X114.011 Y102.712 E2.72786
G1 X114.434 Y103.258 E2.76623
G1 X114.633 Y103.572 E2.78687
G1 X114.931 Y104.172 E2.82411
G1 X115.078 Y104.551 E2.84669
G1 X115.250 Y105.205 E2.88427
G1 X115.310 Y105.571 E2.90491
G1 X115.354 Y106.240 E2.94215
G1 X115.345 Y106.611 E2.96279
G1 X115.253 Y107.296 E3.00116
G1 X115.165 Y107.678 E3.02294
G1 X114.938 Y108.329 E3.06131
G1 X114.784 Y108.668 E3.08197
G1 X114.435 Y109.265 E3.12043
G1 X114.080 Y109.724 E3.15266
G1 X113.769 Y110.063 E3.17824
G1 X113.205 Y110.551 E3.21968
G1 X112.760 Y110.847 E3.24932
G1 X112.249 Y111.120 E3.28155
G1 X111.710 Y111.335 E3.31377
G1 X111.296 Y111.454 E3.33772
G1 X110.869 Y111.541 E3.36195
G1 X110.247 Y111.610 E3.39674
G1 X109.709 Y111.605 E3.42660
G1 X109.207 Y111.556 E3.45463
G1 X108.533 Y111.408 E3.49301
G1 X108.179 Y111.295 E3.51365
G1 X107.752 Y111.117 E3.53934
G1 X107.238 Y110.849 E3.57156
G1 X106.760 Y110.521 E3.60379
G1 X106.358 Y110.187 E3.63283
G1 X105.917 Y109.727 E3.66824
G1 X105.657 Y109.391 E3.69185
G1 X105.328 Y108.876 E3.72578
G1 X105.138 Y108.509 E3.74875
G1 X104.926 Y107.968 E3.78104
G1 X104.782 Y107.469 E3.80991
G1 X104.673 Y106.808 E3.84715
G1 X104.647 Y106.417 E3.86893
G1 Z1.200 F11400.000
G1 E1.86893 F2400.00000
G92 E0
G1 X114.779 Y108.663 F11400.000
G1 E2.00000 F2400.00000
G1 X114.439 Y109.245 E2.02002 F900.000
G1 X114.212 Y109.558 E2.03150
G1 X113.761 Y110.064 E2.05162
G1 X113.205 Y110.542 E2.07340
G1 X112.638 Y110.913 E2.09351
G1 X112.295 Y111.091 E2.10500
G1 X111.669 Y111.342 E2.12502
G1 X111.297 Y111.449 E2.13650
G1 X110.634 Y111.571 E2.15652
G1 X110.249 Y111.603 E2.16801
G1 X109.575 Y111.592 E2.18802
G1 X109.190 Y111.547 E2.19951
G1 X108.532 Y111.403 E2.21952
G1 X108.164 Y111.284 E2.23101
G1 X107.547 Y111.013 E2.25103
G1 X107.209 Y110.823 E2.26251
G1 X106.658 Y110.436 E2.28253
G1 X106.364 Y110.184 E2.29402
G1 X105.900 Y109.695 E2.31403
G1 X105.662 Y109.390 E2.32552
G1 X105.303 Y108.820 E2.34553
G1 X105.130 Y108.473 E2.35702
G1 X104.890 Y107.843 E2.37704
G1 X104.789 Y107.470 E2.38852
G1 X104.678 Y106.805 E2.40854
G1 X104.652 Y106.419 E2.42003
G1 X104.675 Y105.745 E2.44004
G1 X104.726 Y105.362 E2.45153
G1 X104.880 Y104.706 E2.47154
G1 X105.006 Y104.340 E2.48303
G1 X105.287 Y103.727 E2.50305
G1 X105.482 Y103.393 E2.51453
G1 X105.878 Y102.848 E2.53455
G1 X106.136 Y102.559 E2.54604
G1 X106.632 Y102.102 E2.56605
G1 X106.941 Y101.870 E2.57754
G1 X107.517 Y101.520 E2.59755
G1 X107.866 Y101.353 E2.60904
G1 X108.500 Y101.123 E2.62906
G1 X108.875 Y101.028 E2.64054
G1 X109.541 Y100.928 E2.66055
G1 X109.898 Y100.910 E2.67115 F900.000
G1 X110.282 Y100.916 E2.68255
G1 X110.951 Y100.994 E2.70257
G1 X111.329 Y101.076 E2.71405
G1 X111.971 Y101.285 E2.73407
G1 X112.325 Y101.440 E2.74555
G1 X112.912 Y101.771 E2.76557
G1 X113.229 Y101.993 E2.77706
G1 X113.740 Y102.433 E2.79707
G1 X114.007 Y102.713 E2.80856
G1 X114.421 Y103.245 E2.82858
G1 X114.627 Y103.572 E2.84006
G1 X114.928 Y104.176 E2.86008
G1 X115.065 Y104.537 E2.87156
G1 X115.242 Y105.188 E2.89158
G1 X115.305 Y105.569 E2.90307
G1 X115.350 Y106.242 E2.92308
G1 X115.337 Y106.629 E2.93457
G1 X115.248 Y107.297 E2.95459
G1 X115.160 Y107.674 E2.96607
G1 X114.941 Y108.311 E2.98609
G1 X114.804 Y108.608 E2.99579
G1 X115.201 Y108.886 F11400.000
G1 X114.998 Y109.269 E3.01842 F900.000
G1 X114.831 Y109.531 E3.03465
G1 X114.447 Y110.036 E3.06780
G1 X114.012 Y110.494 E3.10080
G1 X113.531 Y110.903 E3.13381
G1 X113.008 Y111.258 E3.16681
G1 X112.450 Y111.554 E3.19982
G1 X111.863 Y111.788 E3.23282
G1 X111.252 Y111.957 E3.26597
G1 X110.947 Y112.016 E3.28219
G1 X110.316 Y112.084 E3.31534
G1 X109.683 Y112.084 E3.34838
G1 X109.195 Y112.035 E3.37400
G1 X108.747 Y111.957 E3.39780
G1 X108.137 Y111.788 E3.43086
G1 X107.550 Y111.554 E3.46386
G1 X106.992 Y111.258 E3.49687
G1 X106.469 Y110.903 E3.52987
G1 X105.988 Y110.494 E3.56288
