; generated by Slic3r 1.2.9 on 2016-08-09 at 16:20:22

; external perimeters extrusion width = 0.40mm
; perimeters extrusion width = 0.67mm
; infill extrusion width = 0.67mm
; solid infill extrusion width = 0.67mm
; top infill extrusion width = 0.67mm
; support material extrusion width = 0.40mm

M107
M190 S80 ; set bed temperature
M104 S255 ; set temperature
G28 ; home all axes
G1 Z5 F5000 ; lift nozzle

M109 S255 ; wait for temperature to be reached
G21 ; set units to millimeters
G90 ; use absolute coordinates
M82 ; use absolute distances for extrusion
G92 E0
G1 Z0.400 F11400.000
G1 E-2.00000 F2400.00000
G92 E0
G1 X99.357 Y71.805 F11400.000
G1 E2.00000 F2400.00000
G1 X100.570 Y70.126 E2.24603 F1800.000
G1 X103.381 Y68.340 E2.64159
G1 X105.335 Y67.630 E2.88846
G1 X107.963 Y67.166 E3.20545
G1 X109.668 Y67.165 E3.40794
G1 X111.255 Y67.185 E3.59648 F1800.000
G1 X111.988 Y67.230 E3.68369
G1 X113.504 Y67.394 E3.86471
G1 X115.891 Y68.053 E4.15879
G1 X117.069 Y68.726 E4.31989
G1 X118.254 Y69.548 E4.49125
G1 X120.036 Y71.268 E4.78533
G1 X121.180 Y73.464 E5.07941
G1 X121.558 Y75.447 E5.31914
G1 X122.538 Y92.618 E7.36181
G1 X123.262 Y107.091 E9.08283
G1 X123.277 Y107.987 E9.18926
G1 X123.247 Y108.705 E9.27466
G1 X123.177 Y109.421 E9.36008
G1 X123.069 Y110.132 E9.44550
G1 X122.881 Y111.003 E9.55128
G1 X122.649 Y111.819 E9.65210
G1 X122.257 Y112.886 E9.78710
G1 X121.963 Y113.542 E9.87252
G1 X121.633 Y114.182 E9.95794
G1 X121.107 Y115.056 E10.07912
G1 X120.444 Y115.979 E10.21412
G1 X119.984 Y116.533 E10.29956
G1 X119.374 Y117.182 E10.40533
G1 X118.755 Y117.762 E10.50617
G1 X117.869 Y118.474 E10.64115
G1 X117.134 Y118.977 E10.74696
G1 X116.404 Y119.411 E10.84773
G1 X115.385 Y119.916 E10.98278
G1 X114.437 Y120.294 E11.10397
G1 X113.753 Y120.515 E11.18940
G1 X113.058 Y120.700 E11.27478
G1 X112.354 Y120.847 E11.36021
G1 X111.643 Y120.955 E11.44564
G1 X111.057 Y121.014 E11.51559
G1 X110.510 Y121.047 E11.58064
G1 X109.791 Y121.055 E11.66607
G1 X109.073 Y121.024 E11.75149
G1 X108.357 Y120.955 E11.83686
G1 X107.350 Y120.790 E11.95809
G1 X106.649 Y120.627 E12.04351
G1 X105.958 Y120.427 E12.12892
G1 X105.280 Y120.190 E12.21433
G1 X104.615 Y119.916 E12.29974
G1 X103.596 Y119.411 E12.43478
G1 X102.976 Y119.047 E12.52015
G1 X102.376 Y118.650 E12.60559
G1 X101.564 Y118.033 E12.72677
G1 X100.717 Y117.273 E12.86178
G1 X100.217 Y116.757 E12.94717
G1 X99.745 Y116.214 E13.03262
G1 X99.304 Y115.647 E13.11800
G1 X98.893 Y115.056 E13.20344
G1 X98.515 Y114.444 E13.28883
G1 X98.171 Y113.813 E13.37425
G1 X97.743 Y112.886 E13.49546
G1 X97.484 Y112.215 E13.58087
G1 X97.262 Y111.531 E13.66628
G1 X96.988 Y110.428 E13.80127
G1 X96.864 Y109.720 E13.88670
G1 X96.753 Y108.705 E14.00790
G1 X96.721 Y107.647 E14.13363
G1 X97.230 Y77.600 E17.70271
G1 X98.047 Y74.274 E18.10942
G1 X99.120 Y72.133 E18.39381
G1 X99.322 Y71.854 E18.43473
G1 X100.411 Y72.334 F11400.000
G1 X100.525 Y72.107 E18.46488 F1800.000
G1 X101.226 Y71.192 E18.60183
G1 X102.202 Y70.323 E18.75700
G1 X103.192 Y69.732 E18.89395
G1 X107.767 Y68.069 E19.47206
G1 X108.856 Y68.344 E19.60541
G1 X110.349 Y68.445 E19.78322 F1800.000
G1 X110.486 Y68.427 E19.79955
G1 X111.270 Y68.166 E19.89772
G1 X111.910 Y68.487 E19.98273
G1 X112.166 Y68.515 E20.01336
G1 X112.527 Y68.423 E20.05758
G1 X115.125 Y68.891 E20.37110
G1 X118.568 Y71.280 E20.86878
G1 X119.818 Y73.080 E21.12907
G1 X120.434 Y75.493 E21.42482
G1 X120.199 Y77.672 E21.68512
G1 X118.322 Y81.416 E22.18245
G1 X118.444 Y81.923 E22.24444
G1 X118.745 Y82.144 E22.28875
G1 X120.398 Y86.580 E22.85094
G1 X120.587 Y87.816 E22.99950
G1 X120.526 Y89.118 E23.15422
G1 X120.720 Y90.225 E23.28778
G1 X120.768 Y90.352 E23.30384
G1 X121.290 Y91.202 E23.42233
G1 X121.426 Y94.349 E23.79648
G1 X119.267 Y98.657 E24.36873
G1 X118.533 Y98.901 E24.46057
G1 X118.335 Y99.647 E24.55221
G1 X118.816 Y100.182 E24.63762
G1 X119.214 Y100.670 E24.71247
G1 X119.585 Y101.180 E24.78732
G1 X119.928 Y101.708 E24.86217
G1 X120.242 Y102.255 E24.93702
G1 X120.526 Y102.817 E25.01187
G1 X120.780 Y103.394 E25.08672
G1 X121.054 Y104.140 E25.18109
G1 X121.234 Y104.744 E25.25594
G1 X121.382 Y105.357 E25.33078
G1 X121.470 Y105.814 E25.38611
G1 X121.559 Y106.438 E25.46096
G1 X121.615 Y107.066 E25.53581
G1 X121.636 Y107.696 E25.61066
G1 X121.615 Y108.490 E25.70503
G1 X121.559 Y109.118 E25.77988
G1 X121.470 Y109.742 E25.85474
G1 X121.285 Y110.606 E25.95971
G1 X121.054 Y111.415 E26.05971
G1 X120.840 Y112.009 E26.13456
G1 X120.526 Y112.738 E26.22894
G1 X120.242 Y113.301 E26.30378
G1 X119.928 Y113.847 E26.37862
G1 X119.678 Y114.240 E26.43396
G1 X119.214 Y114.885 E26.52832
G1 X118.922 Y115.248 E26.58365
G1 X118.505 Y115.720 E26.65850
G1 X118.062 Y116.169 E26.73336
G1 X117.471 Y116.700 E26.82771
G1 X117.107 Y116.992 E26.88306
G1 X116.598 Y117.363 E26.95789
G1 X116.070 Y117.706 E27.03276
G1 X115.378 Y118.097 E27.12708
G1 X114.811 Y118.373 E27.20197
G1 X114.383 Y118.557 E27.25729
G1 X113.794 Y118.779 E27.33213
G1 X113.034 Y119.012 E27.42651
G1 X112.582 Y119.125 E27.48183
G1 X111.964 Y119.248 E27.55669
G1 X111.340 Y119.337 E27.63153
G1 X110.712 Y119.393 E27.70640
G1 X110.082 Y119.414 E27.78125
G1 X109.452 Y119.402 E27.85609
G1 X108.824 Y119.355 E27.93093
G1 X108.409 Y119.303 E27.98060
G1 X107.418 Y119.125 E28.10013
G1 X106.808 Y118.968 E28.17499
G1 X106.207 Y118.779 E28.24983
G1 X105.769 Y118.618 E28.30515
G1 X105.189 Y118.373 E28.38000
G1 X104.622 Y118.097 E28.45489
G1 X104.071 Y117.791 E28.52971
G1 X103.538 Y117.455 E28.60454
G1 X103.023 Y117.091 E28.67941
G1 X102.529 Y116.700 E28.75425
G1 X102.057 Y116.282 E28.82910
G1 X101.609 Y115.840 E28.90395
G1 X101.326 Y115.532 E28.95362
G1 X100.687 Y114.754 E29.07314
G1 X100.322 Y114.240 E29.14800
G1 X99.987 Y113.707 E29.22284
G1 X99.681 Y113.156 E29.29769
G1 X99.474 Y112.738 E29.35303
G1 X99.220 Y112.161 E29.42788
G1 X99.072 Y111.770 E29.47754
G1 X98.766 Y110.812 E29.59707
G1 X98.618 Y110.199 E29.67190
G1 X98.469 Y109.328 E29.77689
G1 X98.385 Y108.490 E29.87689
G1 X98.364 Y107.860 E29.95175
G1 X98.385 Y107.066 E30.04610
G1 X98.441 Y106.438 E30.12096
G1 X98.530 Y105.814 E30.19582
G1 X98.653 Y105.196 E30.27065
G1 X98.766 Y104.744 E30.32599
G1 X98.946 Y104.140 E30.40084
G1 X99.220 Y103.394 E30.49520
G1 X99.474 Y102.817 E30.57006
G1 X99.758 Y102.255 E30.64491
G1 X99.987 Y101.849 E30.70024
G1 X100.322 Y101.316 E30.77508
G1 X100.786 Y100.670 E30.86944
G1 X101.184 Y100.182 E30.94430
G1 X101.878 Y99.446 E31.06440
G1 X101.761 Y98.725 E31.15118
G1 X99.674 Y97.678 E31.42850
G1 X98.088 Y92.906 E32.02576
G1 X98.968 Y91.152 E32.25885
G1 X98.993 Y90.886 E32.29054
G1 X98.389 Y88.738 E32.55555
G1 X98.289 Y87.618 E32.68907
G1 X98.410 Y86.350 E32.84035
G1 X98.720 Y85.270 E32.97387
G1 X99.995 Y82.727 E33.31162
G1 X100.011 Y82.431 E33.34686
G1 X99.887 Y82.098 E33.38903
G1 X99.706 Y81.896 E33.42127
G1 X99.618 Y81.852 E33.43301
G1 X98.032 Y77.079 E34.03026
G1 X100.384 Y72.387 E34.65357
G1 X101.049 Y72.654 F11400.000
G1 X101.133 Y72.487 E34.67567 F1800.000
G1 X101.752 Y71.680 E34.79651
G1 X102.626 Y70.901 E34.93556
G1 X103.500 Y70.380 E35.05640
G1 X107.805 Y68.815 E35.60040
G1 X108.810 Y69.063 E35.72333 F1800.000
G1 X110.443 Y69.166 E35.91766
G1 X110.579 Y69.148 E35.93399
G1 X111.215 Y68.937 E36.01352
G1 X111.828 Y69.245 E36.09505
G1 X112.085 Y69.272 E36.12568
G1 X112.553 Y69.153 E36.18312
G1 X114.846 Y69.566 E36.45975
G1 X118.055 Y71.793 E36.92367
G1 X119.158 Y73.382 E37.15334
G1 X119.710 Y75.545 E37.41847
G1 X119.502 Y77.467 E37.64814
G1 X117.414 Y81.634 E38.20170
G1 X117.536 Y82.142 E38.26369
G1 X118.150 Y82.593 E38.35424
G1 X119.703 Y86.760 E38.88238
G1 X119.870 Y87.851 E39.01346
G1 X119.808 Y89.161 E39.16913
G1 X120.040 Y90.483 E39.32858
G1 X120.088 Y90.609 E39.34463
G1 X120.585 Y91.418 E39.45731
G1 X120.705 Y94.195 E39.78745
G1 X118.761 Y98.072 E40.30256
G1 X117.184 Y98.597 E40.49995
G1 X117.016 Y99.402 E40.59761
G1 X117.564 Y99.898 E40.68540
G1 X117.979 Y100.319 E40.75565
G1 X118.372 Y100.762 E40.82591
G1 X119.000 Y101.588 E40.94916
G1 X119.396 Y102.209 E41.03664
G1 X119.684 Y102.726 E41.10689
G1 X119.943 Y103.257 E41.17715
G1 X120.173 Y103.802 E41.24741
G1 X120.374 Y104.359 E41.31766
G1 X120.544 Y104.926 E41.38792
G1 X120.767 Y105.939 E41.51117
G1 X120.850 Y106.525 E41.58143
G1 X120.910 Y107.259 E41.66890
G1 X120.922 Y107.850 E41.73917
G1 X120.866 Y108.887 E41.86242
G1 X120.790 Y109.473 E41.93267
G1 X120.651 Y110.197 E42.02014
G1 X120.505 Y110.770 E42.09040
G1 X120.327 Y111.334 E42.16066
G1 X119.943 Y112.298 E42.28391
G1 X119.616 Y112.958 E42.37139
G1 X119.081 Y113.847 E42.49464
G1 X118.739 Y114.330 E42.56491
G1 X118.278 Y114.904 E42.65239
G1 X117.564 Y115.657 E42.77563
G1 X117.016 Y116.149 E42.86310
G1 X116.190 Y116.777 E42.98635
G1 X115.693 Y117.099 E43.05663
G1 X115.052 Y117.462 E43.14406
G1 X114.520 Y117.721 E43.21435
G1 X113.556 Y118.105 E43.33759
G1 X112.852 Y118.321 E43.42508
G1 X111.839 Y118.545 E43.54833
G1 X111.253 Y118.628 E43.61858
G1 X110.664 Y118.680 E43.68886
G1 X110.072 Y118.700 E43.75911
G1 X109.481 Y118.688 E43.82935
G1 X108.505 Y118.595 E43.94579
G1 X107.581 Y118.429 E44.05728
G1 X107.008 Y118.283 E44.12755
G1 X106.444 Y118.105 E44.19779
G1 X105.480 Y117.721 E44.32104
G1 X104.948 Y117.462 E44.39134
G1 X104.431 Y117.174 E44.46157
G1 X103.931 Y116.859 E44.53180
G1 X103.448 Y116.517 E44.60208
G1 X102.984 Y116.149 E44.67232
G1 X102.541 Y115.757 E44.74258
G1 X101.858 Y115.055 E44.85902
G1 X101.261 Y114.330 E44.97050
G1 X100.919 Y113.847 E45.04077
G1 X100.604 Y113.347 E45.11101
G1 X100.118 Y112.430 E45.23428
G1 X99.742 Y111.524 E45.35072
G1 X99.456 Y110.630 E45.46221
G1 X99.271 Y109.815 E45.56143
G1 X99.150 Y109.031 E45.65570
G1 X99.090 Y108.297 E45.74317
G1 X99.078 Y107.705 E45.81344
G1 X99.117 Y106.871 E45.91267
G1 X99.210 Y106.082 E46.00693
G1 X99.349 Y105.359 E46.09440
G1 X99.626 Y104.359 E46.21766
G1 X99.827 Y103.802 E46.28792
G1 X100.118 Y103.126 E46.37540
G1 X100.604 Y102.209 E46.49865
G1 X101.000 Y101.588 E46.58613
G1 X101.628 Y100.762 E46.70938
G1 X102.021 Y100.319 E46.77964
G1 X102.541 Y99.798 E46.86711
G1 X103.101 Y99.296 E46.95648
G1 X103.001 Y98.547 E47.04618
G1 X100.258 Y97.173 E47.41055
G1 X98.859 Y92.962 E47.93754
G1 X99.730 Y91.224 E48.16833
G1 X99.755 Y90.959 E48.20002
G1 X99.094 Y88.608 E48.49001
G1 X99.006 Y87.620 E48.60783
G1 X99.114 Y86.484 E48.74339
G1 X99.388 Y85.531 E48.86121
G1 X100.772 Y82.770 E49.22793
G1 X100.788 Y82.474 E49.26317
G1 X100.459 Y81.586 E49.37563
G1 X100.278 Y81.384 E49.40788
G1 X100.202 Y81.346 E49.41794
G1 X98.803 Y77.135 E49.94492
G1 X101.022 Y72.707 E50.53310
G1 E48.53310 F2400.00000
G92 E0
G1 X102.040 Y74.445 F11400.000
G1 X101.998 Y74.870 F11400.000
G1 X101.987 Y75.012 F11400.000
G1 X101.977 Y75.185 F11400.000
G1 X104.587 Y75.492 F11400.000
G1 X115.691 Y98.340 F11400.000
G1 E2.00000 F2400.00000
G1 X115.559 Y99.205 E2.10388 F1800.000
G1 X116.228 Y99.689 E2.20194
G1 X116.656 Y100.038 E2.26758
G1 X117.066 Y100.410 E2.33326
G1 X117.740 Y101.121 E2.44962
G1 X118.089 Y101.550 E2.51528
G1 X118.414 Y101.997 E2.58094
G1 X118.715 Y102.461 E2.64660
G1 X118.990 Y102.941 E2.71226
G1 X119.291 Y103.549 E2.79286
G1 X119.506 Y104.058 E2.85852
G1 X119.694 Y104.578 E2.92418
G1 X119.853 Y105.107 E2.98984
G1 X119.983 Y105.645 E3.05550
G1 X120.142 Y106.612 E3.17186
G1 X120.190 Y107.162 E3.23752
G1 X120.208 Y107.715 E3.30319
G1 X120.171 Y108.627 E3.41160
G1 X120.064 Y109.491 E3.51504
G1 X119.853 Y110.448 E3.63140
G1 X119.694 Y110.978 E3.69706
G1 X119.506 Y111.498 E3.76272
G1 X119.238 Y112.121 E3.84332
G1 X118.990 Y112.615 E3.90898
G1 X118.715 Y113.094 E3.97463
G1 X118.414 Y113.559 E4.04030
G1 X118.089 Y114.006 E4.10596
G1 X117.740 Y114.434 E4.17163
G1 X117.368 Y114.844 E4.23728
G1 X116.657 Y115.517 E4.35365
G1 X116.228 Y115.866 E4.41932
G1 X115.781 Y116.192 E4.48496
G1 X115.317 Y116.492 E4.55065
G1 X114.837 Y116.767 E4.61627
G1 X114.229 Y117.069 E4.69689
G1 X113.720 Y117.284 E4.76255
G1 X113.200 Y117.472 E4.82820
G1 X112.256 Y117.734 E4.94457
G1 X111.589 Y117.862 E5.02517
G1 X111.041 Y117.933 E5.09080
G1 X110.490 Y117.974 E5.15648
G1 X109.510 Y117.974 E5.27284
G1 X108.959 Y117.933 E5.33850
G1 X108.411 Y117.862 E5.40417
G1 X107.744 Y117.734 E5.48476
G1 X107.208 Y117.597 E5.55043
G1 X106.681 Y117.432 E5.61608
G1 X106.163 Y117.238 E5.68174
G1 X105.657 Y117.016 E5.74741
G1 X105.163 Y116.767 E5.81309
G1 X104.683 Y116.492 E5.87873
G1 X104.219 Y116.192 E5.94439
G1 X103.772 Y115.866 E6.01005
G1 X103.344 Y115.517 E6.07571
G1 X102.934 Y115.146 E6.14138
G1 X102.546 Y114.752 E6.20703
G1 X102.179 Y114.338 E6.27271
G1 X101.835 Y113.906 E6.33836
G1 X101.516 Y113.454 E6.40403
G1 X101.221 Y112.987 E6.46968
G1 X100.952 Y112.504 E6.53534
G1 X100.709 Y112.007 E6.60101
G1 X100.413 Y111.278 E6.69450
G1 X100.181 Y110.569 E6.78303
G1 X100.044 Y110.034 E6.84869
G1 X99.936 Y109.491 E6.91435
G1 X99.858 Y108.944 E6.98001
G1 X99.803 Y108.268 E7.06059
G1 X99.792 Y107.715 E7.12627
G1 X99.829 Y106.929 E7.21975
G1 X99.916 Y106.188 E7.30828
G1 X100.044 Y105.522 E7.38886
G1 X100.250 Y104.762 E7.48236
G1 X100.494 Y104.058 E7.57088
G1 X100.762 Y103.434 E7.65147
G1 X101.010 Y102.941 E7.71713
G1 X101.516 Y102.101 E7.83349
G1 X101.911 Y101.550 E7.91408
G1 X102.260 Y101.121 E7.97974
G1 X102.934 Y100.410 E8.09611
G1 X103.343 Y100.038 E8.16177
G1 X103.772 Y99.689 E8.22743
G1 X104.411 Y99.226 E8.32112
G1 X104.347 Y98.423 E8.41680
G1 X100.843 Y96.667 E8.88236
G1 X99.630 Y93.017 E9.33908
G1 X100.492 Y91.297 E9.56758
G1 X100.518 Y91.032 E9.59927
G1 X99.800 Y88.479 E9.91424
G1 X99.723 Y87.622 E10.01635
G1 X99.819 Y86.618 E10.13621
G1 X100.056 Y85.791 E10.23831
G1 X101.608 Y82.696 E10.64950
G1 X101.540 Y82.248 E10.70332
G1 X101.420 Y82.123 E10.72397
G1 X101.031 Y81.074 E10.85683
G1 X100.850 Y80.871 E10.88908
G1 X100.787 Y80.840 E10.89746
G1 X99.574 Y77.190 E11.35418
G1 X101.741 Y72.868 E11.92840
G1 X102.277 Y72.168 E12.03312
G1 X103.050 Y71.480 E12.15606
G1 X103.808 Y71.028 E12.26079
G1 X107.843 Y69.561 E12.77068
G1 X108.699 Y69.771 E12.87540
G1 X110.536 Y69.888 E13.09405
G1 X110.673 Y69.870 E13.11039
G1 X111.159 Y69.708 E13.17126
G1 X111.747 Y70.003 E13.24932
G1 X112.003 Y70.030 E13.27994
G1 X112.579 Y69.883 E13.35059
G1 X114.566 Y70.242 E13.59034
G1 X117.542 Y72.306 E14.02051
G1 X118.498 Y73.683 E14.21956
G1 X118.986 Y75.596 E14.45407
G1 X118.806 Y77.263 E14.65311
G1 X116.506 Y81.853 E15.26291
G1 X116.628 Y82.360 E15.32490
G1 X117.556 Y83.042 E15.46167
G1 X119.008 Y86.941 E15.95576
G1 X119.153 Y87.886 E16.06936
G1 X119.084 Y89.167 E16.22168
G1 X119.360 Y90.741 E16.41143
G1 X119.408 Y90.867 E16.42748
G1 X119.879 Y91.634 E16.53435
G1 X119.983 Y94.041 E16.82047
G1 X118.255 Y97.488 E17.27843
G1 X115.748 Y98.321 E17.59224
G1 E15.59224 F2400.00000
G92 E0
G1 X112.620 Y97.376 F11400.000
G1 E2.00000 F2400.00000
G1 X112.421 Y98.575 E2.14440 F1800.000
G1 X113.564 Y98.978 E2.28825
G1 X114.400 Y99.365 E2.39772
G1 X114.849 Y99.615 E2.45880
G1 X115.284 Y99.890 E2.51985
G1 X115.788 Y100.252 E2.59356
G1 X116.187 Y100.576 E2.65462
G1 X116.568 Y100.922 E2.71569
G1 X116.929 Y101.287 E2.77676
G1 X117.270 Y101.672 E2.83783
G1 X117.590 Y102.075 E2.89889
G1 X117.888 Y102.494 E2.95997
G1 X118.162 Y102.929 E3.02103
G1 X118.413 Y103.378 E3.08210
G1 X118.800 Y104.214 E3.19157
G1 X119.014 Y104.797 E3.26527
G1 X119.261 Y105.685 E3.37474
G1 X119.360 Y106.189 E3.43581
G1 X119.433 Y106.698 E3.49688
G1 X119.477 Y107.211 E3.55794
G1 X119.494 Y107.725 E3.61902
G1 X119.477 Y108.345 E3.69271
G1 X119.378 Y109.261 E3.80219
G1 X119.283 Y109.767 E3.86325
G1 X119.162 Y110.266 E3.92432
G1 X118.980 Y110.860 E3.99802
G1 X118.800 Y111.341 E4.05909
G1 X118.594 Y111.813 E4.12016
G1 X118.363 Y112.272 E4.18123
G1 X118.108 Y112.718 E4.24229
G1 X117.828 Y113.150 E4.30336
G1 X117.526 Y113.566 E4.36442
G1 X117.201 Y113.965 E4.42550
G1 X116.856 Y114.345 E4.48656
G1 X116.187 Y114.979 E4.59604
G1 X115.788 Y115.304 E4.65711
G1 X115.372 Y115.606 E4.71817
G1 X114.849 Y115.940 E4.79187
G1 X114.035 Y116.372 E4.90134
G1 X113.564 Y116.578 E4.96241
G1 X113.082 Y116.758 E5.02347
G1 X112.591 Y116.912 E5.08455
G1 X112.093 Y117.038 E5.14561
G1 X111.483 Y117.155 E5.21932
G1 X110.974 Y117.222 E5.28037
G1 X110.461 Y117.261 E5.34145
