; generated by Slic3r 1.2.9 on 2016-08-12 at 10:33:55

; external perimeters extrusion width = 0.40mm
; perimeters extrusion width = 0.68mm
; infill extrusion width = 2.52mm
; solid infill extrusion width = 0.68mm
; top infill extrusion width = 0.68mm

M107
M190 S50 ; set bed temperature
M104 S200 ; set temperature
G28 ; home all axes
G1 Z5 F5000 ; lift nozzle

M109 S200 ; wait for temperature to be reached
G21 ; set units to millimeters
G90 ; use absolute coordinates
M82 ; use absolute distances for extrusion
G92 E0
G1 Z0.400 F11400.000
G1 E-2.00000 F2400.00000
G92 E0
G1 X101.842 Y102.715 F11400.000
G1 E2.00000 F2400.00000
G1 X103.598 Y101.215 E2.27422 F1065.289
G1 X105.758 Y100.400 E2.54845
G1 X107.015 Y100.281 E2.69842
G1 X113.025 Y100.281 E3.41219
G1 X115.299 Y100.678 E3.68642
G1 X117.305 Y101.822 E3.96064 F1065.289
G1 X118.804 Y103.578 E4.23487
G1 X119.620 Y105.738 E4.50909
G1 X119.739 Y106.995 E4.65906
G1 X119.739 Y113.005 E5.37284
G1 X119.342 Y115.280 E5.64706
G1 X118.198 Y117.285 E5.92129
G1 X116.442 Y118.785 E6.19551
G1 X114.282 Y119.600 E6.46974
G1 X113.025 Y119.719 E6.61971
G1 X107.015 Y119.719 E7.33348
G1 X104.740 Y119.322 E7.60771
G1 X102.735 Y118.178 E7.88193
G1 X101.235 Y116.422 E8.15616
G1 X100.419 Y114.262 E8.43038
G1 X100.301 Y113.005 E8.58035
G1 X100.301 Y106.995 E9.29413
G1 X100.698 Y104.720 E9.56835
G1 X101.812 Y102.767 E9.83545
G1 E7.83545 F2400.00000
G92 E0
G1 X111.200 Y112.605 F11400.000
G1 E2.00000 F2400.00000
G1 X108.813 Y112.605 E2.28350 F1065.289
G1 X110.013 Y111.416 E2.48410
G1 X111.158 Y112.563 E2.67651
G1 X112.625 Y111.211 F11400.000
G1 X111.429 Y110.004 E2.87838 F1065.289
G1 X112.625 Y108.809 E3.07916
G1 X112.625 Y111.151 E3.35731
G1 E1.35731 F2400.00000
G92 E0
G1 X110.015 Y108.587 F11400.000
G1 E2.00000 F2400.00000
G1 X108.825 Y107.395 E2.20002 F1065.289
G1 X111.206 Y107.395 E2.48286
G1 X110.057 Y108.544 E2.67587
G1 E0.67587 F2400.00000
G92 E0
G1 X108.600 Y110.001 F11400.000
G1 E2.00000 F2400.00000
G1 X107.415 Y111.184 E2.19899 F1065.289
G1 X107.415 Y108.804 E2.48171
G1 X108.558 Y109.958 E2.67464
M140 S30 ; wait for bed temperature to be reached
G1 Z0.450 F11400.000
G1 E0.67464 F2400.00000
G92 E0
G1 X107.830 Y112.142 F11400.000
G1 E2.00000 F2400.00000
G1 X107.721 Y111.985 E2.00155 F718.467
G1 X107.648 Y111.746 E2.00357
G1 X107.664 Y111.492 E2.00563
G1 X107.769 Y111.260 E2.00768
G1 X109.016 Y110.003 E2.02202
G1 X107.839 Y108.825 E2.03550
G1 X107.695 Y108.606 E2.03762
G1 X107.650 Y108.424 E2.03913
G1 X107.650 Y108.257 E2.04048
G1 X107.693 Y108.084 E2.04193
G1 X107.771 Y107.938 E2.04327
G1 X107.880 Y107.814 E2.04461
G1 X108.027 Y107.712 E2.04605
G1 X108.182 Y107.654 E2.04739
G1 X108.352 Y107.632 E2.04878
G1 X108.610 Y107.679 E2.05090
G1 X108.817 Y107.806 E2.05286
G1 X110.015 Y109.004 E2.06658
G1 X111.273 Y107.756 E2.08091
G1 X111.505 Y107.652 E2.08297
G1 X111.759 Y107.635 E2.08503
G1 X112.002 Y107.710 E2.08709
G1 X112.199 Y107.862 E2.08911
G1 X112.308 Y108.020 E2.09066
G1 X112.381 Y108.258 E2.09267
G1 X112.365 Y108.512 E2.09473
G1 X112.260 Y108.744 E2.09679
G1 X111.012 Y110.002 E2.11113
G1 X112.260 Y111.260 E2.12547
G1 X112.365 Y111.492 E2.12753
G1 X112.381 Y111.746 E2.12959
G1 X112.307 Y111.990 E2.13165
G1 X112.154 Y112.187 E2.13367
G1 X111.997 Y112.296 E2.13522
G1 X111.759 Y112.369 E2.13724
G1 X111.505 Y112.353 E2.13930
G1 X111.273 Y112.248 E2.14135
G1 X110.015 Y111.000 E2.15569
G1 X108.756 Y112.248 E2.17004
G1 X108.525 Y112.353 E2.17209
G1 X108.270 Y112.369 E2.17415
G1 X108.027 Y112.294 E2.17621
G1 X107.877 Y112.179 E2.17775
G1 X107.215 Y112.805 F11400.000
G1 X107.215 Y107.195 E2.22314 F718.467
G1 X112.825 Y107.195 E2.26854
G1 X112.825 Y112.805 E2.31394
G1 X107.275 Y112.805 E2.35885
G1 X109.289 Y112.438 F11400.000
G1 X110.156 Y111.570 E2.37988 F957.956
G1 X110.740 Y112.154 E2.39403
G1 X110.436 Y112.458 E2.40140
G1 X110.436 Y112.458 F11400.000
G1 X110.740 Y112.154 E2.40877 F957.956
G1 X110.156 Y111.570 E2.42292
G1 X109.289 Y112.438 E2.44395
G1 E0.44395 F2400.00000
G92 E0
G1 X107.582 Y110.724 F11400.000
G1 E2.00000 F2400.00000
G1 X108.442 Y109.865 E2.02056 F957.956
G1 X107.866 Y109.289 E2.03433
G1 X107.562 Y109.593 E2.04161
G1 X107.562 Y109.593 F11400.000
G1 X107.866 Y109.289 E2.04888 F957.956
G1 X108.442 Y109.865 E2.06265
G1 X107.582 Y110.724 E2.08321
G1 E0.08321 F2400.00000
G92 E0
G1 X109.877 Y108.430 F11400.000
G1 E2.00000 F2400.00000
G1 X110.744 Y107.562 E2.02104 F957.956
G1 X109.597 Y107.542 E2.04071
G1 X109.293 Y107.846 E2.04809
G1 X109.293 Y107.846 F11400.000
G1 X109.597 Y107.542 E2.05546 F957.956
G1 X110.744 Y107.562 E2.07513
G1 X109.877 Y108.430 E2.09617
G1 E0.09617 F2400.00000
G92 E0
G1 X112.458 Y109.269 F11400.000
G1 E2.00000 F2400.00000
G1 X111.583 Y110.144 E2.02149 F957.956
G1 X112.478 Y110.431 E2.03781
G1 X112.174 Y110.735 E2.04528
G1 X112.174 Y110.735 F11400.000
G1 X112.478 Y110.431 E2.05274 F957.956
G1 X111.583 Y110.144 E2.06907
G1 X112.458 Y109.269 E2.09056
G1 Z0.500 F11400.000
G1 E0.09056 F2400.00000
G92 E0
G1 X107.847 Y112.155 F11400.000
G1 E2.00000 F2400.00000
G1 X107.717 Y111.969 E2.00183 F719.479
G1 X107.651 Y111.732 E2.00382
G1 X107.671 Y111.485 E2.00583
G1 X107.774 Y111.261 E2.00783
G1 X109.023 Y110.003 E2.02217
G1 X107.844 Y108.825 E2.03566
G1 X107.722 Y108.653 E2.03737
G1 X107.670 Y108.511 E2.03859
G1 X107.652 Y108.280 E2.04047
G1 X107.681 Y108.134 E2.04167
G1 X107.764 Y107.954 E2.04328
G1 X107.946 Y107.764 E2.04541
G1 X108.147 Y107.668 E2.04720
G1 X108.312 Y107.638 E2.04857
G1 X108.502 Y107.654 E2.05011
G1 X108.643 Y107.699 E2.05130
G1 X108.829 Y107.824 E2.05312
G1 X110.015 Y109.011 E2.06669
G1 X111.273 Y107.762 E2.08104
G1 X111.498 Y107.658 E2.08304
G1 X111.745 Y107.638 E2.08505
G1 X111.983 Y107.705 E2.08705
G1 X112.182 Y107.850 E2.08904
G1 X112.312 Y108.035 E2.09087
G1 X112.378 Y108.272 E2.09286
G1 X112.359 Y108.519 E2.09486
G1 X112.255 Y108.743 E2.09687
G1 X111.005 Y110.002 E2.11122
G1 X112.255 Y111.261 E2.12557
G1 X112.359 Y111.485 E2.12757
G1 X112.378 Y111.732 E2.12958
G1 X112.311 Y111.971 E2.13158
G1 X112.167 Y112.170 E2.13357
G1 X111.981 Y112.299 E2.13540
G1 X111.745 Y112.366 E2.13739
G1 X111.498 Y112.346 E2.13940
G1 X111.273 Y112.243 E2.14140
G1 X110.015 Y110.993 E2.15575
G1 X108.756 Y112.243 E2.17010
G1 X108.531 Y112.346 E2.17210
G1 X108.284 Y112.366 E2.17411
G1 X108.046 Y112.299 E2.17611
G1 X107.896 Y112.190 E2.17761
G1 X107.215 Y112.805 F11400.000
G1 X107.215 Y107.195 E2.22301 F719.479
G1 X112.825 Y107.195 E2.26841
G1 X112.825 Y112.805 E2.31380
G1 X107.275 Y112.805 E2.35872
G1 X107.866 Y110.730 F11400.000
G1 X107.562 Y110.426 E2.36607 F959.305
G1 X107.583 Y109.283 E2.38564
G1 X108.448 Y110.148 E2.40658
G1 X108.448 Y110.148 F11400.000
G1 X107.583 Y109.283 E2.42752 F959.305
G1 X107.562 Y110.426 E2.44708
G1 X107.866 Y110.730 E2.45443
G1 E0.45443 F2400.00000
G92 E0
G1 X109.587 Y112.458 F11400.000
G1 E2.00000 F2400.00000
G1 X109.283 Y112.154 E2.00745 F959.305
G1 X109.873 Y111.564 E2.02188
G1 X110.746 Y112.438 E2.04328
G1 X110.746 Y112.438 F11400.000
G1 X109.873 Y111.564 E2.06467 F959.305
G1 X109.283 Y112.154 E2.07911
G1 X109.587 Y112.458 E2.08655
G1 E0.08655 F2400.00000
G92 E0
G1 X112.458 Y110.741 F11400.000
G1 E2.00000 F2400.00000
G1 X111.577 Y109.860 E2.02185 F959.305
G1 X112.174 Y109.263 E2.03666
G1 X112.478 Y109.567 E2.04420
G1 X112.478 Y109.567 F11400.000
G1 X112.174 Y109.263 E2.05174 F959.305
G1 X111.577 Y109.860 E2.06655
G1 X112.458 Y110.741 E2.08840
G1 E0.08840 F2400.00000
G92 E0
G1 X110.750 Y107.846 F11400.000
G1 E2.00000 F2400.00000
G1 X110.446 Y107.542 E2.00745 F959.305
G1 X110.161 Y108.436 E2.02370
G1 X109.287 Y107.563 E2.04510
G1 X109.287 Y107.563 F11400.000
G1 X110.161 Y108.436 E2.06650 F959.305
G1 X110.446 Y107.542 E2.08276
G1 X110.750 Y107.846 E2.09021
M106 S255
G1 Z0.550 F11400.000
G1 E0.09021 F2400.00000
G92 E0
G1 X107.856 Y112.161 F11400.000
G1 E2.00000 F2400.00000
G1 X107.716 Y111.961 E2.00198 F720.241
G1 X107.652 Y111.725 E2.00395
G1 X107.674 Y111.482 E2.00593
G1 X107.777 Y111.261 E2.00790
G1 X109.025 Y110.003 E2.02224
G1 X107.846 Y108.823 E2.03574
G1 X107.721 Y108.645 E2.03750
G1 X107.673 Y108.513 E2.03863
G1 X107.653 Y108.288 E2.04047
G1 X107.678 Y108.150 E2.04160
G1 X107.777 Y107.937 E2.04350
G1 X107.950 Y107.765 E2.04548
G1 X108.163 Y107.665 E2.04738
G1 X108.300 Y107.641 E2.04851
G1 X108.535 Y107.661 E2.05041
G1 X108.748 Y107.761 E2.05232
G1 X110.015 Y109.013 E2.06673
G1 X111.273 Y107.764 E2.08108
G1 X111.494 Y107.661 E2.08305
G1 X111.738 Y107.640 E2.08502
G1 X111.973 Y107.703 E2.08700
G1 X112.173 Y107.843 E2.08898
G1 X112.313 Y108.043 E2.09095
G1 X112.377 Y108.279 E2.09293
G1 X112.355 Y108.522 E2.09490
G1 X112.252 Y108.743 E2.09688
G1 X111.003 Y110.002 E2.11122
G1 X112.252 Y111.261 E2.12557
G1 X112.355 Y111.482 E2.12755
G1 X112.377 Y111.725 E2.12952
G1 X112.313 Y111.961 E2.13150
G1 X112.173 Y112.161 E2.13347
G1 X111.973 Y112.301 E2.13545
G1 X111.738 Y112.364 E2.13743
G1 X111.494 Y112.343 E2.13940
G1 X111.273 Y112.240 E2.14137
G1 X110.015 Y110.991 E2.15572
G1 X108.756 Y112.240 E2.17007
G1 X108.535 Y112.343 E2.17205
G1 X108.292 Y112.364 E2.17402
G1 X108.056 Y112.301 E2.17600
G1 X107.905 Y112.195 E2.17749
G1 X107.215 Y112.805 F11400.000
G1 X107.215 Y107.195 E2.22288 F720.241
G1 X112.825 Y107.195 E2.26828
G1 X112.825 Y112.805 E2.31368
G1 X107.275 Y112.805 E2.35859
G1 X109.281 Y112.438 F11400.000
G1 X110.156 Y111.562 E2.38014 F960.321
G1 X110.748 Y112.154 E2.39470
G1 X110.444 Y112.458 E2.40218
G1 X110.444 Y112.458 F11400.000
G1 X110.748 Y112.154 E2.40966 F960.321
G1 X110.156 Y111.562 E2.42423
G1 X109.281 Y112.438 E2.44578
G1 E0.44578 F2400.00000
G92 E0
G1 X107.582 Y110.733 F11400.000
G1 E2.00000 F2400.00000
G1 X108.451 Y109.864 E2.02109 F960.321
G1 X107.866 Y109.280 E2.03529
G1 X107.562 Y109.584 E2.04267
G1 X107.562 Y109.584 F11400.000
G1 X107.866 Y109.280 E2.05006 F960.321
G1 X108.451 Y109.864 E2.06425
G1 X107.582 Y110.733 E2.08534
G1 E0.08534 F2400.00000
G92 E0
G1 X109.871 Y108.444 F11400.000
G1 E2.00000 F2400.00000
G1 X110.753 Y107.562 E2.02190 F960.321
G1 X109.578 Y107.542 E2.04254
G1 X109.274 Y107.846 E2.05009
G1 X109.274 Y107.846 F11400.000
G1 X109.578 Y107.542 E2.05764 F960.321
G1 X110.753 Y107.562 E2.07829
G1 X109.871 Y108.444 E2.10018
G1 E0.10018 F2400.00000
G92 E0
G1 X112.458 Y109.261 F11400.000
G1 E2.00000 F2400.00000
G1 X111.574 Y110.144 E2.02201 F960.321
G1 X112.478 Y110.440 E2.03876
G1 X112.174 Y110.743 E2.04633
G1 X112.174 Y110.743 F11400.000
G1 X112.478 Y110.440 E2.05391 F960.321
G1 X111.574 Y110.144 E2.07065
G1 X112.458 Y109.261 E2.09267
G1 Z0.600 F11400.000
G1 E0.09267 F2400.00000
G92 E0
G1 X107.856 Y112.161 F11400.000
G1 E2.00000 F2400.00000
G1 X107.716 Y111.961 E2.00198 F720.153
G1 X107.652 Y111.725 E2.00395
G1 X107.674 Y111.482 E2.00593
G1 X107.777 Y111.261 E2.00790
G1 X109.025 Y110.003 E2.02224
G1 X107.846 Y108.823 E2.03574
G1 X107.716 Y108.638 E2.03757
G1 X107.656 Y108.417 E2.03942
G1 X107.655 Y108.280 E2.04053
G1 X107.678 Y108.150 E2.04160
G1 X107.777 Y107.937 E2.04350
G1 X107.949 Y107.765 E2.04547
G1 X108.156 Y107.668 E2.04732
G1 X108.299 Y107.641 E2.04850
G1 X108.534 Y107.661 E2.05041
G1 X108.742 Y107.757 E2.05226
G1 X110.015 Y109.013 E2.06673
G1 X111.273 Y107.764 E2.08107
G1 X111.494 Y107.661 E2.08305
G1 X111.738 Y107.640 E2.08502
G1 X111.973 Y107.703 E2.08700
G1 X112.173 Y107.843 E2.08897
G1 X112.313 Y108.043 E2.09095
G1 X112.377 Y108.279 E2.09293
G1 X112.355 Y108.522 E2.09490
G1 X112.252 Y108.743 E2.09687
G1 X111.003 Y110.002 E2.11122
G1 X112.252 Y111.261 E2.12557
G1 X112.355 Y111.482 E2.12754
G1 X112.377 Y111.725 E2.12952
G1 X112.313 Y111.961 E2.13150
G1 X112.173 Y112.161 E2.13347
G1 X111.973 Y112.301 E2.13545
G1 X111.738 Y112.364 E2.13742
G1 X111.494 Y112.343 E2.13940
G1 X111.273 Y112.240 E2.14137
G1 X110.015 Y110.991 E2.15572
G1 X108.756 Y112.240 E2.17007
G1 X108.535 Y112.343 E2.17204
G1 X108.292 Y112.364 E2.17402
G1 X108.056 Y112.301 E2.17600
G1 X107.905 Y112.195 E2.17749
G1 X107.215 Y112.805 F11400.000
G1 X107.215 Y107.195 E2.22288 F720.153
G1 X112.825 Y107.195 E2.26828
G1 X112.825 Y112.805 E2.31368
G1 X107.275 Y112.805 E2.35859
G1 X107.866 Y110.733 F11400.000
G1 X107.562 Y110.429 E2.36597 F960.204
G1 X107.582 Y109.280 E2.38571
G1 X108.451 Y110.148 E2.40680
G1 X108.451 Y110.148 F11400.000
G1 X107.582 Y109.280 E2.42789 F960.204
G1 X107.562 Y110.429 E2.44763
G1 X107.866 Y110.733 E2.45501
G1 E0.45501 F2400.00000
G92 E0
G1 X109.585 Y112.458 F11400.000
G1 E2.00000 F2400.00000
G1 X109.281 Y112.154 E2.00748 F960.204
G1 X109.873 Y111.562 E2.02204
G1 X110.748 Y112.438 E2.04360
G1 X110.748 Y112.438 F11400.000
G1 X109.873 Y111.562 E2.06515 F960.204
G1 X109.281 Y112.154 E2.07971
G1 X109.585 Y112.458 E2.08719
G1 E0.08719 F2400.00000
G92 E0
G1 X112.458 Y110.743 F11400.000
G1 E2.00000 F2400.00000
G1 X111.574 Y109.860 E2.02201 F960.204
G1 X112.174 Y109.261 E2.03695
G1 X112.478 Y109.565 E2.04452
G1 X112.478 Y109.565 F11400.000
G1 X112.174 Y109.261 E2.05210 F960.204
G1 X111.574 Y109.860 E2.06704
G1 X112.458 Y110.743 E2.08905
G1 E0.08905 F2400.00000
G92 E0
G1 X110.753 Y107.846 F11400.000
G1 E2.00000 F2400.00000
G1 X110.449 Y107.542 E2.00756 F960.204
G1 X110.154 Y108.445 E2.02427
G1 X109.272 Y107.562 E2.04623
G1 X109.272 Y107.562 F11400.000
G1 X110.154 Y108.445 E2.06818 F960.204
G1 X110.449 Y107.542 E2.08489
G1 X110.753 Y107.846 E2.09245
G1 Z0.650 F11400.000
G1 E0.09245 F2400.00000
G92 E0
G1 X107.856 Y112.161 F11400.000
G1 E2.00000 F2400.00000
G1 X107.716 Y111.961 E2.00198 F719.892
G1 X107.652 Y111.725 E2.00395
G1 X107.674 Y111.482 E2.00593
G1 X107.777 Y111.261 E2.00790
G1 X109.025 Y110.003 E2.02224
G1 X107.846 Y108.823 E2.03574
G1 X107.716 Y108.638 E2.03757
G1 X107.657 Y108.422 E2.03938
G1 X107.654 Y108.281 E2.04052
G1 X107.678 Y108.150 E2.04160
G1 X107.773 Y107.945 E2.04343
G1 X107.863 Y107.839 E2.04456
G1 X108.046 Y107.709 E2.04637
G1 X108.290 Y107.640 E2.04843
G1 X108.534 Y107.661 E2.05041
G1 X108.738 Y107.755 E2.05222
G1 X108.840 Y107.838 E2.05329
G1 X110.015 Y109.013 E2.06673
G1 X111.273 Y107.764 E2.08108
G1 X111.494 Y107.661 E2.08305
G1 X111.738 Y107.640 E2.08502
G1 X111.973 Y107.703 E2.08700
G1 X112.173 Y107.843 E2.08898
G1 X112.313 Y108.043 E2.09095
G1 X112.377 Y108.279 E2.09293
G1 X112.355 Y108.522 E2.09490
G1 X112.252 Y108.743 E2.09688
G1 X111.003 Y110.002 E2.11123
G1 X112.252 Y111.261 E2.12557
G1 X112.355 Y111.482 E2.12755
G1 X112.377 Y111.725 E2.12952
G1 X112.313 Y111.961 E2.13150
G1 X112.173 Y112.161 E2.13347
G1 X111.973 Y112.301 E2.13545
G1 X111.737 Y112.364 E2.13743
G1 X111.494 Y112.343 E2.13940
G1 X111.273 Y112.240 E2.14137
G1 X110.015 Y110.991 E2.15572
G1 X108.756 Y112.240 E2.17007
G1 X108.535 Y112.343 E2.17205
G1 X108.292 Y112.364 E2.17402
G1 X108.056 Y112.301 E2.17600
G1 X107.905 Y112.195 E2.17749
G1 X107.215 Y112.805 F11400.000
G1 X107.215 Y107.195 E2.22288 F719.892
G1 X112.825 Y107.195 E2.26828
G1 X112.825 Y112.805 E2.31368
G1 X107.275 Y112.805 E2.35859
G1 X109.281 Y112.438 F11400.000
G1 X110.156 Y111.562 E2.38014 F959.856
G1 X110.748 Y112.154 E2.39471
G1 X110.444 Y112.458 E2.40218
G1 X110.444 Y112.458 F11400.000
G1 X110.748 Y112.154 E2.40966 F959.856
G1 X110.156 Y111.562 E2.42423
G1 X109.281 Y112.438 E2.44578
G1 E0.44578 F2400.00000
G92 E0
G1 X107.582 Y110.733 F11400.000
G1 E2.00000 F2400.00000
G1 X108.451 Y109.864 E2.02109 F959.856
G1 X107.866 Y109.280 E2.03529
G1 X107.562 Y109.584 E2.04267
G1 X107.562 Y109.584 F11400.000
G1 X107.866 Y109.280 E2.05006 F959.856
G1 X108.451 Y109.864 E2.06425
G1 X107.582 Y110.733 E2.08534
G1 E0.08534 F2400.00000
G92 E0
G1 X109.877 Y108.438 F11400.000
G1 E2.00000 F2400.00000
G1 X110.753 Y107.562 E2.02155 F959.856
G1 X109.589 Y107.542 E2.04180
G1 X109.285 Y107.846 E2.04928
G1 X109.285 Y107.846 F11400.000
G1 X109.589 Y107.542 E2.05676 F959.856
G1 X110.753 Y107.562 E2.07700
G1 X109.877 Y108.438 E2.09855
G1 E0.09855 F2400.00000
G92 E0
G1 X112.458 Y109.261 F11400.000
G1 E2.00000 F2400.00000
G1 X111.574 Y110.144 E2.02201 F959.856
G1 X112.478 Y110.440 E2.03876
G1 X112.174 Y110.743 E2.04633
G1 X112.174 Y110.743 F11400.000
G1 X112.478 Y110.440 E2.05391 F959.856
G1 X111.574 Y110.144 E2.07065
G1 X112.458 Y109.261 E2.09267
G1 Z0.700 F11400.000
