; generated by Slic3r 1.2.9 on 2016-07-12 at 00:54:34

; external perimeters extrusion width = 0.40mm
; perimeters extrusion width = 0.48mm
; infill extrusion width = 0.48mm
; solid infill extrusion width = 0.48mm
; top infill extrusion width = 0.48mm
; support material extrusion width = 0.40mm

M107
M190 S50 ; set bed temperature
M104 S210 ; set temperature
G28 ; home all axes
G1 Z5 F5000 ; lift nozzle

M109 S210 ; wait for temperature to be reached
G21 ; set units to millimeters
G90 ; use absolute coordinates
M82 ; use absolute distances for extrusion
G92 E0
G1 Z0.400 F11400.000
G1 X41.083 Y62.620 F11400.000
G1 X44.031 Y61.702 E0.36673 F1800.000
G1 X68.476 Y59.991 E3.27707
G1 X68.945 Y59.974 E3.33280
G1 X72.141 Y59.974 E3.71230
G1 X175.728 Y63.490 E16.02196 F1800.000
G1 X177.988 Y63.964 E16.29619
G1 X179.953 Y65.175 E16.57041
G1 X181.392 Y66.981 E16.84464
G1 X182.214 Y70.200 E17.23920
G1 X182.214 Y149.800 E26.69291
G1 X181.817 Y152.075 E26.96713
G1 X180.673 Y154.080 E27.24136
G1 X178.917 Y155.580 E27.51558
G1 X175.676 Y156.512 E27.91611
G1 X107.076 Y158.312 E36.06621
G1 X44.500 Y158.314 E43.49807
G1 X42.225 Y157.917 E43.77230
G1 X40.220 Y156.773 E44.04652
G1 X38.720 Y155.017 E44.32075
G1 X37.905 Y152.857 E44.59497
G1 X37.786 Y151.600 E44.74494
G1 X37.786 Y68.400 E54.62620
G1 X38.183 Y66.125 E54.90043
G1 X39.327 Y64.120 E55.17465
G1 X41.037 Y62.659 E55.44175
G1 E53.44175 F2400.00000
G92 E0
G1 X105.786 Y150.486 F11400.000
G1 E2.00000 F2400.00000
G1 X45.614 Y150.486 E9.14630 F1800.000
G1 X45.614 Y69.514 E18.76292
G1 X105.786 Y69.514 E25.90922
G1 X105.786 Y150.426 E35.51871
G1 X106.500 Y151.200 F11400.000
G1 X44.900 Y151.200 E42.83465 F1800.000
G1 X44.900 Y68.800 E52.62090
G1 X106.500 Y68.800 E59.93683
G1 X106.500 Y151.140 E69.71596
G1 X106.154 Y151.000 F11400.000
G1 X46.393 Y150.050 F11400.000
G1 X46.050 Y149.707 E69.77371 F1800.000
G1 X46.050 Y148.695 E69.89426
G1 X47.405 Y150.050 E70.12250
G1 X48.418 Y150.050 E70.24305
G1 X46.050 Y147.682 E70.64178
G1 X46.050 Y146.670 E70.76234
G1 X49.430 Y150.050 E71.33156
G1 X50.443 Y150.050 E71.45211
G1 X46.050 Y145.657 E72.19182
G1 X46.050 Y144.645 E72.31238
G1 X51.455 Y150.050 E73.22258
G1 X52.468 Y150.050 E73.34314
G1 X46.050 Y143.632 E74.42383
G1 X46.050 Y142.620 E74.54439
G1 X53.480 Y150.050 E75.79557
G1 X54.493 Y150.050 E75.91613
G1 X46.050 Y141.607 E77.33780
G1 X46.050 Y140.595 E77.45836
G1 X55.505 Y150.050 E79.05052
G1 X56.518 Y150.050 E79.17108
G1 X46.050 Y139.582 E80.93374
G1 X46.050 Y138.570 E81.05429
G1 X57.530 Y150.050 E82.98744
G1 X58.543 Y150.050 E83.10800
G1 X46.050 Y137.557 E85.21164
G1 X46.050 Y136.545 E85.33219
G1 X59.555 Y150.050 E87.60633
G1 X60.568 Y150.050 E87.72688
G1 X46.050 Y135.532 E90.17151
G1 X46.050 Y134.520 E90.29206
G1 X61.580 Y150.050 E92.90718
G1 X62.593 Y150.050 E93.02773
G1 X46.050 Y133.507 E95.81334
G1 X46.050 Y132.495 E95.93389
G1 X63.605 Y150.050 E98.88999
G1 X64.618 Y150.050 E99.01054
G1 X46.050 Y131.482 E102.13713
G1 X46.050 Y130.469 E102.25769
G1 X65.631 Y150.050 E105.55477
G1 X66.643 Y150.050 E105.67532
G1 X46.050 Y129.457 E109.14289
G1 X46.050 Y128.444 E109.26345
G1 X67.656 Y150.050 E112.90151
G1 X68.668 Y150.050 E113.02207
G1 X46.050 Y127.432 E116.83062
G1 X46.050 Y126.419 E116.95118
G1 X69.681 Y150.050 E120.93022
G1 X70.693 Y150.050 E121.05078
G1 X46.050 Y125.407 E125.20031
G1 X46.050 Y124.394 E125.32087
G1 X71.706 Y150.050 E129.64089
G1 X72.718 Y150.050 E129.76145
G1 X46.050 Y123.382 E134.25197
G1 X46.050 Y122.369 E134.37252
G1 X73.731 Y150.050 E139.03353
G1 X74.743 Y150.050 E139.15409
G1 X46.050 Y121.357 E143.98559
G1 X46.050 Y120.344 E144.10615
G1 X75.756 Y150.050 E149.10814
G1 X76.768 Y150.050 E149.22869
G1 X46.050 Y119.332 E154.40118
G1 X46.050 Y118.319 E154.52173
G1 X77.781 Y150.050 E159.86471
G1 X78.793 Y150.050 E159.98526
G1 X46.050 Y117.307 E165.49873
G1 X46.050 Y116.294 E165.61928
G1 X79.806 Y150.050 E171.30324
G1 X80.818 Y150.050 E171.42380
G1 X46.050 Y115.282 E177.27824
G1 X46.050 Y114.269 E177.39880
G1 X81.831 Y150.050 E183.42374
G1 X82.843 Y150.050 E183.54429
G1 X46.050 Y113.257 E189.73973
G1 X46.050 Y112.244 E189.86028
G1 X83.856 Y150.050 E196.22620
G1 X84.868 Y150.050 E196.34676
G1 X46.050 Y111.232 E202.88317
G1 X46.050 Y110.219 E203.00373
G1 X85.881 Y150.050 E209.71063
G1 X86.893 Y150.050 E209.83119
G1 X46.050 Y109.207 E216.70858
G1 X46.050 Y108.194 E216.82914
G1 X87.906 Y150.050 E223.87703
G1 X88.918 Y150.050 E223.99758
G1 X46.050 Y107.181 E231.21596
G1 X46.050 Y106.169 E231.33651
G1 X89.931 Y150.050 E238.72538
G1 X90.944 Y150.050 E238.84594
G1 X46.050 Y105.156 E246.40530
G1 X46.050 Y104.144 E246.52586
G1 X91.956 Y150.050 E254.25571
G1 X92.969 Y150.050 E254.37626
G1 X46.050 Y103.131 E262.27661
G1 X46.050 Y102.119 E262.39716
G1 X93.981 Y150.050 E270.46800
G1 X94.994 Y150.050 E270.58855
G1 X46.050 Y101.106 E278.82988
G1 X46.050 Y100.094 E278.95043
G1 X96.006 Y150.050 E287.36225
G1 X97.019 Y150.050 E287.48281
G1 X46.050 Y99.081 E296.06512
G1 X46.050 Y98.069 E296.18567
G1 X98.031 Y150.050 E304.93847
G1 X99.044 Y150.050 E305.05903
G1 X46.050 Y97.056 E313.98232
G1 X46.050 Y96.044 E314.10287
G1 X100.056 Y150.050 E323.19665
G1 X101.069 Y150.050 E323.31721
G1 X46.050 Y95.031 E332.58148
G1 X46.050 Y94.019 E332.70204
G1 X102.081 Y150.050 E342.13680
G1 X103.094 Y150.050 E342.25736
G1 X46.050 Y93.006 E351.86261
G1 X46.050 Y91.994 E351.98317
G1 X104.106 Y150.050 E361.75892
G1 X105.119 Y150.050 E361.87947
G1 X46.050 Y90.981 E371.82571
G1 X46.050 Y89.969 E371.94627
G1 X105.350 Y149.269 E381.93148
G1 X105.350 Y148.257 E382.05204
G1 X46.050 Y88.956 E392.03726
G1 X46.050 Y87.944 E392.15781
G1 X105.350 Y147.244 E402.14303
G1 X105.350 Y146.232 E402.26359
G1 X46.050 Y86.931 E412.24880
G1 X46.050 Y85.919 E412.36936
G1 X105.350 Y145.219 E422.35458
G1 X105.350 Y144.207 E422.47513
G1 X46.050 Y84.906 E432.46035
G1 X46.050 Y83.894 E432.58091
G1 X105.350 Y143.194 E442.56612
G1 X105.350 Y142.182 E442.68668
G1 X46.050 Y82.881 E452.67190
G1 X46.050 Y81.868 E452.79245
G1 X105.350 Y141.169 E462.77767
G1 X105.350 Y140.157 E462.89823
G1 X46.050 Y80.856 E472.88344
G1 X46.050 Y79.843 E473.00400
G1 X105.350 Y139.144 E482.98922
G1 X105.350 Y138.132 E483.10977
G1 X46.050 Y78.831 E493.09499
G1 X46.050 Y77.818 E493.21555
G1 X105.350 Y137.119 E503.20076
G1 X105.350 Y136.107 E503.32132
G1 X46.050 Y76.806 E513.30654
G1 X46.050 Y75.793 E513.42709
G1 X105.350 Y135.094 E523.41231
G1 X105.350 Y134.081 E523.53287
G1 X46.050 Y74.781 E533.51808
G1 X46.050 Y73.768 E533.63864
G1 X105.350 Y133.069 E543.62386
G1 X105.350 Y132.056 E543.74441
G1 X46.050 Y72.756 E553.72963
G1 X46.050 Y71.743 E553.85019
G1 X105.350 Y131.044 E563.83540
G1 X105.350 Y130.031 E563.95596
G1 X46.050 Y70.731 E573.94118
G1 X46.281 Y69.950 E574.03817
G1 X105.350 Y129.019 E583.98442
G1 X105.350 Y128.006 E584.10497
G1 X47.294 Y69.950 E593.88073
G1 X48.306 Y69.950 E594.00128
G1 X105.350 Y126.994 E603.60655
G1 X105.350 Y125.981 E603.72710
G1 X49.319 Y69.950 E613.16188
G1 X50.331 Y69.950 E613.28243
G1 X105.350 Y124.969 E622.54671
G1 X105.350 Y123.956 E622.66727
G1 X51.344 Y69.950 E631.76106
G1 X52.356 Y69.950 E631.88161
G1 X105.350 Y122.944 E640.80491
G1 X105.350 Y121.931 E640.92547
G1 X53.369 Y69.950 E649.67828
G1 X54.381 Y69.950 E649.79883
G1 X105.350 Y120.919 E658.38115
G1 X105.350 Y119.906 E658.50170
G1 X55.394 Y69.950 E666.91353
G1 X56.406 Y69.950 E667.03408
G1 X105.350 Y118.894 E675.27542
G1 X105.350 Y117.881 E675.39597
G1 X57.419 Y69.950 E683.46681
G1 X58.431 Y69.950 E683.58737
G1 X105.350 Y116.869 E691.48772
G1 X105.350 Y115.856 E691.60828
G1 X59.444 Y69.950 E699.33814
G1 X60.456 Y69.950 E699.45869
G1 X105.350 Y114.844 E707.01806
G1 X105.350 Y113.831 E707.13862
G1 X61.469 Y69.950 E714.52749
G1 X62.481 Y69.950 E714.64805
G1 X105.350 Y112.819 E721.86644
G1 X105.350 Y111.806 E721.98699
G1 X63.494 Y69.950 E729.03489
G1 X64.506 Y69.950 E729.15544
G1 X105.350 Y110.793 E736.03285
G1 X105.350 Y109.781 E736.15340
G1 X65.519 Y69.950 E742.86031
G1 X66.532 Y69.950 E742.98087
G1 X105.350 Y108.768 E749.51729
G1 X105.350 Y107.756 E749.63785
G1 X67.544 Y69.950 E756.00378
G1 X68.557 Y69.950 E756.12433
G1 X105.350 Y106.743 E762.31977
G1 X105.350 Y105.731 E762.44033
G1 X69.569 Y69.950 E768.46527
G1 X70.582 Y69.950 E768.58583
G1 X105.350 Y104.718 E774.44029
G1 X105.350 Y103.706 E774.56084
G1 X71.594 Y69.950 E780.24481
G1 X72.607 Y69.950 E780.36536
G1 X105.350 Y102.693 E785.87884
G1 X105.350 Y101.681 E785.99939
G1 X73.619 Y69.950 E791.34237
G1 X74.632 Y69.950 E791.46293
G1 X105.350 Y100.668 E796.63542
G1 X105.350 Y99.656 E796.75598
G1 X75.644 Y69.950 E801.75798
G1 X76.657 Y69.950 E801.87853
G1 X105.350 Y98.643 E806.71004
G1 X105.350 Y97.631 E806.83060
G1 X77.669 Y69.950 E811.49161
G1 X78.682 Y69.950 E811.61217
G1 X105.350 Y96.618 E816.10270
G1 X105.350 Y95.606 E816.22325
G1 X79.694 Y69.950 E820.54329
G1 X80.707 Y69.950 E820.66384
G1 X105.350 Y94.593 E824.81339
G1 X105.350 Y93.581 E824.93394
G1 X81.719 Y69.950 E828.91299
G1 X82.732 Y69.950 E829.03355
G1 X105.350 Y92.568 E832.84211
G1 X105.350 Y91.556 E832.96267
G1 X83.744 Y69.950 E836.60074
G1 X84.757 Y69.950 E836.72129
G1 X105.350 Y90.543 E840.18887
G1 X105.350 Y89.531 E840.30943
G1 X85.769 Y69.950 E843.60651
G1 X86.782 Y69.950 E843.72707
G1 X105.350 Y88.518 E846.85367
G1 X105.350 Y87.506 E846.97422
G1 X87.794 Y69.950 E849.93033
G1 X88.807 Y69.950 E850.05088
G1 X105.350 Y86.493 E852.83650
G1 X105.350 Y85.480 E852.95705
G1 X89.820 Y69.950 E855.57218
G1 X90.832 Y69.950 E855.69273
G1 X105.350 Y84.468 E858.13736
G1 X105.350 Y83.455 E858.25792
G1 X91.845 Y69.950 E860.53206
G1 X92.857 Y69.950 E860.65261
G1 X105.350 Y82.443 E862.75626
G1 X105.350 Y81.430 E862.87682
G1 X93.870 Y69.950 E864.80998
G1 X94.882 Y69.950 E864.93053
G1 X105.350 Y80.418 E866.69320
G1 X105.350 Y79.405 E866.81375
G1 X95.895 Y69.950 E868.40593
G1 X96.907 Y69.950 E868.52649
G1 X105.350 Y78.393 E869.94817
G1 X105.350 Y77.380 E870.06872
G1 X97.920 Y69.950 E871.31992
G1 X98.932 Y69.950 E871.44047
G1 X105.350 Y76.368 E872.52117
G1 X105.350 Y75.355 E872.64173
G1 X99.945 Y69.950 E873.55194
G1 X100.957 Y69.950 E873.67250
G1 X105.350 Y74.343 E874.41222
G1 X105.350 Y73.330 E874.53277
G1 X101.970 Y69.950 E875.10200
G1 X102.982 Y69.950 E875.22255
G1 X105.350 Y72.318 E875.62129
G1 X105.350 Y71.305 E875.74185
G1 X103.995 Y69.950 E875.97009
G1 X105.007 Y69.950 E876.09065
G1 X105.350 Y70.293 E876.14840
G1 E874.14840 F2400.00000
G92 E0
G1 X106.900 Y68.400 F11400.000
G1 X108.900 Y68.400 F11400.000
G1 X112.100 Y70.200 F11400.000
G1 X115.900 Y70.200 F11400.000
G1 X127.729 Y128.948 F11400.000
G1 E2.00000 F2400.00000
G1 X127.159 Y128.390 E2.09469 F1800.000
G1 X126.093 Y127.249 E2.28015
G1 X125.093 Y126.041 E2.46643
G1 X124.304 Y124.968 E2.62465
G1 X123.729 Y124.115 E2.74682
G1 X122.927 Y122.780 E2.93175
G1 X122.545 Y122.075 E3.02697
G1 X121.864 Y120.670 E3.21243
G1 X121.270 Y119.226 E3.39789
G1 X120.754 Y117.725 E3.58633
G1 X120.337 Y116.220 E3.77179
G1 X120.009 Y114.686 E3.95807
G1 X119.806 Y113.370 E4.11629
G1 X119.691 Y112.348 E4.23846
G1 X119.598 Y110.793 E4.42339
G1 X119.586 Y109.992 E4.51861
G1 X119.633 Y108.431 E4.70407
G1 X119.773 Y106.876 E4.88953
G1 X120.011 Y105.307 E5.07797
G1 X120.337 Y103.780 E5.26343
G1 X120.757 Y102.267 E5.44988
G1 X121.266 Y100.783 E5.63616
G1 X121.770 Y99.550 E5.79439
G1 X122.197 Y98.616 E5.91638
G1 X122.809 Y97.437 E6.07407
G1 X123.319 Y96.544 E6.19624
G1 X124.161 Y95.234 E6.38116
G1 X124.624 Y94.580 E6.47639
G1 X125.583 Y93.348 E6.66185
G1 X126.620 Y92.169 E6.84830
G1 X127.726 Y91.055 E7.03476
G1 X128.896 Y90.010 E7.22104
G1 X129.939 Y89.181 E7.37926
G1 X130.770 Y88.574 E7.50143
G1 X132.073 Y87.723 E7.68635
G1 X132.764 Y87.315 E7.78158
G1 X134.135 Y86.586 E7.96604
G1 X134.859 Y86.242 E8.06127
G1 X136.299 Y85.636 E8.24673
G1 X137.778 Y85.116 E8.43300
G1 X139.058 Y84.747 E8.59123
G1 X140.058 Y84.502 E8.71340
G1 X141.587 Y84.211 E8.89832
G1 X142.381 Y84.097 E8.99355
G1 X143.933 Y83.945 E9.17883
G1 X145.265 Y83.892 E9.33706 F1800.000
G1 X146.293 Y83.892 E9.45923
G1 X147.855 Y83.974 E9.64497
G1 X149.179 Y84.121 E9.80320
G1 X150.188 Y84.274 E9.92437
G1 X150.971 Y84.423 E10.01906
G1 X152.491 Y84.784 E10.20452
G1 X153.994 Y85.237 E10.39097
G1 X155.467 Y85.780 E10.57743
G1 X156.897 Y86.408 E10.76289
G1 X157.616 Y86.762 E10.85811
G1 X158.983 Y87.516 E11.04357
G1 X160.310 Y88.355 E11.23002
G1 X161.578 Y89.267 E11.41548
G1 X162.200 Y89.759 E11.50972
G1 X162.808 Y90.270 E11.60395
G1 X163.955 Y91.326 E11.78923
G1 X164.882 Y92.283 E11.94745
G1 X165.566 Y93.050 E12.06945
G1 X166.400 Y94.083 E12.22714
G1 X167.008 Y94.902 E12.34831
G1 X167.459 Y95.560 E12.44300
G1 X168.283 Y96.886 E12.62846
G1 X169.030 Y98.267 E12.81492
G1 X169.693 Y99.689 E13.00119
G1 X170.185 Y100.927 E13.15942
G1 X170.526 Y101.897 E13.28159
G1 X170.966 Y103.398 E13.46733
G1 X171.268 Y104.695 E13.62556
G1 X171.459 Y105.706 E13.74773
G1 X171.670 Y107.257 E13.93365
G1 X171.787 Y108.814 E14.11910
G1 X171.812 Y109.616 E14.21433
G1 X171.788 Y111.169 E14.39880
G1 X171.740 Y111.969 E14.49402
G1 X171.577 Y113.514 E14.67848
G1 X171.457 Y114.307 E14.77371
G1 X171.154 Y115.837 E14.95899
G1 X170.821 Y117.127 E15.11722
G1 X170.523 Y118.111 E15.23939
G1 X169.995 Y119.576 E15.42431
G1 X169.690 Y120.318 E15.51954
G1 X169.030 Y121.733 E15.70500
G1 X168.284 Y123.113 E15.89130
G1 X167.569 Y124.269 E16.05280
G1 X167.007 Y125.099 E16.17171
G1 X166.066 Y126.347 E16.35741
G1 X165.203 Y127.362 E16.51564
G1 X164.512 Y128.113 E16.63681
G1 X163.950 Y128.679 E16.73150
G1 X162.801 Y129.736 E16.91696
G1 X161.591 Y130.723 E17.10242
G1 X160.949 Y131.200 E17.19747
G1 X159.853 Y131.944 E17.35470
G1 X158.979 Y132.486 E17.47687
G1 X157.608 Y133.242 E17.66279
G1 X156.190 Y133.915 E17.84924
G1 X154.734 Y134.502 E18.03570
G1 X153.245 Y135.001 E18.22215
G1 X151.738 Y135.407 E18.40761
G1 X150.184 Y135.727 E18.59605
G1 X148.646 Y135.948 E18.78051
G1 X147.848 Y136.026 E18.87574
G1 X146.289 Y136.108 E19.06120
G1 X144.719 Y136.096 E19.24765
G1 X143.161 Y135.991 E19.43311
G1 X142.364 Y135.900 E19.52834
G1 X140.822 Y135.655 E19.71380
G1 X139.297 Y135.317 E19.89926
G1 X137.772 Y134.882 E20.08770
G1 X136.299 Y134.364 E20.27316
G1 X134.852 Y133.755 E20.45961
G1 X133.451 Y133.064 E20.64507
G1 X132.749 Y132.677 E20.74029
G1 X131.424 Y131.867 E20.92476
G1 X130.759 Y131.418 E21.01998
G1 X129.507 Y130.488 E21.20527
G1 X128.485 Y129.633 E21.36349
G1 X127.774 Y128.988 E21.47754
G1 X128.219 Y128.428 F11400.000
G1 X127.670 Y127.891 E21.56875 F1800.000
G1 X126.629 Y126.777 E21.74974
G1 X125.656 Y125.602 E21.93103
G1 X124.888 Y124.556 E22.08509
G1 X124.331 Y123.731 E22.20332
G1 X123.547 Y122.426 E22.38412
G1 X123.181 Y121.749 E22.47552
G1 X122.517 Y120.378 E22.65652
G1 X121.936 Y118.969 E22.83752
G1 X121.438 Y117.519 E23.01958
G1 X121.031 Y116.050 E23.20058
G1 X120.712 Y114.557 E23.38187
G1 X120.514 Y113.275 E23.53592
G1 X120.403 Y112.286 E23.65416
G1 X120.311 Y110.766 E23.83496
G1 X120.300 Y109.997 E23.92636
G1 X120.346 Y108.474 E24.10736
G1 X120.483 Y106.956 E24.28835
G1 X120.713 Y105.440 E24.47042
G1 X121.031 Y103.950 E24.65141
G1 X121.439 Y102.478 E24.83276
G1 X121.935 Y101.035 E25.01405
G1 X122.426 Y99.834 E25.16811
G1 X122.839 Y98.929 E25.28628
G1 X123.436 Y97.779 E25.44014
G1 X123.930 Y96.915 E25.55838
G1 X124.753 Y95.634 E25.73918
G1 X125.198 Y95.006 E25.83058
G1 X126.134 Y93.803 E26.01157
G1 X127.142 Y92.657 E26.19293
G1 X128.218 Y91.573 E26.37428
G1 X129.356 Y90.556 E26.55557
G1 X130.372 Y89.749 E26.70963
G1 X131.176 Y89.162 E26.82786
G1 X132.450 Y88.329 E27.00866
G1 X133.113 Y87.938 E27.10006
G1 X134.456 Y87.224 E27.28070
G1 X135.151 Y86.894 E27.37210
G1 X136.556 Y86.303 E27.55310
G1 X137.996 Y85.796 E27.73438
G1 X139.242 Y85.437 E27.88844
G1 X140.209 Y85.200 E28.00667
G1 X141.705 Y84.916 E28.18748
G1 X142.466 Y84.807 E28.27888
G1 X143.983 Y84.658 E28.45981
G1 X145.279 Y84.606 E28.61387 F1800.000
G1 X146.274 Y84.606 E28.73210
G1 X147.797 Y84.687 E28.91320
G1 X149.086 Y84.829 E29.06725
G1 X150.068 Y84.978 E29.18513
G1 X150.822 Y85.122 E29.27633
G1 X152.305 Y85.474 E29.45733
G1 X153.767 Y85.915 E29.63868
G1 X155.199 Y86.443 E29.82004
G1 X156.595 Y87.055 E30.00103
