; generated by Slic3r 1.2.9 on 2016-09-08 at 12:41:24

; external perimeters extrusion width = 0.40mm
; perimeters extrusion width = 0.48mm
; infill extrusion width = 0.48mm
; solid infill extrusion width = 0.48mm
; top infill extrusion width = 0.48mm
; support material extrusion width = 0.40mm

M107
M190 S30 ; set bed temperature
M104 S190 ; set temperature
G28 ; home all axes
G1 Z5 F5000 ; lift nozzle

M109 S190 ; wait for temperature to be reached
G21 ; set units to millimeters
G90 ; use absolute coordinates
M82 ; use absolute distances for extrusion
G92 E0
G1 Z0.400 F11400.000
G1 E-2.00000 F2400.00000
G92 E0
G1 X72.863 Y66.548 F11400.000
G1 E2.00000 F2400.00000
G1 X73.484 Y65.927 E2.10431 F1800.000
G1 X73.818 Y65.634 E2.15713
G1 X74.513 Y65.100 E2.26124
G1 X74.885 Y64.852 E2.31427
G1 X75.643 Y64.414 E2.41833
G1 X76.044 Y64.216 E2.47135
G1 X76.858 Y63.879 E2.57596
G1 X77.277 Y63.737 E2.62853
G1 X78.122 Y63.510 E2.73249
G1 X78.561 Y63.423 E2.78558
G1 X79.429 Y63.308 E2.88964
G1 X79.876 Y63.279 E2.94277
G1 X80.315 Y63.265 E2.99494
G1 X140.475 Y63.265 E10.13985
G1 X140.913 Y63.279 E10.19193
G1 X141.358 Y63.308 E10.24484 F1800.000
G1 X142.228 Y63.423 E10.34915
G1 X142.665 Y63.510 E10.40202
G1 X143.513 Y63.737 E10.50626
G1 X143.934 Y63.880 E10.55908
G1 X144.741 Y64.214 E10.66281
G1 X145.145 Y64.413 E10.71626
G1 X145.905 Y64.852 E10.82052
G1 X146.275 Y65.099 E10.87334
G1 X146.970 Y65.632 E10.97744
G1 X147.306 Y65.927 E11.03048
G1 X147.927 Y66.548 E11.13479
G1 X148.220 Y66.882 E11.18761
G1 X148.753 Y67.577 E11.29162
G1 X149.002 Y67.949 E11.34475
G1 X149.440 Y68.708 E11.44881
G1 X149.638 Y69.108 E11.50183
G1 X149.974 Y69.920 E11.60619
G1 X150.117 Y70.341 E11.65901
G1 X150.343 Y71.183 E11.76261
G1 X150.431 Y71.625 E11.81612
G1 X150.545 Y72.496 E11.92038
G1 X150.589 Y73.379 E12.02541
G1 X150.589 Y103.579 E15.61212
G1 X149.798 Y146.744 E20.73949
G1 X149.756 Y147.504 E20.82991
G1 X149.641 Y148.375 E20.93416
G1 X149.554 Y148.812 E20.98709
G1 X149.327 Y149.659 E21.09127
G1 X149.189 Y150.068 E21.14258
G1 X148.848 Y150.892 E21.24842
G1 X148.652 Y151.291 E21.30124
G1 X148.212 Y152.051 E21.40553
G1 X147.972 Y152.411 E21.45689
G1 X147.431 Y153.118 E21.56267
G1 X147.137 Y153.453 E21.61559
G1 X146.508 Y154.081 E21.72119
G1 X146.182 Y154.366 E21.77261
G1 X145.485 Y154.901 E21.87690
G1 X145.115 Y155.148 E21.92975
G1 X144.355 Y155.587 E22.03401
G1 X143.956 Y155.784 E22.08683
G1 X143.144 Y156.120 E22.19119
G1 X142.723 Y156.263 E22.24401
G1 X141.863 Y156.493 E22.34975
G1 X141.439 Y156.577 E22.40113
G1 X140.569 Y156.692 E22.50536
G1 X140.124 Y156.721 E22.55825
G1 X139.685 Y156.735 E22.61042
G1 X79.525 Y156.735 E29.75533
G1 X79.086 Y156.721 E29.80751
G1 X78.642 Y156.692 E29.86033
G1 X77.772 Y156.577 E29.96463
G1 X77.336 Y156.490 E30.01745
G1 X76.488 Y156.263 E30.12169
G1 X76.066 Y156.120 E30.17456
G1 X75.255 Y155.784 E30.27884
G1 X74.856 Y155.587 E30.33174
G1 X74.095 Y155.148 E30.43600
G1 X73.725 Y154.901 E30.48882
G1 X73.029 Y154.366 E30.59314
G1 X72.694 Y154.073 E30.64596
G1 X72.073 Y153.452 E30.75027
G1 X71.780 Y153.118 E30.80309
G1 X71.245 Y152.421 E30.90740
G1 X70.998 Y152.051 E30.96022
G1 X70.559 Y151.291 E31.06451
G1 X70.362 Y150.892 E31.11734
G1 X70.026 Y150.081 E31.22162
G1 X69.883 Y149.659 E31.27444
G1 X69.656 Y148.811 E31.37878
G1 X69.569 Y148.375 E31.43159
G1 X69.455 Y147.504 E31.53590
G1 X69.412 Y146.727 E31.62828
G1 X68.585 Y94.474 E37.83497
G1 X68.585 Y81.617 E39.36193
G1 X68.702 Y80.367 E39.51104
G1 X70.359 Y71.625 E40.56767
G1 X70.445 Y71.189 E40.62049
G1 X70.673 Y70.341 E40.72483
G1 X70.817 Y69.917 E40.77794
G1 X71.152 Y69.108 E40.88196
G1 X71.349 Y68.708 E40.93498
G1 X71.788 Y67.949 E41.03904
G1 X72.036 Y67.578 E41.09207
G1 X72.569 Y66.882 E41.19618
G1 X72.823 Y66.593 E41.24187
G1 E39.24187 F2400.00000
G92 E0
G1 X129.049 Y147.185 F11400.000
G1 E2.00000 F2400.00000
G1 X90.161 Y147.185 E6.61858 F1800.000
G1 X90.161 Y143.857 E7.01387
G1 X129.049 Y143.857 E11.63245
G1 X129.049 Y147.125 E12.02061
G1 X128.335 Y146.471 F11400.000
G1 X126.435 Y146.471 E12.24626 F1800.000
G1 X126.435 Y144.571 E12.47191
G1 X128.335 Y144.571 E12.69757
G1 X128.335 Y146.411 E12.91609
G1 X128.335 Y146.871 F11400.000
G1 X125.795 Y146.471 F11400.000
G1 X123.895 Y146.471 E13.14175 F1800.000
G1 X123.895 Y144.571 E13.36740
G1 X125.795 Y144.571 E13.59306
G1 X125.795 Y146.411 E13.81159
G1 X125.795 Y146.871 F11400.000
G1 X123.255 Y146.471 F11400.000
G1 X121.355 Y146.471 E14.03724 F1800.000
G1 X121.355 Y144.571 E14.26290
G1 X123.255 Y144.571 E14.48855
G1 X123.255 Y146.411 E14.70708
G1 X123.255 Y146.871 F11400.000
G1 X120.715 Y146.471 F11400.000
G1 X118.815 Y146.471 E14.93273 F1800.000
G1 X118.815 Y144.571 E15.15839
G1 X120.715 Y144.571 E15.38404
G1 X120.715 Y146.411 E15.60257
G1 X120.715 Y146.871 F11400.000
G1 X118.175 Y146.471 F11400.000
G1 X116.275 Y146.471 E15.82822 F1800.000
G1 X116.275 Y144.571 E16.05388
G1 X118.175 Y144.571 E16.27953
G1 X118.175 Y146.411 E16.49806
G1 X118.175 Y146.871 F11400.000
G1 X115.635 Y146.471 F11400.000
G1 X113.735 Y146.471 E16.72371 F1800.000
G1 X113.735 Y144.571 E16.94937
G1 X115.635 Y144.571 E17.17502
G1 X115.635 Y146.411 E17.39355
G1 X115.635 Y146.871 F11400.000
G1 X113.095 Y146.471 F11400.000
G1 X111.195 Y146.471 E17.61920 F1800.000
G1 X111.195 Y144.571 E17.84486
G1 X113.095 Y144.571 E18.07051
G1 X113.095 Y146.411 E18.28904
G1 X113.095 Y146.871 F11400.000
G1 X110.555 Y146.471 F11400.000
G1 X108.655 Y146.471 E18.51470 F1800.000
G1 X108.655 Y144.571 E18.74035
G1 X110.555 Y144.571 E18.96601
G1 X110.555 Y146.411 E19.18453
G1 X110.555 Y146.871 F11400.000
G1 X108.015 Y146.471 F11400.000
G1 X106.115 Y146.471 E19.41019 F1800.000
G1 X106.115 Y144.571 E19.63584
G1 X108.015 Y144.571 E19.86150
G1 X108.015 Y146.411 E20.08003
G1 X108.015 Y146.871 F11400.000
G1 X105.475 Y146.471 F11400.000
G1 X103.575 Y146.471 E20.30568 F1800.000
G1 X103.575 Y144.571 E20.53134
G1 X105.475 Y144.571 E20.75699
G1 X105.475 Y146.411 E20.97552
G1 X105.475 Y146.871 F11400.000
G1 X102.935 Y146.471 F11400.000
G1 X101.035 Y146.471 E21.20117 F1800.000
G1 X101.035 Y144.571 E21.42683
G1 X102.935 Y144.571 E21.65248
G1 X102.935 Y146.411 E21.87101
G1 X102.935 Y146.871 F11400.000
G1 X100.395 Y146.471 F11400.000
G1 X98.495 Y146.471 E22.09666 F1800.000
G1 X98.495 Y144.571 E22.32232
G1 X100.395 Y144.571 E22.54797
G1 X100.395 Y146.411 E22.76650
G1 X100.395 Y146.871 F11400.000
G1 X97.855 Y146.471 F11400.000
G1 X95.955 Y146.471 E22.99215 F1800.000
G1 X95.955 Y144.571 E23.21781
G1 X97.855 Y144.571 E23.44346
G1 X97.855 Y146.411 E23.66199
G1 X97.855 Y146.871 F11400.000
G1 X95.315 Y146.471 F11400.000
G1 X93.415 Y146.471 E23.88764 F1800.000
G1 X93.415 Y144.571 E24.11330
G1 X95.315 Y144.571 E24.33895
G1 X95.315 Y146.411 E24.55748
G1 X95.315 Y146.871 F11400.000
G1 X92.775 Y146.471 F11400.000
G1 X90.875 Y146.471 E24.78314 F1800.000
G1 X90.875 Y144.571 E25.00879
G1 X92.775 Y144.571 E25.23445
G1 X92.775 Y146.411 E25.45297
G1 X92.775 Y146.871 F11400.000
G1 X90.161 Y119.185 F11400.000
G1 X90.161 Y115.857 E25.84826 F1800.000
G1 X129.049 Y115.857 E30.46684
G1 X129.049 Y119.185 E30.86213
G1 X90.221 Y119.185 E35.47358
G1 X126.435 Y118.471 F11400.000
G1 X126.435 Y116.571 E35.69924 F1800.000
G1 X128.335 Y116.571 E35.92489
G1 X128.335 Y118.471 E36.15054
G1 X126.495 Y118.471 E36.36907
G1 X126.035 Y118.471 F11400.000
G1 X125.795 Y118.471 F11400.000
G1 X123.895 Y118.471 E36.59472 F1800.000
G1 X123.895 Y116.571 E36.82038
G1 X125.795 Y116.571 E37.04603
G1 X125.795 Y118.411 E37.26456
G1 X125.795 Y118.871 F11400.000
G1 X123.255 Y118.471 F11400.000
G1 X121.355 Y118.471 E37.49021 F1800.000
G1 X121.355 Y116.571 E37.71587
G1 X123.255 Y116.571 E37.94152
G1 X123.255 Y118.411 E38.16005
G1 X123.255 Y118.871 F11400.000
G1 X120.715 Y118.471 F11400.000
G1 X118.815 Y118.471 E38.38571 F1800.000
G1 X118.815 Y116.571 E38.61136
G1 X120.715 Y116.571 E38.83702
G1 X120.715 Y118.411 E39.05554
G1 X120.715 Y118.871 F11400.000
G1 X118.175 Y118.471 F11400.000
G1 X116.275 Y118.471 E39.28119 F1800.000
G1 X116.275 Y116.571 E39.50685
G1 X118.175 Y116.571 E39.73250
G1 X118.175 Y118.411 E39.95103
G1 X118.175 Y118.871 F11400.000
G1 X115.635 Y118.471 F11400.000
G1 X113.735 Y118.471 E40.17668 F1800.000
G1 X113.735 Y116.571 E40.40234
G1 X115.635 Y116.571 E40.62799
G1 X115.635 Y118.411 E40.84652
G1 X115.635 Y118.871 F11400.000
G1 X113.095 Y118.471 F11400.000
G1 X111.195 Y118.471 E41.07217 F1800.000
G1 X111.195 Y116.571 E41.29783
G1 X113.095 Y116.571 E41.52348
G1 X113.095 Y118.411 E41.74201
G1 X113.095 Y118.871 F11400.000
G1 X110.555 Y118.471 F11400.000
G1 X108.655 Y118.471 E41.96767 F1800.000
G1 X108.655 Y116.571 E42.19332
G1 X110.555 Y116.571 E42.41898
G1 X110.555 Y118.411 E42.63750
G1 X110.555 Y118.871 F11400.000
G1 X108.015 Y118.471 F11400.000
G1 X106.115 Y118.471 E42.86316 F1800.000
G1 X106.115 Y116.571 E43.08881
G1 X108.015 Y116.571 E43.31447
G1 X108.015 Y118.411 E43.53300
G1 X108.015 Y118.871 F11400.000
G1 X105.475 Y118.471 F11400.000
G1 X103.575 Y118.471 E43.75865 F1800.000
G1 X103.575 Y116.571 E43.98431
G1 X105.475 Y116.571 E44.20996
G1 X105.475 Y118.411 E44.42849
G1 X105.475 Y118.871 F11400.000
G1 X102.935 Y118.471 F11400.000
G1 X101.035 Y118.471 E44.65414 F1800.000
G1 X101.035 Y116.571 E44.87980
G1 X102.935 Y116.571 E45.10545
G1 X102.935 Y118.411 E45.32398
G1 X102.935 Y118.871 F11400.000
G1 X100.395 Y118.471 F11400.000
G1 X98.495 Y118.471 E45.54963 F1800.000
G1 X98.495 Y116.571 E45.77529
G1 X100.395 Y116.571 E46.00094
G1 X100.395 Y118.411 E46.21946
G1 X100.395 Y118.871 F11400.000
G1 X97.855 Y118.471 F11400.000
G1 X95.955 Y118.471 E46.44512 F1800.000
G1 X95.955 Y116.571 E46.67077
G1 X97.855 Y116.571 E46.89643
G1 X97.855 Y118.411 E47.11496
G1 X97.855 Y118.871 F11400.000
G1 X95.315 Y118.471 F11400.000
G1 X93.415 Y118.471 E47.34061 F1800.000
G1 X93.415 Y116.571 E47.56627
G1 X95.315 Y116.571 E47.79192
G1 X95.315 Y118.411 E48.01045
G1 X95.315 Y118.871 F11400.000
G1 X92.775 Y118.471 F11400.000
G1 X90.875 Y118.471 E48.23610 F1800.000
G1 X90.875 Y116.571 E48.46176
G1 X92.775 Y116.571 E48.68741
G1 X92.775 Y118.411 E48.90594
G1 X92.775 Y118.871 F11400.000
G1 X92.775 Y114.135 F11400.000
G1 X139.662 Y114.136 E54.47438 F1800.000
G1 X139.983 Y114.157 E54.51269 F1800.000
G1 X140.276 Y114.215 E54.54817
G1 X140.559 Y114.311 E54.58364
G1 X140.827 Y114.443 E54.61911
G1 X141.075 Y114.609 E54.65458
G1 X141.300 Y114.806 E54.69006
G1 X141.497 Y115.031 E54.72553
G1 X141.663 Y115.279 E54.76101
G1 X141.795 Y115.547 E54.79648
G1 X141.891 Y115.830 E54.83195
G1 X141.949 Y116.123 E54.86743
G1 X141.971 Y116.458 E54.90725
G1 X141.971 Y146.584 E58.48528
G1 X141.949 Y146.919 E58.52510
G1 X141.891 Y147.212 E58.56058
G1 X141.795 Y147.495 E58.59605
G1 X141.663 Y147.763 E58.63153
G1 X141.497 Y148.011 E58.66700
G1 X141.300 Y148.236 E58.70247
G1 X141.075 Y148.433 E58.73795
G1 X140.827 Y148.599 E58.77342
G1 X140.559 Y148.731 E58.80889
G1 X140.276 Y148.827 E58.84436
G1 X139.983 Y148.885 E58.87984
G1 X139.649 Y148.907 E58.91966
G1 X79.562 Y148.907 E66.05591
G1 X79.227 Y148.885 E66.09572
G1 X78.934 Y148.827 E66.13120
G1 X78.651 Y148.731 E66.16667
G1 X78.384 Y148.599 E66.20214
G1 X78.135 Y148.433 E66.23762
G1 X77.911 Y148.236 E66.27309
G1 X77.714 Y148.011 E66.30856
G1 X77.548 Y147.763 E66.34404
G1 X77.416 Y147.495 E66.37952
G1 X77.320 Y147.212 E66.41499
G1 X77.261 Y146.919 E66.45046
G1 X77.239 Y146.585 E66.49028
G1 X77.239 Y116.457 E70.06832
G1 X77.261 Y116.123 E70.10814
G1 X77.320 Y115.830 E70.14361
G1 X77.416 Y115.547 E70.17908
G1 X77.548 Y115.279 E70.21456
G1 X77.714 Y115.031 E70.25003
G1 X77.911 Y114.806 E70.28550
G1 X78.135 Y114.609 E70.32098
G1 X78.384 Y114.443 E70.35645
G1 X78.651 Y114.311 E70.39193
G1 X78.934 Y114.215 E70.42740
G1 X79.227 Y114.157 E70.46287
G1 X79.562 Y114.135 E70.50269
G1 X92.715 Y114.135 E72.06488
G1 X92.775 Y113.421 F11400.000
G1 X139.685 Y113.422 E77.63609 F1800.000
G1 X140.077 Y113.448 E77.68274 F1800.000
G1 X140.462 Y113.524 E77.72933
G1 X140.833 Y113.650 E77.77592
G1 X141.185 Y113.824 E77.82251
G1 X141.511 Y114.042 E77.86911
G1 X141.806 Y114.300 E77.91570
G1 X142.065 Y114.595 E77.96229
G1 X142.283 Y114.921 E78.00888
G1 X142.456 Y115.273 E78.05548
G1 X142.582 Y115.645 E78.10207
G1 X142.659 Y116.030 E78.14866
G1 X142.685 Y116.434 E78.19681
G1 X142.685 Y146.608 E81.78041
G1 X142.659 Y147.012 E81.82856
G1 X142.582 Y147.397 E81.87515
G1 X142.456 Y147.769 E81.92174
G1 X142.283 Y148.121 E81.96834
G1 X142.065 Y148.447 E82.01493
G1 X141.806 Y148.742 E82.06152
G1 X141.511 Y149.000 E82.10812
G1 X141.185 Y149.218 E82.15471
G1 X140.833 Y149.392 E82.20130
G1 X140.462 Y149.518 E82.24789
G1 X140.077 Y149.594 E82.29448
G1 X139.672 Y149.621 E82.34264
G1 X79.538 Y149.621 E89.48444
G1 X79.134 Y149.594 E89.53259
G1 X78.749 Y149.518 E89.57918
G1 X78.378 Y149.392 E89.62577
G1 X78.026 Y149.218 E89.67236
G1 X77.700 Y149.000 E89.71896
G1 X77.405 Y148.742 E89.76555
G1 X77.146 Y148.447 E89.81214
G1 X76.928 Y148.121 E89.85873
G1 X76.754 Y147.769 E89.90533
G1 X76.628 Y147.397 E89.95192
G1 X76.552 Y147.012 E89.99851
G1 X76.525 Y146.608 E90.04666
G1 X76.525 Y116.434 E93.63026
G1 X76.552 Y116.030 E93.67841
G1 X76.628 Y115.645 E93.72500
G1 X76.754 Y115.273 E93.77159
G1 X76.928 Y114.921 E93.81819
G1 X77.146 Y114.595 E93.86478
G1 X77.405 Y114.300 E93.91137
G1 X77.700 Y114.042 E93.95797
G1 X78.026 Y113.824 E94.00456
G1 X78.378 Y113.650 E94.05115
G1 X78.749 Y113.524 E94.09774
G1 X79.134 Y113.448 E94.14433
G1 X79.538 Y113.421 E94.19248
G1 X92.715 Y113.421 E95.75745
G1 X92.975 Y113.768 F11400.000
G1 X89.804 Y114.996 F11400.000
G1 X129.407 Y114.996 E105.72958 F1800.000
G1 X141.197 Y115.564 F11400.000
G1 X140.542 Y114.909 E105.83983 F1800.000
G1 X139.193 Y114.572 E106.00526
G1 X141.536 Y116.914 E106.39937
G1 X141.536 Y117.926 E106.51973
G1 X138.181 Y114.571 E107.08405
G1 X137.170 Y114.571 E107.20441
G1 X141.536 Y118.937 E107.93894
G1 X141.536 Y119.949 E108.05929
G1 X136.158 Y114.571 E108.96404
G1 X135.146 Y114.571 E109.08440
G1 X141.536 Y120.961 E110.15935
G1 X141.536 Y121.972 E110.27971
G1 X134.135 Y114.571 E111.52487
G1 X133.123 Y114.571 E111.64523
G1 X141.536 Y122.984 E113.06061
G1 X141.536 Y123.996 E113.18096
G1 X132.111 Y114.571 E114.76655
G1 X131.100 Y114.571 E114.88691
G1 X141.536 Y125.007 E116.64271
G1 X141.536 Y126.019 E116.76306
G1 X130.088 Y114.571 E118.68907
G1 X129.842 Y115.337 E118.78476
G1 X141.536 Y127.031 E120.75213
G1 X141.536 Y128.043 E120.87249
G1 X129.725 Y116.232 E122.85955
G1 X129.485 Y117.004 E122.95569
G1 X141.536 Y129.054 E124.98313
G1 X141.536 Y130.066 E125.10349
G1 X129.485 Y118.015 E127.13093
G1 X129.485 Y119.027 E127.25129
G1 X141.536 Y131.078 E129.27873
G1 X141.536 Y132.089 E129.39909
G1 X129.067 Y119.621 E131.49684
G1 X128.055 Y119.621 E131.61719
G1 X141.536 Y133.101 E133.88515
G1 X141.536 Y134.113 E134.00551
G1 X127.044 Y119.621 E136.44367
G1 X126.032 Y119.621 E136.56403
G1 X141.536 Y135.124 E139.17240
G1 X141.536 Y136.136 E139.29276
G1 X125.020 Y119.621 E142.07134
G1 X124.009 Y119.621 E142.19170
G1 X141.536 Y137.148 E145.14049
G1 X141.536 Y138.159 E145.26084
G1 X122.997 Y119.621 E148.37985
G1 X121.985 Y119.621 E148.50020
G1 X141.536 Y139.171 E151.78941
G1 X141.536 Y140.183 E151.90977
G1 X120.974 Y119.621 E155.36918
G1 X119.962 Y119.621 E155.48954
G1 X141.536 Y141.194 E159.11916
G1 X141.536 Y142.206 E159.23952
G1 X118.950 Y119.621 E163.03936
G1 X117.939 Y119.621 E163.15971
G1 X141.536 Y143.218 E167.12975
G1 X141.536 Y144.229 E167.25011
G1 X116.927 Y119.621 E171.39036
G1 X115.915 Y119.621 E171.51072
G1 X141.536 Y145.241 E175.82118
G1 X141.536 Y146.253 E175.94153
G1 X114.904 Y119.621 E180.42220
G1 X113.892 Y119.621 E180.54256
G1 X141.476 Y147.204 E185.18333
G1 X141.119 Y147.859 E185.27206
G1 X112.880 Y119.621 E190.02303
G1 X111.869 Y119.621 E190.14338
G1 X140.553 Y148.305 E194.96938
G1 X139.707 Y148.471 E195.07190
G1 X110.857 Y119.621 E199.92583
G1 X109.845 Y119.621 E200.04618
G1 X138.696 Y148.471 E204.90011
G1 X137.684 Y148.471 E205.02046
G1 X108.833 Y119.621 E209.87438
G1 X107.822 Y119.621 E209.99474
G1 X136.672 Y148.471 E214.84866
G1 X135.661 Y148.471 E214.96902
G1 X106.810 Y119.621 E219.82294
G1 X105.798 Y119.621 E219.94330
