; generated by Slic3r 1.2.9 on 2016-09-09 at 08:59:38

; external perimeters extrusion width = 0.40mm
; perimeters extrusion width = 0.48mm
; infill extrusion width = 0.48mm
; solid infill extrusion width = 0.48mm
; top infill extrusion width = 0.48mm
; support material extrusion width = 0.40mm

M107
M190 S30 ; set bed temperature
M104 S190 ; set temperature
G28 ; home all axes
G1 Z5 F5000 ; lift nozzle

M109 S190 ; wait for temperature to be reached
G21 ; set units to millimeters
G90 ; use absolute coordinates
M82 ; use absolute distances for extrusion
G92 E0
G1 Z0.400 F11400.000
G1 E-2.00000 F2400.00000
G92 E0
G1 X53.187 Y40.720 F11400.000
G1 E2.00000 F2400.00000
G1 X54.375 Y39.596 E2.19417 F1800.000
G1 X70.113 Y27.990 E4.51661
G1 X72.179 Y26.959 E4.79084
G1 X74.098 Y26.679 E5.02116
G1 X128.011 Y26.679 E11.42418
G1 X128.904 Y26.739 E11.53042
G1 X129.243 Y26.784 E11.57106 F1800.000
G1 X130.634 Y27.125 E11.74120
G1 X162.595 Y38.686 E15.77770
G1 X164.599 Y39.833 E16.05192
G1 X166.095 Y41.591 E16.32615
G1 X166.908 Y43.753 E16.60037
G1 X167.025 Y45.000 E16.74916
G1 X167.025 Y175.000 E32.18863
G1 X166.628 Y177.275 E32.46286
G1 X165.484 Y179.280 E32.73708
G1 X163.728 Y180.780 E33.01131
G1 X162.595 Y181.314 E33.16007
G1 X130.519 Y192.918 E37.21123
G1 X128.235 Y193.319 E37.48663
G1 X74.321 Y193.319 E43.88971
G1 X73.428 Y193.260 E43.99602
G1 X73.089 Y193.214 E44.03667
G1 X69.988 Y191.957 E44.43404
G1 X54.366 Y180.397 E46.74206
G1 X52.774 Y178.725 E47.01629
G1 X51.843 Y176.612 E47.29051
G1 X51.646 Y175.000 E47.48342
G1 X51.646 Y45.000 E62.92289
G1 X52.043 Y42.725 E63.19711
G1 X53.157 Y40.772 E63.46421
G1 E61.46421 F2400.00000
G92 E0
G1 X141.510 Y147.056 F11400.000
G1 E2.00000 F2400.00000
G1 X142.463 Y146.749 E2.11886 F1800.000
G1 X143.013 Y146.617 E2.18604
G1 X143.994 Y146.457 E2.30416
G1 X145.018 Y146.394 E2.42600 F1800.000
G1 X146.044 Y146.432 E2.54785
G1 X147.024 Y146.566 E2.66538
G1 X147.592 Y146.688 E2.73434
G1 X148.545 Y146.969 E2.85233
G1 X149.484 Y147.351 E2.97282
G1 X150.388 Y147.831 E3.09438
G1 X151.225 Y148.392 E3.21398
G1 X152.006 Y149.043 E3.33477
G1 X152.713 Y149.771 E3.45524
G1 X153.327 Y150.556 E3.57364
G1 X153.861 Y151.415 E3.69370
G1 X154.289 Y152.307 E3.81128
G1 X154.609 Y153.220 E3.92619
G1 X154.756 Y153.793 E3.99640
G1 X154.914 Y154.726 E4.10880
G1 X154.971 Y155.724 E4.22747
G1 X154.914 Y156.721 E4.34613
G1 X154.756 Y157.654 E4.45853
G1 X154.609 Y158.227 E4.52874
G1 X154.289 Y159.140 E4.64365
G1 X153.861 Y160.033 E4.76123
G1 X153.327 Y160.891 E4.88129
G1 X152.713 Y161.676 E4.99963
G1 X152.034 Y162.377 E5.11557
G1 X151.594 Y162.763 E5.18506
G1 X150.808 Y163.350 E5.30161
G1 X149.942 Y163.868 E5.42140
G1 X149.014 Y164.301 E5.54306
G1 X148.056 Y164.636 E5.66356
G1 X147.089 Y164.869 E5.78175
G1 X146.516 Y164.962 E5.85062
G1 X145.525 Y165.047 E5.96880
G1 X144.505 Y165.034 E6.08991
G1 X143.486 Y164.920 E6.21173
G1 X142.485 Y164.705 E6.33337
G1 X141.548 Y164.404 E6.45022
G1 X141.017 Y164.189 E6.51820
G1 X140.125 Y163.743 E6.63669
G1 X139.269 Y163.201 E6.75705
G1 X138.474 Y162.573 E6.87734
G1 X137.752 Y161.867 E6.99729
G1 X137.110 Y161.091 E7.11692
G1 X136.557 Y160.252 E7.23617
G1 X136.117 Y159.396 E7.35058
G1 X135.901 Y158.875 E7.41750
G1 X135.605 Y157.946 E7.53335
G1 X135.410 Y156.967 E7.65189
G1 X135.326 Y155.973 E7.77034
G1 X135.354 Y154.976 E7.88876
G1 X135.494 Y153.988 E8.00724
G1 X135.738 Y153.045 E8.12298
G1 X135.924 Y152.513 E8.18986
G1 X136.316 Y151.635 E8.30415
G1 X136.822 Y150.769 E8.42326
G1 X137.420 Y149.960 E8.54270
G1 X138.103 Y149.218 E8.66249
G1 X138.863 Y148.550 E8.78263
G1 X139.691 Y147.964 E8.90310
G1 X140.576 Y147.464 E9.02389
G1 X141.455 Y147.080 E9.13780
G1 X141.763 Y147.724 F11400.000
G1 X142.656 Y147.437 E9.24916 F1800.000
G1 X143.154 Y147.318 E9.30996
G1 X144.074 Y147.168 E9.42072
G1 X145.027 Y147.109 E9.53415 F1800.000
G1 X145.982 Y147.144 E9.64759
G1 X146.901 Y147.270 E9.75774
G1 X147.416 Y147.380 E9.82032
G1 X148.309 Y147.644 E9.93084
G1 X149.181 Y147.999 E10.04278
G1 X150.021 Y148.445 E10.15567
G1 X150.796 Y148.965 E10.26653
G1 X151.520 Y149.568 E10.37842
G1 X152.174 Y150.241 E10.48988
G1 X152.741 Y150.966 E10.59919
G1 X153.234 Y151.759 E10.71003
G1 X153.628 Y152.581 E10.81833
G1 X153.925 Y153.428 E10.92494
G1 X154.057 Y153.942 E10.98795
G1 X154.204 Y154.806 E11.09207
G1 X154.255 Y155.724 E11.20122
G1 X154.204 Y156.641 E11.31036
G1 X154.057 Y157.506 E11.41448
G1 X153.925 Y158.019 E11.47749
G1 X153.628 Y158.866 E11.58410
G1 X153.234 Y159.689 E11.69240
G1 X152.741 Y160.481 E11.80324
G1 X152.174 Y161.206 E11.91251
G1 X151.541 Y161.859 E12.02056
G1 X151.144 Y162.208 E12.08328
G1 X150.410 Y162.756 E12.19212
G1 X149.607 Y163.236 E12.30323
G1 X148.744 Y163.639 E12.41628
G1 X147.854 Y163.950 E12.52827
G1 X146.948 Y164.168 E12.63902
G1 X146.428 Y164.253 E12.70150
G1 X145.499 Y164.333 E12.81231
G1 X144.550 Y164.321 E12.92504
G1 X143.601 Y164.214 E13.03843
G1 X142.669 Y164.014 E13.15162
G1 X141.792 Y163.733 E13.26108
G1 X141.312 Y163.538 E13.32260
G1 X140.476 Y163.121 E13.43345
G1 X139.683 Y162.617 E13.54509
G1 X138.946 Y162.036 E13.65654
G1 X138.278 Y161.383 E13.76752
G1 X137.685 Y160.665 E13.87806
G1 X137.175 Y159.892 E13.98813
G1 X136.765 Y159.095 E14.09447
G1 X136.572 Y158.630 E14.15433
G1 X136.298 Y157.767 E14.26184
G1 X136.119 Y156.867 E14.37088
G1 X136.041 Y155.953 E14.47978
G1 X136.067 Y155.036 E14.58867
G1 X136.196 Y154.128 E14.69762
G1 X136.421 Y153.253 E14.80501
G1 X136.588 Y152.778 E14.86480
G1 X136.952 Y151.961 E14.97097
G1 X137.419 Y151.162 E15.08083
G1 X137.971 Y150.416 E15.19113
G1 X138.603 Y149.730 E15.30190
G1 X139.307 Y149.112 E15.41313
G1 X140.074 Y148.568 E15.52480
G1 X140.896 Y148.104 E15.63691
G1 X141.708 Y147.748 E15.74222
G1 X142.016 Y148.393 F11400.000
G1 X142.849 Y148.125 E15.84609 F1800.000
G1 X143.294 Y148.018 E15.90052
G1 X144.154 Y147.879 E16.00391
G1 X145.036 Y147.824 E16.10892 F1800.000
G1 X145.920 Y147.857 E16.21396
G1 X146.777 Y147.974 E16.31674
G1 X147.240 Y148.073 E16.37292
G1 X148.072 Y148.319 E16.47599
G1 X148.878 Y148.647 E16.57937
G1 X149.654 Y149.059 E16.68360
G1 X150.368 Y149.537 E16.78571
G1 X151.034 Y150.092 E16.88871
G1 X151.635 Y150.711 E16.99115
G1 X152.155 Y151.376 E17.09136
G1 X152.607 Y152.102 E17.19299
G1 X152.967 Y152.854 E17.29200
G1 X153.241 Y153.635 E17.39032
G1 X153.358 Y154.090 E17.44612
G1 X153.493 Y154.886 E17.54196
G1 X153.540 Y155.724 E17.64159
G1 X153.493 Y156.561 E17.74123
G1 X153.358 Y157.357 E17.83706
G1 X153.241 Y157.812 E17.89286
G1 X152.967 Y158.593 E17.99118
G1 X152.607 Y159.345 E18.09020
G1 X152.155 Y160.071 E18.19182
G1 X151.635 Y160.736 E18.29202
G1 X151.048 Y161.341 E18.39218
G1 X150.694 Y161.652 E18.44813
G1 X150.012 Y162.162 E18.54925
G1 X149.272 Y162.604 E18.65168
G1 X148.475 Y162.977 E18.75612
G1 X147.652 Y163.264 E18.85961
G1 X146.807 Y163.468 E18.96292
G1 X146.340 Y163.543 E19.01900
G1 X145.473 Y163.618 E19.12246
G1 X144.594 Y163.607 E19.22680
G1 X143.716 Y163.508 E19.33176
G1 X142.854 Y163.323 E19.43650
G1 X142.035 Y163.061 E19.53857
G1 X141.606 Y162.886 E19.59362
G1 X140.828 Y162.498 E19.69685
G1 X140.096 Y162.034 E19.79976
G1 X139.419 Y161.498 E19.90236
G1 X138.804 Y160.898 E20.00438
G1 X138.260 Y160.240 E20.10583
G1 X137.792 Y159.531 E20.20671
G1 X137.414 Y158.795 E20.30498
G1 X137.244 Y158.384 E20.35779
G1 X136.990 Y157.588 E20.45697
G1 X136.827 Y156.766 E20.55650
G1 X136.756 Y155.933 E20.65586
G1 X136.780 Y155.097 E20.75520
G1 X136.897 Y154.268 E20.85463
G1 X137.105 Y153.460 E20.95366
G1 X137.252 Y153.042 E21.00636
G1 X137.589 Y152.288 E21.10441
G1 X138.016 Y151.556 E21.20504
G1 X138.523 Y150.871 E21.30620
G1 X139.103 Y150.241 E21.40793
G1 X139.750 Y149.673 E21.51025
G1 X140.457 Y149.171 E21.61314
G1 X141.215 Y148.743 E21.71656
G1 X141.961 Y148.417 E21.81328
G1 X142.087 Y147.999 F11400.000
G1 X143.306 Y142.381 F11400.000
G1 X142.485 Y142.205 E21.91306 F1800.000
G1 X141.548 Y141.904 E22.02991
G1 X141.017 Y141.689 E22.09789
G1 X140.125 Y141.243 E22.21638
G1 X139.269 Y140.701 E22.33675
G1 X138.474 Y140.073 E22.45703
G1 X137.752 Y139.367 E22.57698
G1 X137.110 Y138.591 E22.69662
G1 X136.557 Y137.752 E22.81586
G1 X136.117 Y136.896 E22.93027
G1 X135.901 Y136.375 E22.99719
G1 X135.605 Y135.446 E23.11304
G1 X135.410 Y134.467 E23.23158
G1 X135.326 Y133.473 E23.35003
G1 X135.354 Y132.476 E23.46846
G1 X135.494 Y131.488 E23.58693
G1 X135.738 Y130.545 E23.70268
G1 X135.924 Y130.013 E23.76955
G1 X136.316 Y129.135 E23.88385
G1 X136.822 Y128.269 E24.00295
G1 X137.420 Y127.460 E24.12239
G1 X138.103 Y126.718 E24.24219
G1 X138.863 Y126.050 E24.36232
G1 X139.691 Y125.464 E24.48279
G1 X140.576 Y124.964 E24.60358
G1 X141.510 Y124.556 E24.72461
G1 X142.463 Y124.249 E24.84348
G1 X143.013 Y124.117 E24.91065
G1 X143.994 Y123.957 E25.02878
G1 X145.018 Y123.894 E25.15061 F1800.000
G1 X146.044 Y123.932 E25.27247
G1 X147.024 Y124.066 E25.38999
G1 X147.592 Y124.188 E25.45896
G1 X148.545 Y124.469 E25.57694
G1 X149.484 Y124.851 E25.69744
G1 X150.388 Y125.331 E25.81899
G1 X151.225 Y125.892 E25.93859
G1 X152.006 Y126.543 E26.05938
G1 X152.713 Y127.271 E26.17985
G1 X153.327 Y128.056 E26.29826
G1 X153.861 Y128.915 E26.41832
G1 X154.289 Y129.807 E26.53589
G1 X154.609 Y130.720 E26.65080
G1 X154.756 Y131.293 E26.72102
G1 X154.914 Y132.226 E26.83342
G1 X154.971 Y133.224 E26.95208
G1 X154.914 Y134.221 E27.07074
G1 X154.756 Y135.154 E27.18315
G1 X154.609 Y135.727 E27.25336
G1 X154.289 Y136.640 E27.36827
G1 X153.861 Y137.533 E27.48585
G1 X153.327 Y138.391 E27.60590
G1 X152.713 Y139.176 E27.72425
G1 X152.034 Y139.877 E27.84018
G1 X151.594 Y140.263 E27.90967
G1 X150.808 Y140.850 E28.02623
G1 X149.942 Y141.368 E28.14601
G1 X149.014 Y141.801 E28.26768
G1 X148.056 Y142.136 E28.38817
G1 X147.089 Y142.369 E28.50636
G1 X146.516 Y142.462 E28.57523
G1 X145.525 Y142.547 E28.69341
G1 X144.505 Y142.534 E28.81452
G1 X143.365 Y142.394 E28.95101
G1 X143.456 Y141.683 F11400.000
G1 X142.669 Y141.514 E29.04657 F1800.000
G1 X141.792 Y141.233 E29.15603
G1 X141.312 Y141.038 E29.21755
G1 X140.476 Y140.621 E29.32841
G1 X139.683 Y140.117 E29.44005
G1 X138.946 Y139.536 E29.55149
G1 X138.278 Y138.883 E29.66247
G1 X137.685 Y138.165 E29.77302
G1 X137.175 Y137.392 E29.88308
G1 X136.765 Y136.595 E29.98942
G1 X136.572 Y136.130 E30.04928
G1 X136.298 Y135.267 E30.15679
G1 X136.119 Y134.367 E30.26583
G1 X136.041 Y133.453 E30.37474
G1 X136.067 Y132.536 E30.48362
G1 X136.196 Y131.628 E30.59257
G1 X136.421 Y130.753 E30.69996
G1 X136.588 Y130.278 E30.75975
G1 X136.952 Y129.461 E30.86592
G1 X137.419 Y128.662 E30.97579
G1 X137.971 Y127.916 E31.08609
G1 X138.603 Y127.230 E31.19685
G1 X139.307 Y126.612 E31.30808
G1 X140.074 Y126.068 E31.41976
G1 X140.896 Y125.604 E31.53186
G1 X141.763 Y125.224 E31.64430
G1 X142.656 Y124.937 E31.75567
G1 X143.154 Y124.818 E31.81647
G1 X144.074 Y124.668 E31.92723
G1 X145.027 Y124.609 E32.04065 F1800.000
G1 X145.982 Y124.644 E32.15410
G1 X146.901 Y124.770 E32.26425
G1 X147.416 Y124.880 E32.32682
G1 X148.309 Y125.144 E32.43735
G1 X149.181 Y125.499 E32.54929
G1 X150.021 Y125.945 E32.66218
G1 X150.796 Y126.465 E32.77303
G1 X151.520 Y127.068 E32.88493
G1 X152.174 Y127.741 E32.99638
G1 X152.741 Y128.466 E33.10569
G1 X153.234 Y129.259 E33.21654
G1 X153.628 Y130.081 E33.32483
G1 X153.925 Y130.928 E33.43144
G1 X154.057 Y131.442 E33.49446
G1 X154.204 Y132.306 E33.59857
G1 X154.255 Y133.224 E33.70772
G1 X154.204 Y134.141 E33.81687
G1 X154.057 Y135.006 E33.92099
G1 X153.925 Y135.519 E33.98399
G1 X153.628 Y136.366 E34.09061
G1 X153.234 Y137.189 E34.19891
G1 X152.741 Y137.981 E34.30974
G1 X152.174 Y138.706 E34.41902
G1 X151.541 Y139.359 E34.52707
G1 X151.144 Y139.708 E34.58978
G1 X150.410 Y140.256 E34.69862
G1 X149.607 Y140.736 E34.80973
G1 X148.744 Y141.139 E34.92278
G1 X147.854 Y141.450 E35.03477
G1 X146.948 Y141.668 E35.14552
G1 X146.428 Y141.753 E35.20800
G1 X145.499 Y141.833 E35.31882
G1 X144.550 Y141.821 E35.43155
G1 X143.514 Y141.696 E35.55539
G1 X143.606 Y140.985 F11400.000
G1 X142.854 Y140.823 E35.64674 F1800.000
G1 X142.035 Y140.561 E35.74880
G1 X141.606 Y140.386 E35.80385
G1 X140.828 Y139.998 E35.90708
G1 X140.096 Y139.534 E36.00999
G1 X139.419 Y138.998 E36.11259
G1 X138.804 Y138.398 E36.21461
G1 X138.260 Y137.740 E36.31606
G1 X137.792 Y137.031 E36.41694
G1 X137.414 Y136.295 E36.51521
G1 X137.244 Y135.884 E36.56802
G1 X136.990 Y135.088 E36.66720
G1 X136.827 Y134.266 E36.76673
G1 X136.756 Y133.433 E36.86610
G1 X136.780 Y132.597 E36.96544
G1 X136.897 Y131.768 E37.06486
G1 X137.105 Y130.960 E37.16389
G1 X137.252 Y130.542 E37.21660
G1 X137.589 Y129.788 E37.31465
G1 X138.016 Y129.056 E37.41527
G1 X138.523 Y128.371 E37.51643
G1 X139.103 Y127.741 E37.61816
G1 X139.750 Y127.173 E37.72048
G1 X140.457 Y126.671 E37.82337
G1 X141.215 Y126.243 E37.92679
G1 X142.016 Y125.893 E38.03064
G1 X142.849 Y125.625 E38.13451
G1 X143.294 Y125.518 E38.18893
G1 X144.154 Y125.379 E38.29232
G1 X145.036 Y125.324 E38.39734 F1800.000
G1 X145.920 Y125.357 E38.50238
G1 X146.777 Y125.474 E38.60515
G1 X147.240 Y125.573 E38.66133
G1 X148.072 Y125.819 E38.76440
G1 X148.878 Y126.147 E38.86778
G1 X149.654 Y126.559 E38.97202
G1 X150.368 Y127.037 E39.07413
G1 X151.034 Y127.592 E39.17712
G1 X151.635 Y128.211 E39.27957
G1 X152.155 Y128.876 E39.37978
G1 X152.607 Y129.602 E39.48140
G1 X152.967 Y130.354 E39.58042
G1 X153.241 Y131.135 E39.67873
G1 X153.358 Y131.590 E39.73454
G1 X153.493 Y132.386 E39.83037
G1 X153.540 Y133.224 E39.93001
G1 X153.493 Y134.061 E40.02964
G1 X153.358 Y134.857 E40.12548
G1 X153.241 Y135.312 E40.18127
G1 X152.967 Y136.093 E40.27960
G1 X152.607 Y136.845 E40.37862
G1 X152.155 Y137.571 E40.48023
G1 X151.635 Y138.236 E40.58043
G1 X151.048 Y138.841 E40.68060
G1 X150.694 Y139.152 E40.73654
G1 X150.012 Y139.662 E40.83766
G1 X149.272 Y140.104 E40.94010
G1 X148.475 Y140.477 E41.04454
G1 X147.652 Y140.764 E41.14802
G1 X146.807 Y140.968 E41.25133
G1 X146.340 Y141.043 E41.30742
G1 X145.473 Y141.118 E41.41087
G1 X144.594 Y141.107 E41.51522
G1 X143.664 Y140.997 E41.62642
G1 X143.346 Y141.289 F11400.000
G1 E39.62642 F2400.00000
G92 E0
G1 X142.688 Y125.047 F11400.000
G1 X143.071 Y121.974 F11400.000
G1 X143.797 Y121.974 F11400.000
G1 X143.870 Y121.974 F11400.000
G1 X144.293 Y121.974 F11400.000
G1 X144.312 Y121.974 F11400.000
G1 X144.551 Y119.205 F11400.000
G1 X144.505 Y120.034 F11400.000
G1 E2.00000 F2400.00000
G1 X143.486 Y119.920 E2.12182 F1800.000
G1 X142.485 Y119.705 E2.24346
G1 X141.548 Y119.404 E2.36031
G1 X141.017 Y119.189 E2.42830
G1 X140.125 Y118.743 E2.54678
G1 X139.269 Y118.201 E2.66715
G1 X138.474 Y117.573 E2.78743
G1 X137.752 Y116.867 E2.90738
G1 X137.110 Y116.091 E3.02702
G1 X136.557 Y115.252 E3.14626
G1 X136.117 Y114.396 E3.26067
G1 X135.901 Y113.875 E3.32760
G1 X135.605 Y112.946 E3.44344
G1 X135.410 Y111.967 E3.56198
G1 X135.326 Y110.973 E3.68043
G1 X135.354 Y109.976 E3.79886
G1 X135.494 Y108.988 E3.91733
G1 X135.738 Y108.045 E4.03308
G1 X135.924 Y107.513 E4.09995
G1 X136.316 Y106.635 E4.21425
G1 X136.822 Y105.769 E4.33335
G1 X137.420 Y104.960 E4.45279
G1 X138.103 Y104.218 E4.57259
G1 X138.863 Y103.550 E4.69272
G1 X139.691 Y102.964 E4.81319
G1 X140.576 Y102.464 E4.93398
G1 X141.510 Y102.056 E5.05502
G1 X142.463 Y101.749 E5.17388
G1 X143.013 Y101.617 E5.24106
G1 X143.994 Y101.457 E5.35918
G1 X145.018 Y101.394 E5.48102 F1800.000
G1 X146.044 Y101.432 E5.60287
G1 X147.024 Y101.566 E5.72040
G1 X147.592 Y101.688 E5.78937
G1 X148.545 Y101.969 E5.90735
G1 X149.484 Y102.351 E6.02785
G1 X150.388 Y102.832 E6.14940
G1 X151.225 Y103.392 E6.26900
G1 X152.006 Y104.043 E6.38979
G1 X152.713 Y104.771 E6.51026
G1 X153.327 Y105.556 E6.62867
G1 X153.861 Y106.415 E6.74873
G1 X154.289 Y107.307 E6.86630
G1 X154.609 Y108.220 E6.98122
G1 X154.756 Y108.793 E7.05143
G1 X154.914 Y109.726 E7.16382
G1 X154.971 Y110.724 E7.28248
G1 X154.914 Y111.721 E7.40115
G1 X154.756 Y112.654 E7.51356
G1 X154.609 Y113.227 E7.58377
G1 X154.289 Y114.140 E7.69867
G1 X153.861 Y115.033 E7.81626
G1 X153.327 Y115.891 E7.93631
G1 X152.713 Y116.676 E8.05466
G1 X152.034 Y117.377 E8.17060
G1 X151.594 Y117.763 E8.24009
G1 X150.808 Y118.350 E8.35664
G1 X149.942 Y118.868 E8.47642
G1 X149.014 Y119.301 E8.59809
