; generated by Slic3r 1.2.9 on 2016-09-24 at 15:49:02

; external perimeters extrusion width = 0.40mm
; perimeters extrusion width = 0.56mm
; infill extrusion width = 0.56mm
; solid infill extrusion width = 0.56mm
; top infill extrusion width = 0.56mm

M107
M190 S30 ; set bed temperature
M104 S190 ; set temperature
G28 ; home all axes
G1 Z5 F5000 ; lift nozzle

M109 S190 ; wait for temperature to be reached
G21 ; set units to millimeters
G90 ; use absolute coordinates
M82 ; use absolute distances for extrusion
G92 E0
G1 Z0.400 F11400.000
G1 E-2.00000 F2400.00000
G92 E0
G1 X77.855 Y59.222 F11400.000
G1 E2.00000 F2400.00000
G1 X78.492 Y58.416 E2.12212 F1800.000
G1 X79.150 Y57.626 E2.24420
G1 X79.829 Y56.853 E2.36637
G1 X80.643 Y55.974 E2.50864
G1 X81.362 Y55.239 E2.63076
G1 X82.729 Y53.940 E2.85476
G1 X83.500 Y53.258 E2.97694
G1 X84.419 Y52.490 E3.11919
G1 X85.225 Y51.852 E3.24131
G1 X86.047 Y51.235 E3.36343
G1 X87.584 Y50.165 E3.58574
G1 X88.460 Y49.600 E3.70954
G1 X89.338 Y49.065 E3.83171
G1 X90.378 Y48.471 E3.97397
G1 X91.285 Y47.985 E4.09613
G1 X92.205 Y47.521 E4.21854
G1 X93.904 Y46.741 E4.44055
G1 X94.866 Y46.340 E4.56436
G1 X95.825 Y45.968 E4.68644
G1 X96.793 Y45.621 E4.80861
G1 X97.769 Y45.299 E4.93073
G1 X98.754 Y45.002 E5.05287
G1 X99.910 Y44.687 E5.19513
G1 X100.909 Y44.444 E5.31724
G1 X101.914 Y44.226 E5.43936
G1 X102.924 Y44.034 E5.56148
G1 X104.788 Y43.748 E5.78548
G1 X105.810 Y43.629 E5.90766
G1 X107.003 Y43.523 E6.04992
G1 X108.029 Y43.460 E6.17204
G1 X109.057 Y43.423 E6.29416
G1 X110.929 Y43.423 E6.51649
G1 X111.971 Y43.460 E6.64031 F1800.000
G1 X113.167 Y43.536 E6.78261
G1 X115.043 Y43.727 E7.00662
G1 X116.062 Y43.868 E7.12876
G1 X117.077 Y44.034 E7.25090
G1 X118.253 Y44.260 E7.39317
G1 X120.091 Y44.687 E7.61727
G1 X121.247 Y45.002 E7.75949
G1 X123.033 Y45.562 E7.98183
G1 X124.016 Y45.909 E8.10570
G1 X125.134 Y46.340 E8.24795
G1 X126.083 Y46.735 E8.37006
G1 X127.795 Y47.521 E8.59375
G1 X128.866 Y48.064 E8.73640
G1 X129.770 Y48.553 E8.85852
G1 X131.396 Y49.510 E9.08252
G1 X132.404 Y50.157 E9.22481
G1 X133.255 Y50.735 E9.34696
G1 X134.775 Y51.852 E9.57096
G1 X135.712 Y52.597 E9.71317
G1 X136.500 Y53.259 E9.83540
G1 X137.900 Y54.523 E10.05943
G1 X138.757 Y55.358 E10.20152
G1 X139.483 Y56.107 E10.32545
G1 X140.739 Y57.497 E10.54787
G1 X141.508 Y58.416 E10.69018
G1 X142.154 Y59.233 E10.81391
G1 X143.262 Y60.743 E11.03633
G1 X143.841 Y61.593 E11.15844
G1 X144.487 Y62.602 E11.30074
G1 X145.444 Y64.227 E11.52478
G1 X146.012 Y65.282 E11.66706
G1 X146.475 Y66.200 E11.78920
G1 X147.262 Y67.914 E12.01322
G1 X147.658 Y68.863 E12.13532
G1 X148.086 Y69.975 E12.27673
G1 X183.375 Y168.738 E24.73272
G1 X183.767 Y171.014 E25.00694
G1 X183.364 Y173.287 E25.28117
G1 X182.215 Y175.290 E25.55539
G1 X180.456 Y176.785 E25.82962
G1 X178.294 Y177.596 E26.10384
G1 X177.053 Y177.712 E26.25187
G1 X42.947 Y177.712 E42.17891
G1 X40.673 Y177.315 E42.45313
G1 X38.667 Y176.171 E42.72736
G1 X37.168 Y174.415 E43.00158
G1 X36.352 Y172.255 E43.27581
G1 X36.316 Y169.946 E43.55003
G1 X36.625 Y168.738 E43.69806
G1 X71.971 Y69.822 E56.17333
G1 X72.665 Y68.084 E56.39567
G1 X73.087 Y67.129 E56.51965
G1 X73.600 Y66.048 E56.66180
G1 X74.474 Y64.376 E56.88582
G1 X75.068 Y63.336 E57.02812
G1 X76.066 Y61.735 E57.25217
G1 X76.738 Y60.743 E57.39444
G1 X77.818 Y59.270 E57.61137
G1 E55.61137 F2400.00000
G92 E0
G1 X57.990 Y146.610 F11400.000
G1 E2.00000 F2400.00000
G1 X54.256 Y156.744 E3.28266 F1800.000
G1 X49.752 Y155.085 E3.85273
G1 X53.486 Y144.950 E5.13539
G1 X57.934 Y146.589 E5.69833
G1 X58.365 Y146.748 F11400.000
G1 X68.514 Y118.045 F11400.000
G1 X64.010 Y116.385 E6.26841 F1800.000
G1 X67.744 Y106.251 E7.55107
G1 X72.248 Y107.910 E8.12114
G1 X68.535 Y117.988 E9.39668
G1 X68.376 Y118.420 F11400.000
G1 X87.089 Y103.288 F11400.000
G1 X86.115 Y102.033 E9.58541 F1800.000
G1 X85.208 Y100.728 E9.77413
G1 X84.372 Y99.377 E9.96285
G1 X83.608 Y97.984 E10.15158
G1 X82.918 Y96.552 E10.34031
G1 X82.305 Y95.086 E10.52903
G1 X81.771 Y93.589 E10.71774
G1 X81.316 Y92.067 E10.90647
G1 X80.942 Y90.523 E11.09519
G1 X80.650 Y88.961 E11.28391
G1 X80.440 Y87.385 E11.47264
G1 X80.315 Y85.801 E11.66137
G1 X80.273 Y84.213 E11.85009
G1 X80.315 Y82.624 E12.03880
G1 X80.440 Y81.040 E12.22753
G1 X80.649 Y79.466 E12.41612
G1 X80.922 Y77.999 E12.59330
G1 X81.315 Y76.362 E12.79329
G1 X81.723 Y74.985 E12.96384
G1 X82.372 Y73.172 E13.19263
G1 X82.987 Y71.725 E13.37927
G1 X83.672 Y70.319 E13.56501
G1 X84.428 Y68.953 E13.75044
G1 X85.253 Y67.631 E13.93553
G1 X86.142 Y66.355 E14.12022
G1 X87.095 Y65.131 E14.30450
G1 X88.106 Y63.959 E14.48830
G1 X89.174 Y62.845 E14.67160
G1 X90.294 Y61.789 E14.85435
G1 X91.462 Y60.796 E15.03651
G1 X92.676 Y59.867 E15.21804
G1 X93.931 Y59.003 E15.39895
G1 X95.212 Y58.213 E15.57776
G1 X95.896 Y57.826 E15.67100
G1 X97.257 Y57.123 E15.85298
G1 X98.658 Y56.487 E16.03575
G1 X100.086 Y55.927 E16.21787
G1 X101.534 Y55.441 E16.39935
G1 X103.001 Y55.030 E16.58025
G1 X104.483 Y54.695 E16.76066
G1 X105.976 Y54.436 E16.94064
G1 X107.478 Y54.253 E17.12032
G1 X108.982 Y54.146 E17.29941
G1 X109.993 Y54.121 E17.41949
G1 X111.006 Y54.121 E17.53987 F1800.000
G1 X112.512 Y54.190 E17.71894
G1 X114.018 Y54.335 E17.89856
G1 X115.517 Y54.557 E18.07855
G1 X117.003 Y54.853 E18.25853
G1 X118.478 Y55.226 E18.43918
G1 X119.936 Y55.674 E18.62038
G1 X121.375 Y56.198 E18.80217
G1 X122.790 Y56.796 E18.98461
G1 X124.167 Y57.463 E19.16640
G1 X124.873 Y57.841 E19.26148
G1 X126.172 Y58.596 E19.43990
G1 X127.445 Y59.426 E19.62047
G1 X128.680 Y60.323 E19.80169
G1 X129.871 Y61.285 E19.98355
G1 X131.016 Y62.310 E20.16601
G1 X132.110 Y63.395 E20.34904
G1 X133.154 Y64.541 E20.53315
G1 X134.283 Y65.934 E20.74613
G1 X135.190 Y67.185 E20.92963
G1 X136.033 Y68.482 E21.11330
G1 X136.808 Y69.824 E21.29738
G1 X137.515 Y71.206 E21.48171
G1 X137.976 Y72.230 E21.61511
G1 X138.153 Y72.630 E21.66712
G1 X138.713 Y74.078 E21.85143
G1 X139.211 Y75.594 E22.04099
G1 X139.625 Y77.128 E22.22971
G1 X139.959 Y78.682 E22.41846
G1 X140.209 Y80.251 E22.60718
G1 X140.377 Y81.831 E22.79589
G1 X140.461 Y83.418 E22.98462
G1 X140.461 Y85.007 E23.17335
G1 X140.377 Y86.594 E23.36208
G1 X140.209 Y88.174 E23.55079
G1 X139.959 Y89.743 E23.73951
G1 X139.625 Y91.297 E23.92825
G1 X139.210 Y92.832 E24.11709
G1 X138.703 Y94.376 E24.31005
G1 X138.142 Y95.823 E24.49441
G1 X137.490 Y97.272 E24.68314
G1 X136.763 Y98.685 E24.87185
G1 X135.963 Y100.058 E25.06056
G1 X135.091 Y101.387 E25.24930
G1 X134.150 Y102.667 E25.43803
G1 X133.143 Y103.896 E25.62675
G1 X132.072 Y105.071 E25.81547
G1 X130.941 Y106.187 E26.00419
G1 X129.753 Y107.242 E26.19291
G1 X128.511 Y108.232 E26.38164
G1 X127.218 Y109.156 E26.57035
G1 X125.878 Y110.011 E26.75909
G1 X124.495 Y110.793 E26.94782
G1 X123.072 Y111.501 E27.13653
G1 X121.614 Y112.133 E27.32525
G1 X120.125 Y112.688 E27.51397
G1 X118.609 Y113.163 E27.70269
G1 X117.070 Y113.557 E27.89142
G1 X115.512 Y113.870 E28.08015
G1 X113.939 Y114.100 E28.26888
G1 X112.357 Y114.246 E28.45760
G1 X110.769 Y114.309 E28.64632
G1 X109.180 Y114.288 E28.83505
G1 X107.595 Y114.184 E29.02375
G1 X106.017 Y113.995 E29.21248
G1 X104.451 Y113.724 E29.40121
G1 X102.902 Y113.370 E29.58994
G1 X101.373 Y112.935 E29.77867
G1 X99.870 Y112.420 E29.96738
G1 X98.395 Y111.827 E30.15623
G1 X96.923 Y111.139 E30.34920
G1 X95.552 Y110.411 E30.53354
G1 X94.190 Y109.592 E30.72227
G1 X92.873 Y108.703 E30.91100
G1 X91.605 Y107.745 E31.09972
G1 X90.390 Y106.722 E31.28844
G1 X89.229 Y105.635 E31.47730
G1 X88.104 Y104.463 E31.67027
G1 X87.128 Y103.334 E31.84748
G1 X87.642 Y102.836 F11400.000
G1 X86.691 Y101.610 E32.03173 F1800.000
G1 X85.806 Y100.336 E32.21597
G1 X84.989 Y99.017 E32.40021
G1 X84.243 Y97.657 E32.58446
G1 X83.570 Y96.259 E32.76871
G1 X82.971 Y94.828 E32.95295
G1 X82.449 Y93.367 E33.13719
G1 X82.005 Y91.881 E33.32143
G1 X81.640 Y90.373 E33.50567
G1 X81.355 Y88.848 E33.68991
G1 X81.151 Y87.310 E33.87416
G1 X81.028 Y85.764 E34.05841
G1 X80.987 Y84.213 E34.24265
G1 X81.028 Y82.662 E34.42689
G1 X81.151 Y81.116 E34.61114
G1 X81.355 Y79.578 E34.79530
G1 X81.620 Y78.148 E34.96809
G1 X82.005 Y76.547 E35.16362
G1 X82.402 Y75.207 E35.32959
G1 X83.038 Y73.432 E35.55359
G1 X83.637 Y72.021 E35.73557
G1 X84.306 Y70.649 E35.91689
G1 X85.044 Y69.315 E36.09792
G1 X85.849 Y68.024 E36.27861
G1 X86.718 Y66.779 E36.45891
G1 X87.647 Y65.583 E36.63881
G1 X88.635 Y64.440 E36.81825
G1 X89.677 Y63.352 E36.99719
G1 X90.770 Y62.322 E37.17560
G1 X91.911 Y61.352 E37.35343
G1 X93.096 Y60.445 E37.53065
G1 X94.321 Y59.601 E37.70726
G1 X95.576 Y58.828 E37.88235
G1 X96.236 Y58.454 E37.97239
G1 X97.568 Y57.766 E38.15057
G1 X98.937 Y57.145 E38.32900
G1 X100.330 Y56.598 E38.50678
G1 X101.744 Y56.124 E38.68396
G1 X103.176 Y55.723 E38.86056
G1 X104.623 Y55.396 E39.03667
G1 X106.080 Y55.143 E39.21237
G1 X107.546 Y54.964 E39.38779
G1 X109.016 Y54.860 E39.56280
G1 X110.002 Y54.835 E39.67986
G1 X110.990 Y54.835 E39.79722 F1800.000
G1 X112.462 Y54.903 E39.97222
G1 X113.931 Y55.045 E40.14756
G1 X115.395 Y55.261 E40.32329
G1 X116.846 Y55.550 E40.49899
G1 X118.285 Y55.914 E40.67534
G1 X119.709 Y56.352 E40.85223
G1 X121.113 Y56.863 E41.02970
G1 X122.495 Y57.447 E41.20781
G1 X123.843 Y58.100 E41.38575
G1 X124.525 Y58.464 E41.47762
G1 X125.797 Y59.204 E41.65235
G1 X127.040 Y60.015 E41.82863
G1 X128.246 Y60.890 E42.00555
G1 X129.409 Y61.829 E42.18308
G1 X130.526 Y62.829 E42.36121
G1 X131.594 Y63.889 E42.53988
G1 X132.612 Y65.007 E42.71942
G1 X133.717 Y66.369 E42.92770
G1 X134.601 Y67.589 E43.10672
G1 X135.424 Y68.856 E43.28602
G1 X136.181 Y70.165 E43.46572
G1 X136.871 Y71.515 E43.64573
G1 X137.324 Y72.521 E43.77678
G1 X137.493 Y72.904 E43.82654
G1 X138.041 Y74.318 E44.00658
G1 X138.526 Y75.799 E44.19168
G1 X138.931 Y77.296 E44.37592
G1 X139.256 Y78.813 E44.56018
G1 X139.501 Y80.345 E44.74442
G1 X139.665 Y81.888 E44.92866
G1 X139.746 Y83.437 E45.11291
G1 X139.746 Y84.988 E45.29715
G1 X139.665 Y86.538 E45.48140
G1 X139.501 Y88.080 E45.66564
G1 X139.256 Y89.612 E45.84988
G1 X138.931 Y91.129 E46.03414
G1 X138.526 Y92.627 E46.21845
G1 X138.030 Y94.135 E46.40693
G1 X137.483 Y95.547 E46.58686
G1 X136.847 Y96.962 E46.77111
G1 X136.137 Y98.342 E46.95535
G1 X135.355 Y99.682 E47.13957
G1 X134.504 Y100.979 E47.32383
G1 X133.586 Y102.229 E47.50808
G1 X132.602 Y103.429 E47.69232
G1 X131.557 Y104.576 E47.87657
G1 X130.453 Y105.665 E48.06081
G1 X129.293 Y106.695 E48.24505
G1 X128.080 Y107.662 E48.42929
G1 X126.818 Y108.564 E48.61354
G1 X125.510 Y109.398 E48.79779
G1 X124.160 Y110.162 E48.98204
G1 X122.771 Y110.853 E49.16627
G1 X121.348 Y111.471 E49.35051
G1 X119.894 Y112.012 E49.53475
G1 X118.413 Y112.476 E49.71900
G1 X116.911 Y112.861 E49.90324
G1 X115.390 Y113.166 E50.08750
G1 X113.855 Y113.390 E50.27174
G1 X112.310 Y113.533 E50.45598
G1 X110.760 Y113.595 E50.64022
G1 X109.209 Y113.574 E50.82447
G1 X107.661 Y113.472 E51.00870
G1 X106.120 Y113.288 E51.19295
G1 X104.592 Y113.024 E51.37720
G1 X103.079 Y112.678 E51.56145
G1 X101.587 Y112.254 E51.74569
G1 X100.120 Y111.751 E51.92993
G1 X98.680 Y111.171 E52.11426
G1 X97.242 Y110.500 E52.30274
G1 X95.904 Y109.789 E52.48266
G1 X94.574 Y108.990 E52.66690
G1 X93.289 Y108.122 E52.85115
G1 X92.051 Y107.187 E53.03539
G1 X90.864 Y106.188 E53.21964
G1 X89.731 Y105.127 E53.40396
G1 X88.632 Y103.982 E53.59245
G1 X87.681 Y102.881 E53.76523
G1 X88.194 Y102.383 F11400.000
G1 X87.266 Y101.187 E53.94501 F1800.000
G1 X86.403 Y99.944 E54.12476
G1 X85.606 Y98.657 E54.30453
G1 X84.878 Y97.330 E54.48430
G1 X84.221 Y95.966 E54.66406
G1 X83.638 Y94.570 E54.84382
G1 X83.128 Y93.144 E55.02359
G1 X82.695 Y91.694 E55.20335
G1 X82.339 Y90.223 E55.38312
G1 X82.060 Y88.735 E55.56288
G1 X81.861 Y87.235 E55.74265
G1 X81.742 Y85.726 E55.92241
G1 X81.702 Y84.213 E56.10218
G1 X81.742 Y82.700 E56.28194
G1 X81.861 Y81.191 E56.46171
G1 X82.060 Y79.691 E56.64144
G1 X82.319 Y78.297 E56.80983
G1 X82.695 Y76.732 E57.00091
G1 X83.082 Y75.430 E57.16229
G1 X83.703 Y73.692 E57.38151
G1 X84.287 Y72.317 E57.55882
G1 X84.940 Y70.979 E57.73573
G1 X85.660 Y69.677 E57.91235
G1 X86.445 Y68.418 E58.08864
G1 X87.293 Y67.203 E58.26456
G1 X88.200 Y66.036 E58.44008
G1 X89.163 Y64.921 E58.61515
G1 X90.180 Y63.859 E58.78974
G1 X91.247 Y62.854 E58.96380
G1 X92.360 Y61.908 E59.13730
G1 X93.516 Y61.023 E59.31021
G1 X94.711 Y60.200 E59.48252
G1 X95.939 Y59.443 E59.65389
G1 X96.575 Y59.083 E59.74073
G1 X97.880 Y58.409 E59.91512
G1 X99.215 Y57.803 E60.08920
G1 X100.574 Y57.269 E60.26266
G1 X101.954 Y56.806 E60.43552
G1 X103.351 Y56.415 E60.60783
G1 X104.763 Y56.097 E60.77965
G1 X106.185 Y55.850 E60.95107
G1 X107.615 Y55.676 E61.12222
G1 X109.051 Y55.573 E61.29315
G1 X110.011 Y55.549 E61.40719
G1 X110.973 Y55.549 E61.52154 F1800.000
G1 X112.411 Y55.615 E61.69245
G1 X113.845 Y55.754 E61.86353
G1 X115.273 Y55.965 E62.03498
G1 X116.688 Y56.247 E62.20641
G1 X118.093 Y56.602 E62.37846
G1 X119.482 Y57.029 E62.55104
G1 X120.852 Y57.527 E62.72419
G1 X122.200 Y58.097 E62.89796
G1 X123.519 Y58.737 E63.07207
G1 X124.177 Y59.088 E63.16073
G1 X125.422 Y59.813 E63.33176
G1 X126.635 Y60.603 E63.50375
G1 X127.811 Y61.457 E63.67636
G1 X128.946 Y62.373 E63.84957
G1 X130.036 Y63.349 E64.02336
G1 X131.078 Y64.383 E64.19769
G1 X132.070 Y65.473 E64.37264
G1 X133.150 Y66.804 E64.57622
G1 X134.012 Y67.994 E64.75076
G1 X134.815 Y69.229 E64.92569
G1 X135.554 Y70.507 E65.10102
G1 X136.227 Y71.824 E65.27672
G1 X136.671 Y72.812 E65.40541
G1 X136.834 Y73.178 E65.45291
G1 X137.368 Y74.558 E65.62869
G1 X137.842 Y76.003 E65.80932
G1 X138.237 Y77.465 E65.98909
G1 X138.554 Y78.945 E66.16886
G1 X138.793 Y80.439 E66.34863
G1 X138.952 Y81.944 E66.52839
G1 X139.032 Y83.456 E66.70815
G1 X139.032 Y84.970 E66.88792
G1 X138.952 Y86.481 E67.06769
G1 X138.793 Y87.986 E67.24745
G1 X138.554 Y89.481 E67.42721
G1 X138.237 Y90.961 E67.60698
G1 X137.842 Y92.422 E67.78677
G1 X137.357 Y93.894 E67.97077
G1 X136.824 Y95.272 E68.14626
G1 X136.203 Y96.652 E68.32603
G1 X135.510 Y97.998 E68.50580
G1 X134.748 Y99.306 E68.68555
G1 X133.917 Y100.571 E68.86532
G1 X133.021 Y101.791 E69.04509
G1 X132.062 Y102.962 E69.22486
G1 X131.042 Y104.080 E69.40462
G1 X129.965 Y105.144 E69.58438
G1 X128.833 Y106.149 E69.76415
G1 X127.650 Y107.092 E69.94391
G1 X126.418 Y107.972 E70.12368
G1 X125.142 Y108.786 E70.30345
G1 X123.824 Y109.531 E70.48321
G1 X122.469 Y110.206 E70.66297
G1 X121.081 Y110.808 E70.84273
G1 X119.662 Y111.336 E71.02249
G1 X118.218 Y111.789 E71.20226
G1 X116.752 Y112.164 E71.38203
G1 X115.268 Y112.462 E71.56180
G1 X113.770 Y112.681 E71.74156
G1 X112.263 Y112.821 E71.92132
G1 X110.750 Y112.881 E72.10109
G1 X109.237 Y112.861 E72.28085
G1 X107.727 Y112.761 E72.46061
G1 X106.224 Y112.582 E72.64038
G1 X104.732 Y112.323 E72.82015
G1 X103.257 Y111.986 E72.99991
G1 X101.801 Y111.572 E73.17968
G1 X100.369 Y111.081 E73.35944
G1 X98.964 Y110.516 E73.53923
G1 X97.561 Y109.861 E73.72324
G1 X96.256 Y109.167 E73.89873
G1 X94.959 Y108.388 E74.07849
G1 X93.704 Y107.540 E74.25826
G1 X92.496 Y106.628 E74.43802
G1 X91.338 Y105.654 E74.61779
G1 X90.233 Y104.619 E74.79758
G1 X89.161 Y103.501 E74.98159
G1 X88.234 Y102.428 E75.14995
G1 X87.799 Y102.444 F11400.000
G1 X74.082 Y107.064 F11400.000
G1 X69.123 Y105.237 E75.77753 F1800.000
G1 X78.111 Y80.842 E78.86519
G1 X78.327 Y79.145 E79.06833
G1 X78.613 Y77.547 E79.26114
G1 X78.980 Y75.966 E79.45395
G1 X79.427 Y74.405 E79.64676
G1 X79.952 Y72.869 E79.83957
G1 X80.554 Y71.361 E80.03237
G1 X81.232 Y69.886 E80.22518
G1 X81.984 Y68.447 E80.41799
G1 X82.807 Y67.048 E80.61080
G1 X83.707 Y65.683 E80.80498
G1 X84.166 Y65.041 E80.89865
G1 X85.174 Y63.739 E81.09421
G1 X85.680 Y63.135 E81.18787
G1 X86.784 Y61.913 E81.38343
G1 X87.334 Y61.348 E81.47709
G1 X88.528 Y60.214 E81.67265
G1 X89.120 Y59.692 E81.76633
G1 X90.376 Y58.668 E81.95886
G1 X91.695 Y57.698 E82.15335
G1 X93.060 Y56.798 E82.34749
G1 X93.735 Y56.390 E82.44115
G1 X95.175 Y55.591 E82.63671
G1 X95.880 Y55.233 E82.73066
G1 X97.364 Y54.552 E82.92456
G1 X98.882 Y53.945 E83.11874
G1 X100.397 Y53.428 E83.30880
G1 X101.968 Y52.978 E83.50299
G1 X103.561 Y52.608 E83.69717
G1 X104.336 Y52.459 E83.79084
G1 X105.952 Y52.212 E83.98503
G1 X107.565 Y52.048 E84.17757
G1 X108.377 Y51.996 E84.27429
