; generated by Slic3r 1.2.9 on 2016-06-19 at 12:10:31

; external perimeters extrusion width = 0.40mm
; perimeters extrusion width = 0.48mm
; infill extrusion width = 0.48mm
; solid infill extrusion width = 0.48mm
; top infill extrusion width = 0.48mm
; support material extrusion width = 0.40mm

M107
M190 S40 ; set bed temperature
M104 S210 ; set temperature
G28 ; home all axes
G1 Z5 F5000 ; lift nozzle

M109 S210 ; wait for temperature to be reached
G21 ; set units to millimeters
G90 ; use absolute coordinates
M82 ; use absolute distances for extrusion
G92 E0
G1 Z0.400 F11400.000
G1 E-2.00000 F2400.00000
G92 E0
G1 X2.369 Y2.068 F11400.000
G1 E2.00000 F2400.00000
G1 X3.409 Y0.926 E2.18341 F1800.000
G1 X4.104 Y0.215 E2.30150
G1 X4.818 Y-0.476 E2.41958
G1 X6.163 Y-1.683 E2.63414
G1 X6.928 Y-2.318 E2.75224
G1 X7.710 Y-2.932 E2.87031
G1 X8.508 Y-3.525 E2.98843
G1 X9.322 Y-4.096 E3.10648
G1 X10.304 Y-4.743 E3.24617
G1 X11.150 Y-5.265 E3.36424
G1 X12.010 Y-5.764 E3.48233
G1 X13.606 Y-6.610 E3.69690
G1 X14.667 Y-7.118 E3.83657
G1 X15.576 Y-7.521 E3.95465
G1 X16.495 Y-7.900 E4.07275
G1 X18.191 Y-8.523 E4.28732
G1 X19.137 Y-8.830 E4.40542
G1 X20.090 Y-9.111 E4.52347
G1 X21.052 Y-9.366 E4.64159
G1 X22.019 Y-9.596 E4.75964
G1 X22.992 Y-9.799 E4.87774
G1 X23.971 Y-9.975 E4.99581
G1 X25.134 Y-10.150 E5.13549
G1 X26.121 Y-10.268 E5.25358
G1 X27.111 Y-10.360 E5.37166
G1 X28.915 Y-10.458 E5.58624
G1 X30.000 Y-10.474 E5.71511
G1 X170.091 Y-10.474 E22.35303
G1 X171.897 Y-10.425 E22.56763 F1800.000
G1 X173.070 Y-10.345 E22.70726
G1 X174.866 Y-10.150 E22.92186
G1 X176.029 Y-9.975 E23.06151
G1 X177.804 Y-9.635 E23.27612
G1 X178.772 Y-9.410 E23.39415
G1 X179.703 Y-9.168 E23.50838
G1 X180.863 Y-8.830 E23.65191
G1 X182.575 Y-8.253 E23.86647
G1 X183.674 Y-7.832 E24.00616
G1 X185.333 Y-7.118 E24.22071
G1 X186.394 Y-6.610 E24.36039
G1 X187.990 Y-5.764 E24.57494
G1 X189.006 Y-5.171 E24.71462
G1 X190.528 Y-4.198 E24.92926
G1 X191.345 Y-3.631 E25.04728
G1 X192.120 Y-3.062 E25.16149
G1 X193.072 Y-2.318 E25.30503
G1 X194.449 Y-1.148 E25.51964
G1 X195.182 Y-0.476 E25.63778
G1 X195.896 Y0.215 E25.75576
G1 X196.717 Y1.058 E25.89547
G1 X197.923 Y2.403 E26.10999
G1 X198.672 Y3.309 E26.24967
G1 X199.766 Y4.748 E26.46432
G1 X200.438 Y5.712 E26.60390
G1 X201.411 Y7.234 E26.81849
G1 X202.004 Y8.250 E26.95815
G1 X202.850 Y9.846 E27.17274
G1 X203.359 Y10.907 E27.31241
G1 X204.073 Y12.567 E27.52705
G1 X204.493 Y13.665 E27.66662
G1 X205.070 Y15.378 E27.88135
G1 X205.351 Y16.330 E27.99929
G1 X205.606 Y17.291 E28.11737
G1 X205.875 Y18.437 E28.25705
G1 X206.073 Y19.411 E28.37512
G1 X206.245 Y20.390 E28.49321
G1 X206.390 Y21.374 E28.61132
G1 X206.508 Y22.361 E28.72939
G1 X206.600 Y23.351 E28.84746
G1 X206.665 Y24.343 E28.96557
G1 X206.714 Y26.240 E29.19092
G1 X206.702 Y167.145 E45.92554
G1 X206.665 Y168.137 E46.04339
G1 X206.600 Y169.129 E46.16150
G1 X206.489 Y170.300 E46.30115
G1 X206.245 Y172.090 E46.51573
G1 X206.073 Y173.070 E46.63391
G1 X205.881 Y174.012 E46.74803
G1 X205.606 Y175.188 E46.89156
G1 X205.123 Y176.929 E47.10615
G1 X204.763 Y178.049 E47.24583
G1 X204.430 Y178.986 E47.36389
G1 X204.072 Y179.914 E47.48199
G1 X203.358 Y181.573 E47.69656
G1 X202.931 Y182.471 E47.81466
G1 X202.494 Y183.328 E47.92889
G1 X201.915 Y184.388 E48.07239
G1 X200.983 Y185.937 E48.28710
G1 X200.438 Y186.769 E48.40513
G1 X199.871 Y187.585 E48.52312
G1 X199.172 Y188.531 E48.66282
G1 X198.041 Y189.938 E48.87734
G1 X197.267 Y190.824 E49.01702
G1 X196.591 Y191.554 E49.13513
G1 X195.314 Y192.831 E49.34970
G1 X194.584 Y193.507 E49.46778
G1 X193.698 Y194.281 E49.60746
G1 X192.290 Y195.412 E49.82201
G1 X191.492 Y196.005 E49.94011
G1 X190.678 Y196.576 E50.05818
G1 X189.796 Y197.160 E50.18378
G1 X171.465 Y208.975 E52.77391
G1 X170.926 Y209.273 E52.84705
G1 X170.482 Y209.491 E52.90587
G1 X169.797 Y209.778 E52.99402
G1 X169.278 Y209.960 E53.05938
G1 X168.686 Y210.131 E53.13249
G1 X168.203 Y210.245 E53.19147
G1 X167.472 Y210.372 E53.27957
G1 X166.925 Y210.434 E53.34492
G1 X166.000 Y210.474 E53.45494
G1 X34.000 Y210.474 E69.13194
G1 X33.449 Y210.458 E69.19740
G1 X32.650 Y210.387 E69.29265
G1 X31.862 Y210.257 E69.38759
G1 X31.372 Y210.145 E69.44720
G1 X30.321 Y209.821 E69.57785
G1 X29.579 Y209.518 E69.67301
G1 X28.863 Y209.160 E69.76813
G1 X28.428 Y208.909 E69.82777
G1 X9.472 Y196.678 E72.50700
G1 X8.508 Y196.005 E72.64666
G1 X7.069 Y194.912 E72.86124
G1 X6.163 Y194.163 E73.00091
G1 X4.842 Y192.979 E73.21159
G1 X4.103 Y192.264 E73.33365
G1 X3.284 Y191.422 E73.47323
G1 X2.077 Y190.077 E73.68779
G1 X1.328 Y189.171 E73.82747
G1 X0.254 Y187.758 E74.03817
G1 X-0.337 Y186.918 E74.16022
G1 X-0.983 Y185.936 E74.29980
G1 X-1.914 Y184.388 E74.51434
G1 X-2.479 Y183.357 E74.65403
G1 X-3.282 Y181.738 E74.86863
G1 X-3.761 Y180.664 E75.00827
G1 X-4.430 Y178.986 E75.22285
G1 X-4.821 Y177.877 E75.36251
G1 X-5.342 Y176.181 E75.57321
G1 X-5.606 Y175.189 E75.69515
G1 X-5.875 Y174.044 E75.83484
G1 X-6.215 Y172.269 E76.04944
G1 X-6.390 Y171.106 E76.18907
G1 X-6.585 Y169.310 E76.40363
G1 X-6.665 Y168.137 E76.54331
G1 X-6.714 Y166.240 E76.76867
G1 X-6.714 Y26.240 E93.39579
G1 X-6.665 Y24.343 E93.62117
G1 X-6.585 Y23.170 E93.76083
G1 X-6.390 Y21.374 E93.97541
G1 X-6.245 Y20.390 E94.09347
G1 X-6.073 Y19.411 E94.21157
G1 X-5.836 Y18.259 E94.35124
G1 X-5.400 Y16.505 E94.56584
G1 X-5.123 Y15.550 E94.68390
G1 X-4.831 Y14.634 E94.79811
G1 X-4.430 Y13.494 E94.94164
G1 X-3.761 Y11.816 E95.15622
G1 X-3.358 Y10.907 E95.27431
G1 X-2.945 Y10.038 E95.38851
G1 X-2.394 Y8.963 E95.53205
G1 X-1.505 Y7.390 E95.74662
G1 X-0.983 Y6.544 E95.86470
G1 X-0.456 Y5.739 E95.97892
G1 X0.235 Y4.748 E96.12246
G1 X1.328 Y3.309 E96.33703
G1 X2.330 Y2.114 E96.52230
G1 E94.52230 F2400.00000
G92 E0
G1 X31.111 Y195.156 F11400.000
G1 E2.00000 F2400.00000
G1 X28.429 Y195.083 E2.31869 F1800.000
G1 X27.656 Y195.030 E2.41070
G1 X26.884 Y194.957 E2.50271
G1 X25.327 Y194.745 E2.68940
G1 X23.790 Y194.450 E2.87522
G1 X22.296 Y194.079 E3.05812
G1 X21.528 Y193.855 E3.15308
G1 X20.039 Y193.354 E3.33970
G1 X18.579 Y192.772 E3.52639
G1 X17.878 Y192.459 E3.61751
G1 X16.463 Y191.757 E3.80509
G1 X15.790 Y191.389 E3.89621
G1 X14.443 Y190.578 E4.08292
G1 X13.168 Y189.714 E4.26582
G1 X12.525 Y189.240 E4.36078
G1 X11.300 Y188.255 E4.54740
G1 X10.136 Y187.211 E4.73320
G1 X9.029 Y186.104 E4.91900
G1 X7.985 Y184.940 E5.10479
G1 X7.005 Y183.721 E5.29059
G1 X6.092 Y182.450 E5.47638
G1 X5.249 Y181.132 E5.66218
G1 X4.479 Y179.770 E5.84800
G1 X3.795 Y178.391 E6.03090
G1 X3.468 Y177.661 E6.12585
G1 X2.886 Y176.201 E6.31248
G1 X2.387 Y174.719 E6.49827
G1 X1.968 Y173.211 E6.68407
G1 X1.632 Y171.683 E6.86987
G1 X1.379 Y170.140 E7.05566
G1 X1.210 Y168.584 E7.24146
G1 X1.125 Y167.022 E7.42726
G1 X1.114 Y26.255 E24.14549
G1 X1.157 Y24.669 E24.33397
G1 X1.209 Y23.903 E24.42508
G1 X1.379 Y22.340 E24.61179
G1 X1.628 Y20.820 E24.79470
G1 X1.788 Y20.037 E24.88967
G1 X2.161 Y18.536 E25.07340
G1 X2.385 Y17.768 E25.16837
G1 X2.878 Y16.302 E25.35210
G1 X3.163 Y15.555 E25.44708
G1 X3.774 Y14.133 E25.63081
G1 X4.122 Y13.405 E25.72666
G1 X4.476 Y12.716 E25.81860
G1 X5.249 Y11.348 E26.00531
G1 X6.078 Y10.050 E26.18821
G1 X6.535 Y9.394 E26.28319
G1 X7.471 Y8.162 E26.46692
G1 X7.980 Y7.545 E26.56187
G1 X9.029 Y6.376 E26.74850
G1 X10.136 Y5.269 E26.93429
G1 X11.300 Y4.225 E27.12011
G1 X12.500 Y3.259 E27.30301
G1 X13.143 Y2.783 E27.39796
G1 X14.443 Y1.902 E27.58459
G1 X15.784 Y1.095 E27.77038
G1 X17.173 Y0.359 E27.95708
G1 X17.864 Y0.027 E28.04819
G1 X19.308 Y-0.594 E28.23489
G1 X20.777 Y-1.133 E28.42068
G1 X22.272 Y-1.593 E28.60648
G1 X23.790 Y-1.970 E28.79227
G1 X25.327 Y-2.265 E28.97807
G1 X26.877 Y-2.476 E29.16387
G1 X28.436 Y-2.603 E29.34966
G1 X30.015 Y-2.646 E29.53725
G1 X170.758 Y-2.635 E46.25258
G1 X171.557 Y-2.604 E46.34756
G1 X173.123 Y-2.476 E46.53418
G1 X174.681 Y-2.264 E46.72088
G1 X175.436 Y-2.130 E46.81199
G1 X176.979 Y-1.790 E46.99958
G1 X177.720 Y-1.595 E47.09070
G1 X179.223 Y-1.133 E47.27739
G1 X180.692 Y-0.594 E47.46319
G1 X182.136 Y0.027 E47.64988
G1 X182.827 Y0.359 E47.74099
G1 X184.216 Y1.095 E47.92771
G1 X185.536 Y1.889 E48.11061
G1 X186.204 Y2.328 E48.20556
G1 X187.481 Y3.245 E48.39219
G1 X188.706 Y4.229 E48.57888
G1 X189.284 Y4.734 E48.66999
G1 X190.431 Y5.820 E48.85758
G1 X190.966 Y6.370 E48.94870
G1 X192.015 Y7.540 E49.13539
G1 X193.000 Y8.765 E49.32208
G1 X193.456 Y9.382 E49.41320
G1 X194.338 Y10.683 E49.59989
G1 X195.149 Y12.030 E49.78658
G1 X195.517 Y12.703 E49.87770
G1 X196.216 Y14.111 E50.06441
G1 X196.825 Y15.526 E50.24731
G1 X197.111 Y16.272 E50.34227
G1 X197.613 Y17.761 E50.52889
G1 X198.034 Y19.276 E50.71558
G1 X198.209 Y20.023 E50.80670
G1 X198.505 Y21.567 E50.99339
G1 X198.716 Y23.117 E51.17919
G1 X198.843 Y24.676 E51.36498
G1 X198.886 Y26.255 E51.55257
G1 X198.886 Y166.225 E68.17611
G1 X198.843 Y167.811 E68.36460
G1 X198.791 Y168.577 E68.45571
G1 X198.620 Y170.147 E68.64330
G1 X198.506 Y170.906 E68.73442
G1 X198.210 Y172.450 E68.92113
G1 X197.839 Y173.944 E69.10403
G1 X197.613 Y174.719 E69.19988
G1 X197.376 Y175.456 E69.29182
G1 X196.834 Y176.932 E69.47854
G1 X196.226 Y178.347 E69.66144
G1 X195.878 Y179.075 E69.75729
G1 X195.524 Y179.764 E69.84923
G1 X194.747 Y181.139 E70.03682
G1 X194.343 Y181.791 E70.12794
G1 X193.456 Y183.098 E70.31552
G1 X193.000 Y183.715 E70.40664
G1 X192.015 Y184.940 E70.59333
G1 X190.971 Y186.104 E70.77913
G1 X189.864 Y187.211 E70.96493
G1 X188.700 Y188.255 E71.15072
G1 X187.481 Y189.235 E71.33652
G1 X186.210 Y190.148 E71.52232
G1 X184.892 Y190.991 E71.70811
G1 X183.530 Y191.761 E71.89391
G1 X182.129 Y192.456 E72.07970
G1 X180.692 Y193.074 E72.26550
G1 X179.223 Y193.613 E72.45130
G1 X177.728 Y194.073 E72.63709
G1 X176.210 Y194.450 E72.82289
G1 X174.673 Y194.745 E73.00868
G1 X173.123 Y194.956 E73.19448
G1 X171.564 Y195.083 E73.38027
G1 X168.889 Y195.156 E73.69807
G1 X168.875 Y199.990 E74.27218
G1 X168.846 Y200.223 E74.30014
G1 X168.765 Y200.578 E74.34332
G1 X168.685 Y200.814 E74.37295
G1 X168.585 Y201.038 E74.40215
G1 X168.384 Y201.381 E74.44934
G1 X168.113 Y201.721 E74.50092
G1 X167.795 Y202.016 E74.55251
G1 X167.483 Y202.232 E74.59758
G1 X167.082 Y202.432 E74.65081
G1 X166.816 Y202.525 E74.68425
G1 X166.430 Y202.611 E74.73123
G1 X166.015 Y202.645 E74.78068
G1 X33.785 Y202.635 E90.48501
G1 X33.359 Y202.570 E90.53619
G1 X32.947 Y202.443 E90.58736
G1 X32.540 Y202.247 E90.64101
G1 X32.392 Y202.155 E90.66168
G1 X32.039 Y201.873 E90.71539
G1 X31.738 Y201.550 E90.76781
G1 X31.628 Y201.401 E90.78984
G1 X31.403 Y201.011 E90.84331
G1 X31.238 Y200.590 E90.89696
G1 X31.193 Y200.422 E90.91762
G1 X31.125 Y199.974 E90.97147
G1 X31.111 Y195.216 E91.53659
G1 X30.399 Y195.851 F11400.000
G1 X28.395 Y195.796 E91.77470 F1800.000
G1 X27.598 Y195.742 E91.86958
G1 X26.802 Y195.667 E91.96446
G1 X25.211 Y195.450 E92.15518
G1 X23.637 Y195.148 E92.34558
G1 X22.110 Y194.768 E92.53245
G1 X21.314 Y194.537 E92.63087
G1 X19.793 Y194.024 E92.82155
G1 X18.301 Y193.430 E93.01227
G1 X17.574 Y193.105 E93.10683
G1 X16.133 Y192.391 E93.29786
G1 X15.434 Y192.008 E93.39243
G1 X14.058 Y191.180 E93.58314
G1 X12.756 Y190.298 E93.77002
G1 X12.089 Y189.806 E93.86844
G1 X10.837 Y188.800 E94.05913
G1 X9.644 Y187.729 E94.24952
G1 X8.511 Y186.596 E94.43991
G1 X7.440 Y185.403 E94.63030
G1 X6.436 Y184.153 E94.82069
G1 X5.501 Y182.851 E95.01108
G1 X4.637 Y181.500 E95.20148
G1 X3.848 Y180.105 E95.39187
G1 X3.149 Y178.695 E95.57875
G1 X2.810 Y177.939 E95.67716
G1 X2.216 Y176.447 E95.86785
G1 X1.704 Y174.928 E96.05824
G1 X1.275 Y173.384 E96.24864
G1 X0.930 Y171.818 E96.43903
G1 X0.671 Y170.236 E96.62942
G1 X0.498 Y168.642 E96.81981
G1 X0.411 Y167.042 E97.01020
G1 X0.400 Y26.245 E113.73188
G1 X0.444 Y24.635 E113.92324
G1 X0.497 Y23.840 E114.01780
G1 X0.671 Y22.244 E114.20852
G1 X0.925 Y20.691 E114.39540
G1 X1.092 Y19.879 E114.49382
G1 X1.472 Y18.350 E114.68099
G1 X1.703 Y17.554 E114.77941
G1 X2.206 Y16.060 E114.96659
G1 X2.501 Y15.286 E115.06501
G1 X3.124 Y13.838 E115.25218
G1 X3.482 Y13.088 E115.35092
G1 X3.847 Y12.378 E115.44578
G1 X4.637 Y10.980 E115.63650
G1 X5.484 Y9.654 E115.82337
G1 X5.958 Y8.974 E115.92179
G1 X6.911 Y7.719 E116.10897
G1 X7.438 Y7.079 E116.20738
G1 X8.511 Y5.884 E116.39807
G1 X9.644 Y4.751 E116.58846
G1 X10.838 Y3.680 E116.77886
G1 X12.064 Y2.694 E116.96574
G1 X12.730 Y2.201 E117.06415
G1 X14.058 Y1.300 E117.25484
G1 X15.432 Y0.473 E117.44523
G1 X16.851 Y-0.279 E117.63595
G1 X17.569 Y-0.623 E117.73051
G1 X19.044 Y-1.258 E117.92122
G1 X20.549 Y-1.810 E118.11161
G1 X22.081 Y-2.281 E118.30200
G1 X23.637 Y-2.668 E118.49239
G1 X25.211 Y-2.970 E118.68279
G1 X26.800 Y-3.186 E118.87318
G1 X28.398 Y-3.316 E119.06357
G1 X30.005 Y-3.360 E119.25460
G1 X170.772 Y-3.349 E135.97277
G1 X171.600 Y-3.317 E136.07119
G1 X173.200 Y-3.186 E136.26188
G1 X174.791 Y-2.970 E136.45259
G1 X175.575 Y-2.830 E136.54715
G1 X177.146 Y-2.484 E136.73819
G1 X177.916 Y-2.282 E136.83275
G1 X179.451 Y-1.810 E137.02346
G1 X180.956 Y-1.258 E137.21385
G1 X182.431 Y-0.623 E137.40457
G1 X183.149 Y-0.279 E137.49913
G1 X184.568 Y0.473 E137.68985
G1 X185.916 Y1.284 E137.87673
G1 X186.609 Y1.739 E137.97514
G1 X187.913 Y2.676 E138.16583
G1 X189.165 Y3.682 E138.35654
G1 X189.764 Y4.205 E138.45110
G1 X190.932 Y5.312 E138.64214
G1 X191.488 Y5.882 E138.73670
G1 X192.560 Y7.077 E138.92741
G1 X193.566 Y8.329 E139.11812
G1 X194.039 Y8.969 E139.21269
G1 X194.940 Y10.298 E139.40340
G1 X195.768 Y11.674 E139.59411
G1 X196.151 Y12.373 E139.68868
G1 X196.864 Y13.811 E139.87939
G1 X197.486 Y15.257 E140.06627
G1 X197.783 Y16.030 E140.16469
G1 X198.296 Y17.552 E140.35537
G1 X198.726 Y19.099 E140.54609
G1 X198.907 Y19.874 E140.64065
G1 X199.210 Y21.451 E140.83136
G1 X199.426 Y23.040 E141.02175
G1 X199.556 Y24.637 E141.21215
G1 X199.600 Y26.245 E141.40318
G1 X199.600 Y166.235 E158.02902
G1 X199.556 Y167.845 E158.22038
G1 X199.502 Y168.640 E158.31494
G1 X199.329 Y170.239 E158.50597
G1 X199.210 Y171.026 E158.60053
G1 X198.908 Y172.603 E158.79125
G1 X198.528 Y174.130 E158.97813
G1 X198.296 Y174.928 E159.07687
G1 X198.051 Y175.689 E159.17172
G1 X197.498 Y177.196 E159.36245
G1 X196.876 Y178.642 E159.54932
G1 X196.518 Y179.392 E159.64806
G1 X196.153 Y180.102 E159.74291
G1 X195.362 Y181.503 E159.93395
G1 X194.942 Y182.179 E160.02851
G1 X194.039 Y183.511 E160.21955
G1 X193.566 Y184.151 E160.31411
G1 X192.560 Y185.403 E160.50482
G1 X191.489 Y186.596 E160.69521
G1 X190.356 Y187.729 E160.88561
G1 X189.163 Y188.800 E161.07600
G1 X187.913 Y189.804 E161.26639
G1 X186.611 Y190.739 E161.45678
G1 X185.260 Y191.603 E161.64717
G1 X183.865 Y192.392 E161.83756
G1 X182.429 Y193.104 E162.02795
G1 X180.956 Y193.738 E162.21834
G1 X179.451 Y194.290 E162.40874
G1 X177.919 Y194.761 E162.59913
G1 X176.363 Y195.148 E162.78952
G1 X174.789 Y195.450 E162.97991
G1 X173.200 Y195.666 E163.17030
G1 X171.603 Y195.796 E163.36069
G1 X169.601 Y195.851 E163.59847
G1 X169.589 Y200.034 E164.09531
G1 X169.551 Y200.346 E164.13267
G1 X169.453 Y200.772 E164.18459
G1 X169.351 Y201.075 E164.22255
G1 X169.221 Y201.366 E164.26035
G1 X168.974 Y201.786 E164.31826
G1 X168.638 Y202.208 E164.38229
G1 X168.243 Y202.575 E164.44632
G1 X167.847 Y202.848 E164.50347
G1 X167.361 Y203.091 E164.56808
G1 X167.012 Y203.213 E164.61196
G1 X166.536 Y203.319 E164.66979
G1 X166.044 Y203.359 E164.72851
G1 X33.731 Y203.349 E180.44263
G1 X33.199 Y203.269 E180.50651
G1 X32.685 Y203.110 E180.57040
G1 X32.194 Y202.873 E180.63517
G1 X31.979 Y202.738 E180.66536
G1 X31.552 Y202.398 E180.73015
G1 X31.189 Y202.007 E180.79358
G1 X31.030 Y201.793 E180.82517
G1 X30.758 Y201.321 E180.88987
G1 X30.558 Y200.814 E180.95465
G1 X30.492 Y200.568 E180.98484
G1 X30.411 Y200.028 E181.04968
G1 X30.399 Y195.911 E181.53872
G1 X30.406 Y195.451 F11400.000
G1 X30.619 Y194.702 F11400.000
G1 X1.561 Y165.644 E186.42508 F1800.000
G1 X1.561 Y166.655 E186.54531
G1 X29.580 Y194.674 E191.25689
G1 X28.538 Y194.643 E191.38087
G1 X1.607 Y167.713 E195.90936
G1 X1.689 Y168.806 E196.03974
G1 X27.441 Y194.557 E200.36997
G1 X26.286 Y194.414 E200.50830
G1 X1.815 Y169.943 E204.62329
G1 X2.013 Y171.152 E204.76901
G1 X25.084 Y194.223 E208.64852
G1 X23.815 Y193.965 E208.80248
G1 X2.279 Y172.429 E212.42387
G1 X2.629 Y173.790 E212.59094
