; generated by Slic3r 1.2.9 on 2016-06-24 at 10:42:42

; external perimeters extrusion width = 0.40mm
; perimeters extrusion width = 0.48mm
; infill extrusion width = 0.48mm
; solid infill extrusion width = 0.48mm
; top infill extrusion width = 0.48mm
; support material extrusion width = 0.40mm

M107
M190 S50 ; set bed temperature
M104 S210 ; set temperature
G28 ; home all axes
G1 Z5 F5000 ; lift nozzle

M109 S210 ; wait for temperature to be reached
G21 ; set units to millimeters
G90 ; use absolute coordinates
M82 ; use absolute distances for extrusion
G92 E0
G1 Z0.400 F11400.000
G1 E-2.00000 F2400.00000
G92 E0
G1 X63.044 Y37.790 F11400.000
G1 E2.00000 F2400.00000
G1 X64.632 Y36.114 E2.27422 F1800.000
G1 X66.693 Y35.074 E2.54845
G1 X68.640 Y34.786 E2.78221
G1 X70.075 Y34.786 E2.95264
G1 X72.076 Y35.091 E3.19302
G1 X150.664 Y59.625 E12.97081 F1800.000
G1 X152.717 Y60.682 E13.24503
G1 X154.291 Y62.372 E13.51926
G1 X155.205 Y64.524 E13.79699
G1 X158.535 Y78.945 E15.55471
G1 X162.053 Y96.170 E17.64267
G1 X169.771 Y144.859 E23.49745
G1 X169.735 Y147.168 E23.77168
G1 X168.918 Y149.327 E24.04590
G1 X167.419 Y151.083 E24.32012
G1 X165.359 Y152.246 E24.60107
G1 X72.294 Y184.837 E36.31201
G1 X70.075 Y185.214 E36.57935
G1 X68.640 Y185.214 E36.74978
G1 X66.366 Y184.817 E37.02400
G1 X64.360 Y183.673 E37.29823
G1 X62.861 Y181.917 E37.57245
G1 X62.001 Y179.499 E37.87727
G1 X50.243 Y101.349 E47.26317
G1 X50.176 Y100.745 E47.33534
G1 X50.146 Y100.117 E47.41004
G1 X50.146 Y89.883 E48.62553
G1 X50.198 Y89.021 E48.72808
G1 X50.330 Y88.167 E48.83066
G1 X62.118 Y39.906 E54.73097
G1 X63.020 Y37.845 E54.99807
G1 E52.99807 F2400.00000
G92 E0
G1 X69.675 Y41.900 F11400.000
G1 E2.00000 F2400.00000
G1 X69.675 Y178.100 E18.17582 F1800.000
G1 X69.040 Y178.100 E18.25124
G1 X69.040 Y41.900 E34.42705
G1 X69.615 Y41.900 E34.49535
G1 X69.475 Y42.246 F11400.000
G1 E32.49535 F2400.00000
G92 E0
G1 X68.640 Y41.500 F11400.000
G1 X65.106 Y91.833 F11400.000
G1 X62.818 Y95.000 F11400.000
G1 X61.336 Y95.000 F11400.000
G1 X60.808 Y95.000 F11400.000
G1 X60.309 Y95.000 F11400.000
G1 X60.309 Y95.000 F11400.000
G1 X59.766 Y97.534 F11400.000
G1 X59.589 Y98.635 F11400.000
G1 E2.00000 F2400.00000
G1 X59.953 Y98.754 E2.04549 F1800.000
G1 X60.175 Y98.887 E2.07621
G1 X60.368 Y99.058 E2.10692
G1 X60.526 Y99.263 E2.13764
G1 X60.643 Y99.494 E2.16835
G1 X60.714 Y99.742 E2.19907
G1 X60.739 Y100.000 E2.22978
G1 X60.714 Y100.258 E2.26050
G1 X60.643 Y100.506 E2.29122
G1 X60.514 Y100.760 E2.32505
G1 X60.270 Y101.039 E2.36908
G1 X60.173 Y101.119 E2.38399
G1 X59.833 Y101.296 E2.42949
G1 X59.583 Y101.362 E2.46020
G1 X59.221 Y101.377 E2.50332
G1 X58.934 Y101.316 E2.53807
G1 X58.727 Y101.231 E2.56469
G1 X58.490 Y101.074 E2.59852
G1 X58.305 Y100.893 E2.62924
G1 X58.157 Y100.681 E2.65996
G1 X58.051 Y100.445 E2.69067
G1 X57.990 Y100.194 E2.72139
G1 X57.978 Y99.935 E2.75210
G1 X58.015 Y99.679 E2.78282
G1 X58.098 Y99.434 E2.81353
G1 X58.226 Y99.209 E2.84425
G1 X58.393 Y99.012 E2.87497
G1 X58.594 Y98.850 E2.90568
G1 X58.822 Y98.727 E2.93640
G1 X59.171 Y98.629 E2.97952
G1 X59.529 Y98.628 E3.02199
G1 X59.666 Y97.925 F11400.000
G1 X59.702 Y97.929 E3.02634 F1800.000
G1 X59.884 Y97.968 E3.04839 F1800.000
G1 X60.262 Y98.107 E3.09618
G1 X60.599 Y98.308 E3.14286
G1 X60.893 Y98.569 E3.18953
G1 X61.133 Y98.881 E3.23620
G1 X61.310 Y99.231 E3.28287
G1 X61.419 Y99.609 E3.32954
G1 X61.456 Y100.000 E3.37621
G1 X61.419 Y100.391 E3.42288
G1 X61.310 Y100.769 E3.46955
G1 X61.128 Y101.128 E3.51734
G1 X61.026 Y101.274 E3.53854
G1 X60.761 Y101.560 E3.58487
G1 X60.598 Y101.694 E3.60985
G1 X60.444 Y101.796 E3.63190
G1 X60.081 Y101.970 E3.67969
G1 X59.701 Y102.070 E3.72636
G1 X59.299 Y102.098 E3.77416
G1 X59.121 Y102.086 E3.79536
G1 X58.739 Y102.005 E3.84169
G1 X58.374 Y101.854 E3.88866
G1 X58.039 Y101.632 E3.93645
G1 X57.757 Y101.357 E3.98312
G1 X57.533 Y101.035 E4.02979
G1 X57.372 Y100.676 E4.07646
G1 X57.280 Y100.294 E4.12313
G1 X57.262 Y99.902 E4.16980
G1 X57.317 Y99.513 E4.21647
G1 X57.444 Y99.141 E4.26314
G1 X57.637 Y98.799 E4.30981
G1 X57.892 Y98.499 E4.35648
G1 X58.197 Y98.252 E4.40315
G1 X58.543 Y98.066 E4.44982
G1 X58.927 Y97.945 E4.49762
G1 X59.103 Y97.916 E4.51882
G1 X59.606 Y97.919 E4.57856
G1 X59.682 Y97.958 F11400.000
G1 X60.180 Y99.732 F11400.000
G1 X59.634 Y99.186 E4.67737 F1800.000
G1 X58.662 Y99.302 E4.80273
G1 X60.055 Y100.696 E5.05495
G1 X59.089 Y100.818 E5.17963
G1 X58.537 Y100.266 E5.27946
G1 E3.27946 F2400.00000
G92 E0
G1 X59.065 Y97.517 F11400.000
G1 X58.888 Y95.000 F11400.000
G1 X59.123 Y95.000 F11400.000
G1 X59.299 Y92.499 F11400.000
G1 X59.299 Y91.382 F11400.000
G1 E2.00000 F2400.00000
G1 X58.934 Y91.316 E2.04403 F1800.000
G1 X58.727 Y91.231 E2.07065
G1 X58.490 Y91.074 E2.10448
G1 X58.305 Y90.893 E2.13520
G1 X58.157 Y90.681 E2.16592
G1 X58.051 Y90.445 E2.19663
G1 X57.990 Y90.194 E2.22735
G1 X57.978 Y89.935 E2.25807
G1 X58.015 Y89.679 E2.28878
G1 X58.098 Y89.434 E2.31949
G1 X58.226 Y89.209 E2.35021
G1 X58.393 Y89.012 E2.38093
G1 X58.594 Y88.850 E2.41164
G1 X58.822 Y88.727 E2.44236
G1 X59.094 Y88.642 E2.47620
G1 X59.464 Y88.621 E2.52023
G1 X59.589 Y88.635 E2.53514
G1 X59.953 Y88.754 E2.58063 F1800.000
G1 X60.175 Y88.887 E2.61135
G1 X60.368 Y89.058 E2.64206
G1 X60.526 Y89.263 E2.67278
G1 X60.643 Y89.494 E2.70349
G1 X60.714 Y89.742 E2.73421
G1 X60.739 Y90.000 E2.76492
G1 X60.714 Y90.258 E2.79564
G1 X60.643 Y90.506 E2.82636
G1 X60.469 Y90.825 E2.86947
G1 X60.270 Y91.039 E2.90422
G1 X60.091 Y91.174 E2.93084
G1 X59.833 Y91.296 E2.96468
G1 X59.583 Y91.362 E2.99539
G1 X59.359 Y91.378 E3.02211
G1 X59.249 Y92.095 F11400.000
G1 X59.121 Y92.086 E3.03733 F1800.000
G1 X58.739 Y92.005 E3.08367
G1 X58.374 Y91.854 E3.13064
G1 X58.039 Y91.632 E3.17843
G1 X57.757 Y91.357 E3.22510
G1 X57.533 Y91.035 E3.27177
G1 X57.372 Y90.676 E3.31844
G1 X57.280 Y90.294 E3.36511
G1 X57.262 Y89.902 E3.41178
G1 X57.317 Y89.513 E3.45845
G1 X57.444 Y89.141 E3.50512
G1 X57.637 Y88.799 E3.55179
G1 X57.892 Y88.499 E3.59846
G1 X58.197 Y88.252 E3.64513
G1 X58.543 Y88.066 E3.69180
G1 X58.927 Y87.945 E3.73959
G1 X59.103 Y87.916 E3.76079
G1 X59.493 Y87.906 E3.80713
G1 X59.702 Y87.929 E3.83210
G1 X59.884 Y87.968 E3.85415 F1800.000
G1 X60.262 Y88.107 E3.90195
G1 X60.599 Y88.308 E3.94862
G1 X60.893 Y88.569 E3.99529
G1 X61.133 Y88.881 E4.04196
G1 X61.310 Y89.231 E4.08863
G1 X61.419 Y89.609 E4.13530
G1 X61.456 Y90.000 E4.18197
G1 X61.419 Y90.391 E4.22864
G1 X61.310 Y90.769 E4.27531
G1 X61.128 Y91.128 E4.32310
G1 X61.026 Y91.274 E4.34430
G1 X60.761 Y91.560 E4.39064
G1 X60.598 Y91.694 E4.41561
G1 X60.444 Y91.796 E4.43766
G1 X60.081 Y91.970 E4.48546
G1 X59.701 Y92.070 E4.53213
G1 X59.309 Y92.098 E4.57877
G1 X59.188 Y91.982 F11400.000
G1 X58.537 Y90.266 F11400.000
G1 X59.089 Y90.818 E4.67860 F1800.000
G1 X60.055 Y90.696 E4.80328
G1 X58.662 Y89.302 E5.05550
G1 X59.634 Y89.186 E5.18086
G1 X60.180 Y89.732 E5.27967
G1 Z0.400 F11400.000
G1 Z0.400 F11400.000
G1 E3.27967 F2400.00000
G92 E0
G1 X55.891 Y100.479 F11400.000
G1 X54.876 Y100.551 F11400.000
G1 X54.877 Y89.437 F11400.000
G1 X54.916 Y88.987 F11400.000
G1 X66.913 Y39.622 F11400.000
G1 X72.826 Y40.015 F11400.000
G1 X85.837 Y77.089 F11400.000
G1 X85.897 Y78.968 F11400.000
G1 X87.752 Y107.757 F11400.000
G1 X103.617 Y105.704 F11400.000
G1 X105.883 Y106.495 F11400.000
G1 E2.00000 F2400.00000
G1 X154.548 Y98.787 E7.85176 F1800.000
G1 X161.865 Y144.983 E13.40661
G1 X113.200 Y152.691 E19.25837
G1 X105.892 Y106.554 E24.80609
G1 X105.066 Y105.901 F11400.000
G1 X155.142 Y97.970 E30.82749 F1800.000
G1 X162.682 Y145.577 E36.55197
G1 X112.606 Y153.508 E42.57336
G1 X105.075 Y105.961 E48.29072
G1 X105.439 Y106.045 F11400.000
G1 X113.873 Y152.165 F11400.000
G1 X113.529 Y151.821 E48.34918 F1800.000
G1 X113.337 Y150.608 E48.49647
G1 X114.754 Y152.026 E48.73698
G1 X115.635 Y151.886 E48.84399
G1 X113.145 Y149.396 E49.26656
G1 X112.953 Y148.184 E49.41384
G1 X116.516 Y151.747 E50.01847
G1 X117.397 Y151.607 E50.12548
G1 X112.761 Y146.971 E50.91216
G1 X112.569 Y145.759 E51.05945
G1 X118.277 Y151.468 E52.02818
G1 X119.158 Y151.328 E52.13519
G1 X112.377 Y144.546 E53.28599
G1 X112.185 Y143.334 E53.43327
G1 X120.039 Y151.189 E54.76612
G1 X120.920 Y151.049 E54.87313
G1 X111.992 Y142.122 E56.38804
G1 X111.800 Y140.909 E56.53533
G1 X121.801 Y150.910 E58.23229
G1 X122.682 Y150.770 E58.33930
G1 X111.608 Y139.697 E60.21831
G1 X111.416 Y138.484 E60.36560
G1 X123.563 Y150.631 E62.42667
G1 X124.443 Y150.491 E62.53368
G1 X111.224 Y137.272 E64.77681
G1 X111.032 Y136.060 E64.92410
G1 X125.324 Y150.352 E67.34929
G1 X126.205 Y150.212 E67.45629
G1 X110.840 Y134.847 E70.06354
G1 X110.648 Y133.635 E70.21082
G1 X127.086 Y150.073 E73.00012
G1 X127.967 Y149.933 E73.10713
G1 X110.456 Y132.422 E76.07848
G1 X110.264 Y131.210 E76.22577
G1 X128.848 Y149.794 E79.37918
G1 X129.729 Y149.654 E79.48619
G1 X110.072 Y129.998 E82.82165
G1 X109.880 Y128.785 E82.96894
G1 X130.609 Y149.515 E86.48646
G1 X131.490 Y149.375 E86.59347
G1 X109.688 Y127.573 E90.29305
G1 X109.496 Y126.360 E90.44033
G1 X132.371 Y149.235 E94.32197
G1 X133.252 Y149.096 E94.42898
G1 X109.304 Y125.148 E98.49267
G1 X109.112 Y123.936 E98.63995
G1 X134.133 Y148.956 E102.88570
G1 X135.014 Y148.817 E102.99271
G1 X108.920 Y122.723 E107.42051
G1 X108.728 Y121.511 E107.56780
G1 X135.895 Y148.677 E112.17765
G1 X136.775 Y148.538 E112.28466
G1 X108.536 Y120.298 E117.07658
G1 X108.344 Y119.086 E117.22386
G1 X137.656 Y148.398 E122.19783
G1 X138.537 Y148.259 E122.30484
G1 X108.152 Y117.874 E127.46087
G1 X107.960 Y116.661 E127.60815
G1 X139.418 Y148.119 E132.94623
G1 X140.299 Y147.980 E133.05324
G1 X107.768 Y115.449 E138.57338
G1 X107.576 Y114.236 E138.72067
G1 X141.180 Y147.840 E144.42286
G1 X142.061 Y147.701 E144.52987
G1 X107.384 Y113.024 E150.41412
G1 X107.192 Y111.812 E150.56141
G1 X142.941 Y147.561 E156.62771
G1 X143.822 Y147.422 E156.73472
G1 X107.000 Y110.599 E162.98308
G1 X106.808 Y109.387 E163.13037
G1 X144.703 Y147.282 E169.56078
G1 X145.584 Y147.143 E169.66779
G1 X106.616 Y108.174 E176.28027
G1 X106.424 Y106.962 E176.42755
G1 X146.465 Y147.003 E183.22208
G1 X147.346 Y146.864 E183.32909
G1 X107.189 Y106.707 E190.14325
G1 X108.070 Y106.567 E190.25026
G1 X148.227 Y146.724 E197.06441
G1 X149.107 Y146.585 E197.17142
G1 X108.951 Y106.428 E203.98557
G1 X109.832 Y106.288 E204.09258
G1 X149.988 Y146.445 E210.90673
G1 X150.869 Y146.306 E211.01374
G1 X110.712 Y106.149 E217.82790
G1 X111.593 Y106.009 E217.93491
G1 X151.750 Y146.166 E224.74906
G1 X152.631 Y146.027 E224.85607
G1 X112.474 Y105.870 E231.67022
G1 X113.355 Y105.730 E231.77723
G1 X153.512 Y145.887 E238.59138
G1 X154.393 Y145.748 E238.69839
G1 X114.236 Y105.591 E245.51254
G1 X115.117 Y105.451 E245.61955
G1 X155.274 Y145.608 E252.43371
G1 X156.154 Y145.469 E252.54072
G1 X115.998 Y105.312 E259.35487
G1 X116.878 Y105.172 E259.46188
G1 X157.035 Y145.329 E266.27603
G1 X157.916 Y145.190 E266.38304
G1 X117.759 Y105.033 E273.19719
G1 X118.640 Y104.893 E273.30420
G1 X158.797 Y145.050 E280.11836
G1 X159.678 Y144.911 E280.22536
G1 X119.521 Y104.754 E287.03952
G1 X120.402 Y104.614 E287.14653
G1 X160.559 Y144.771 E293.96068
G1 X161.324 Y144.516 E294.05747
G1 X121.283 Y104.475 E300.85201
G1 X122.164 Y104.335 E300.95902
G1 X161.132 Y143.304 E307.57150
G1 X160.940 Y142.091 E307.71879
G1 X123.044 Y104.196 E314.14921
G1 X123.925 Y104.056 E314.25622
G1 X160.748 Y140.879 E320.50459
G1 X160.556 Y139.666 E320.65188
G1 X124.806 Y103.917 E326.71819
G1 X125.687 Y103.777 E326.82520
G1 X160.364 Y138.454 E332.70946
G1 X160.172 Y137.242 E332.85675
G1 X126.568 Y103.638 E338.55895
G1 X127.449 Y103.498 E338.66596
G1 X159.980 Y136.029 E344.18610
G1 X159.788 Y134.817 E344.33339
G1 X128.330 Y103.359 E349.67148
G1 X129.210 Y103.219 E349.77849
G1 X159.596 Y133.604 E354.93452
G1 X159.404 Y132.392 E355.08181
G1 X130.091 Y103.080 E360.05579
G1 X130.972 Y102.940 E360.16280
G1 X159.212 Y131.180 E364.95472
G1 X159.020 Y129.967 E365.10201
G1 X131.853 Y102.801 E369.71187
G1 X132.734 Y102.661 E369.81888
G1 X158.828 Y128.755 E374.24669
G1 X158.636 Y127.542 E374.39398
G1 X133.615 Y102.522 E378.63973
G1 X134.496 Y102.382 E378.74674
G1 X158.444 Y126.330 E382.81044
G1 X158.252 Y125.118 E382.95772
G1 X135.376 Y102.242 E386.83936
G1 X136.257 Y102.103 E386.94637
G1 X158.059 Y123.905 E390.64596
G1 X157.867 Y122.693 E390.79325
G1 X137.138 Y101.963 E394.31077
G1 X138.019 Y101.824 E394.41778
G1 X157.675 Y121.480 E397.75326
G1 X157.483 Y120.268 E397.90054
G1 X138.900 Y101.684 E401.05396
G1 X139.781 Y101.545 E401.16097
G1 X157.291 Y119.056 E404.13233
G1 X157.099 Y117.843 E404.27962
G1 X140.662 Y101.405 E407.06892
G1 X141.542 Y101.266 E407.17593
G1 X156.907 Y116.631 E409.78318
G1 X156.715 Y115.418 E409.93047
G1 X142.423 Y101.126 E412.35566
G1 X143.304 Y100.987 E412.46267
G1 X156.523 Y114.206 E414.70581
G1 X156.331 Y112.994 E414.85309
G1 X144.185 Y100.847 E416.91417
G1 X145.066 Y100.708 E417.02118
G1 X156.139 Y111.781 E418.90021
G1 X155.947 Y110.569 E419.04749
G1 X145.947 Y100.568 E420.74446
G1 X146.828 Y100.429 E420.85147
G1 X155.755 Y109.356 E422.36638
G1 X155.563 Y108.144 E422.51367
G1 X147.708 Y100.289 E423.84653
G1 X148.589 Y100.150 E423.95354
G1 X155.371 Y106.932 E425.10434
G1 X155.179 Y105.719 E425.25162
G1 X149.470 Y100.010 E426.22037
G1 X150.351 Y99.871 E426.32738
G1 X154.987 Y104.507 E427.11406
G1 X154.795 Y103.294 E427.26135
G1 X151.232 Y99.731 E427.86598
G1 X152.113 Y99.592 E427.97299
G1 X154.603 Y102.082 E428.39557
G1 X154.411 Y100.870 E428.54285
G1 X152.994 Y99.452 E428.78337
G1 X153.874 Y99.313 E428.89038
G1 X154.219 Y99.657 E428.94885
G1 E426.94885 F2400.00000
G92 E0
G1 X155.474 Y97.512 F11400.000
G1 X154.111 Y88.907 F11400.000
G1 X153.951 Y88.939 F11400.000
G1 X151.993 Y80.455 F11400.000
G1 X105.084 Y90.141 F11400.000
G1 E2.00000 F2400.00000
G1 X102.255 Y77.892 E3.49308 F1800.000
G1 X147.828 Y67.371 E9.04793
G1 X150.656 Y79.620 E10.54100
G1 X105.142 Y90.128 E16.08872
G1 X104.548 Y90.998 F11400.000
G1 X101.399 Y77.357 E17.75144 F1800.000
G1 X148.364 Y66.514 E23.47592
G1 X151.513 Y80.155 E25.13863
G1 X104.607 Y90.984 E30.85599
G1 X104.665 Y90.615 F11400.000
G1 X105.360 Y89.235 F11400.000
G1 X105.707 Y89.582 E30.91465 F1800.000
G1 X106.534 Y89.391 E31.01637
G1 X105.055 Y87.911 E31.26699
G1 X104.749 Y86.587 E31.42977
G1 X107.362 Y89.200 E31.87234
G1 X108.189 Y89.009 E31.97406
G1 X104.443 Y85.262 E32.60859
G1 X104.137 Y83.938 E32.77137
G1 X109.017 Y88.817 E33.59785
G1 X109.844 Y88.626 E33.69957
G1 X103.832 Y82.614 E34.71800
G1 X103.526 Y81.290 E34.88079
G1 X110.672 Y88.435 E36.09117
G1 X111.499 Y88.244 E36.19289
G1 X103.220 Y79.965 E37.59523
G1 X102.914 Y78.641 E37.75802
G1 X112.327 Y88.053 E39.35231
G1 X113.154 Y87.862 E39.45403
G1 X103.348 Y78.056 E41.11509
G1 X104.175 Y77.865 E41.21681
G1 X113.982 Y87.671 E42.87786
G1 X114.809 Y87.480 E42.97958
G1 X105.003 Y77.674 E44.64064
G1 X105.830 Y77.483 E44.74236
G1 X115.637 Y87.289 E46.40342
G1 X116.464 Y87.098 E46.50514
G1 X106.658 Y77.292 E48.16620
G1 X107.485 Y77.101 E48.26792
G1 X117.292 Y86.907 E49.92898
G1 X118.119 Y86.716 E50.03070
G1 X108.313 Y76.910 E51.69175
G1 X109.140 Y76.719 E51.79347
G1 X118.947 Y86.525 E53.45453
G1 X119.774 Y86.334 E53.55625
G1 X109.968 Y76.527 E55.21731
G1 X110.795 Y76.336 E55.31903
G1 X120.602 Y86.143 E56.98009
G1 X121.429 Y85.952 E57.08181
G1 X111.623 Y76.145 E58.74286
G1 X112.450 Y75.954 E58.84458
G1 X122.257 Y85.761 E60.50564
G1 X123.084 Y85.570 E60.60736
G1 X113.278 Y75.763 E62.26842
G1 X114.105 Y75.572 E62.37014
G1 X123.912 Y85.379 E64.03120
G1 X124.739 Y85.188 E64.13292
G1 X114.933 Y75.381 E65.79398
G1 X115.760 Y75.190 E65.89570
G1 X125.567 Y84.997 E67.55675
G1 X126.394 Y84.806 E67.65847
G1 X116.588 Y74.999 E69.31953
G1 X117.415 Y74.808 E69.42125
G1 X127.222 Y84.614 E71.08231
G1 X128.049 Y84.423 E71.18403
G1 X118.243 Y74.617 E72.84509
G1 X119.070 Y74.426 E72.94681
G1 X128.877 Y84.232 E74.60787
G1 X129.704 Y84.041 E74.70959
G1 X119.898 Y74.235 E76.37064
G1 X120.725 Y74.044 E76.47236
G1 X130.532 Y83.850 E78.13342
G1 X131.359 Y83.659 E78.23514
G1 X121.553 Y73.853 E79.89620
G1 X122.380 Y73.662 E79.99792
G1 X132.187 Y83.468 E81.65898
G1 X133.014 Y83.277 E81.76070
