; generated by Slic3r 1.2.9 on 2016-06-24 at 12:43:47

; external perimeters extrusion width = 0.40mm
; perimeters extrusion width = 0.48mm
; infill extrusion width = 0.48mm
; solid infill extrusion width = 0.48mm
; top infill extrusion width = 0.48mm
; support material extrusion width = 0.40mm

M107
M190 S50 ; set bed temperature
M104 S210 ; set temperature
G28 ; home all axes
G1 Z5 F5000 ; lift nozzle

M109 S210 ; wait for temperature to be reached
G21 ; set units to millimeters
G90 ; use absolute coordinates
M82 ; use absolute distances for extrusion
G92 E0
G1 Z0.400 F11400.000
G1 E-2.00000 F2400.00000
G92 E0
G1 X74.759 Y71.764 F11400.000
G1 E2.00000 F2400.00000
G1 X77.379 Y70.515 E2.34468 F1800.000
G1 X125.124 Y59.492 E8.16425
G1 X127.430 Y59.368 E8.43847
G1 X129.641 Y60.031 E8.71270
G1 X131.497 Y61.405 E8.98692 F1800.000
G1 X132.778 Y63.326 E9.26115
G1 X133.176 Y64.524 E9.41108
G1 X136.542 Y79.112 E11.18917
G1 X140.076 Y96.462 E13.29203
G1 X147.742 Y144.859 E19.11154
G1 X147.705 Y147.168 E19.38577
G1 X146.889 Y149.327 E19.65999
G1 X145.389 Y151.083 E19.93422
G1 X143.383 Y152.227 E20.20844
G1 X142.160 Y152.541 E20.35840
G1 X91.294 Y160.597 E26.47481
G1 X88.986 Y160.561 E26.74904
G1 X86.826 Y159.744 E27.02326
G1 X85.070 Y158.245 E27.29749
G1 X83.927 Y156.239 E27.57171
G1 X83.613 Y155.016 E27.72167
G1 X75.947 Y106.619 E33.54117
G1 X72.231 Y77.919 E36.97825
G1 X72.333 Y75.612 E37.25247
G1 X73.210 Y73.476 E37.52670
G1 X74.719 Y71.808 E37.79380
G1 E35.79380 F2400.00000
G92 E0
G1 X139.835 Y144.983 F11400.000
G1 E2.00000 F2400.00000
G1 X91.170 Y152.691 E7.85176 F1800.000
G1 X83.854 Y106.495 E13.40661
G1 X132.519 Y98.787 E19.25837
G1 X139.826 Y144.924 E24.80609
G1 X140.652 Y145.577 F11400.000
G1 X90.577 Y153.508 E30.82749 F1800.000
G1 X83.037 Y105.901 E36.55197
G1 X133.112 Y97.970 E42.57337
G1 X140.643 Y145.517 E48.29072
G1 X140.279 Y145.433 F11400.000
G1 X132.190 Y99.657 F11400.000
G1 X131.845 Y99.313 E48.34918 F1800.000
G1 X130.964 Y99.452 E48.45619
G1 X132.382 Y100.870 E48.69671
G1 X132.574 Y102.082 E48.84400
G1 X130.083 Y99.592 E49.26658
G1 X129.203 Y99.731 E49.37359
G1 X132.766 Y103.294 E49.97822
G1 X132.958 Y104.507 E50.12550
G1 X128.322 Y99.871 E50.91219
G1 X127.441 Y100.010 E51.01920
G1 X133.150 Y105.719 E51.98795
G1 X133.342 Y106.932 E52.13523
G1 X126.560 Y100.150 E53.28603
G1 X125.679 Y100.289 E53.39304
G1 X133.534 Y108.144 E54.72590
G1 X133.726 Y109.356 E54.87318
G1 X124.798 Y100.429 E56.38810
G1 X123.917 Y100.568 E56.49511
G1 X133.918 Y110.569 E58.19207
G1 X134.110 Y111.781 E58.33936
G1 X123.037 Y100.708 E60.21839
G1 X122.156 Y100.847 E60.32540
G1 X134.302 Y112.994 E62.38648
G1 X134.494 Y114.206 E62.53376
G1 X121.275 Y100.987 E64.77690
G1 X120.394 Y101.126 E64.88391
G1 X134.686 Y115.418 E67.30910
G1 X134.878 Y116.631 E67.45639
G1 X119.513 Y101.266 E70.06364
G1 X118.632 Y101.405 E70.17065
G1 X135.070 Y117.843 E72.95995
G1 X135.262 Y119.056 E73.10724
G1 X117.751 Y101.545 E76.07860
G1 X116.871 Y101.684 E76.18561
G1 X135.454 Y120.268 E79.33902
G1 X135.646 Y121.480 E79.48631
G1 X115.990 Y101.824 E82.82178
G1 X115.109 Y101.963 E82.92879
G1 X135.838 Y122.693 E86.44632
G1 X136.030 Y123.905 E86.59361
G1 X114.228 Y102.103 E90.29319
G1 X113.347 Y102.242 E90.40020
G1 X136.222 Y125.118 E94.28184
G1 X136.414 Y126.330 E94.42913
G1 X112.466 Y102.382 E98.49283
G1 X111.585 Y102.522 E98.59984
G1 X136.606 Y127.542 E102.84559
G1 X136.798 Y128.755 E102.99288
G1 X110.705 Y102.661 E107.42069
G1 X109.824 Y102.801 E107.52770
G1 X136.990 Y129.967 E112.13756
G1 X137.182 Y131.180 E112.28485
G1 X108.943 Y102.940 E117.07677
G1 X108.062 Y103.080 E117.18378
G1 X137.374 Y132.392 E122.15776
G1 X137.566 Y133.604 E122.30504
G1 X107.181 Y103.219 E127.46108
G1 X106.300 Y103.359 E127.56809
G1 X137.758 Y134.817 E132.90618
G1 X137.950 Y136.029 E133.05346
G1 X105.419 Y103.498 E138.57361
G1 X104.539 Y103.638 E138.68062
G1 X138.142 Y137.242 E144.38282
G1 X138.334 Y138.454 E144.53011
G1 X103.658 Y103.777 E150.41436
G1 X102.777 Y103.917 E150.52137
G1 X138.526 Y139.666 E156.58769
G1 X138.718 Y140.879 E156.73498
G1 X101.896 Y104.056 E162.98335
G1 X101.015 Y104.196 E163.09036
G1 X138.911 Y142.091 E169.52078
G1 X139.103 Y143.304 E169.66807
G1 X100.134 Y104.335 E176.28055
G1 X99.253 Y104.475 E176.38756
G1 X139.295 Y144.516 E183.18210
G1 X138.529 Y144.771 E183.27889
G1 X98.372 Y104.614 E190.09304
G1 X97.492 Y104.754 E190.20005
G1 X137.648 Y144.911 E197.01420
G1 X136.768 Y145.050 E197.12121
G1 X96.611 Y104.893 E203.93536
G1 X95.730 Y105.033 E204.04237
G1 X135.887 Y145.190 E210.85653
G1 X135.006 Y145.329 E210.96354
G1 X94.849 Y105.172 E217.77769
G1 X93.968 Y105.312 E217.88470
G1 X134.125 Y145.469 E224.69885
G1 X133.244 Y145.608 E224.80586
G1 X93.087 Y105.451 E231.62001
G1 X92.206 Y105.591 E231.72702
G1 X132.363 Y145.748 E238.54117
G1 X131.482 Y145.887 E238.64818
G1 X91.326 Y105.730 E245.46234
G1 X90.445 Y105.870 E245.56935
G1 X130.602 Y146.027 E252.38350
G1 X129.721 Y146.166 E252.49051
G1 X89.564 Y106.009 E259.30466
G1 X88.683 Y106.149 E259.41167
G1 X128.840 Y146.306 E266.22582
G1 X127.959 Y146.445 E266.33283
G1 X87.802 Y106.288 E273.14699
G1 X86.921 Y106.428 E273.25400
G1 X127.078 Y146.585 E280.06815
G1 X126.197 Y146.724 E280.17516
G1 X86.040 Y106.567 E286.98931
G1 X85.160 Y106.707 E287.09632
G1 X125.316 Y146.864 E293.91047
G1 X124.436 Y147.003 E294.01748
G1 X84.394 Y106.962 E300.81201
G1 X84.586 Y108.175 E300.95930
G1 X123.555 Y147.143 E307.57177
G1 X122.674 Y147.282 E307.67878
G1 X84.778 Y109.387 E314.10920
G1 X84.970 Y110.599 E314.25649
G1 X121.793 Y147.422 E320.50485
G1 X120.912 Y147.561 E320.61186
G1 X85.163 Y111.812 E326.67816
G1 X85.355 Y113.024 E326.82545
G1 X120.031 Y147.701 E332.70970
G1 X119.150 Y147.840 E332.81671
G1 X85.547 Y114.236 E338.51890
G1 X85.739 Y115.449 E338.66619
G1 X118.270 Y147.980 E344.18632
G1 X117.389 Y148.119 E344.29333
G1 X85.931 Y116.661 E349.63141
G1 X86.123 Y117.874 E349.77870
G1 X116.508 Y148.259 E354.93473
G1 X115.627 Y148.398 E355.04174
G1 X86.315 Y119.086 E360.01571
G1 X86.507 Y120.298 E360.16299
G1 X114.746 Y148.538 E364.95490
G1 X113.865 Y148.677 E365.06191
G1 X86.699 Y121.511 E369.67177
G1 X86.891 Y122.723 E369.81906
G1 X112.984 Y148.817 E374.24686
G1 X112.104 Y148.956 E374.35387
G1 X87.083 Y123.936 E378.59961
G1 X87.275 Y125.148 E378.74690
G1 X111.223 Y149.096 E382.81059
G1 X110.342 Y149.235 E382.91760
G1 X87.467 Y126.360 E386.79923
G1 X87.659 Y127.573 E386.94652
G1 X109.461 Y149.375 E390.64610
G1 X108.580 Y149.515 E390.75311
G1 X87.851 Y128.785 E394.27063
G1 X88.043 Y129.998 E394.41791
G1 X107.699 Y149.654 E397.75338
G1 X106.818 Y149.794 E397.86039
G1 X88.235 Y131.210 E401.01380
G1 X88.427 Y132.422 E401.16108
G1 X105.938 Y149.933 E404.13244
G1 X105.057 Y150.073 E404.23945
G1 X88.619 Y133.635 E407.02874
G1 X88.811 Y134.847 E407.17603
G1 X104.176 Y150.212 E409.78327
G1 X103.295 Y150.352 E409.89028
G1 X89.003 Y136.060 E412.31547
G1 X89.195 Y137.272 E412.46275
G1 X102.414 Y150.491 E414.70588
G1 X101.533 Y150.631 E414.81289
G1 X89.387 Y138.484 E416.87397
G1 X89.579 Y139.697 E417.02125
G1 X100.652 Y150.770 E418.90027
G1 X99.772 Y150.910 E419.00728
G1 X89.771 Y140.909 E420.70424
G1 X89.963 Y142.122 E420.85153
G1 X98.891 Y151.049 E422.36643
G1 X98.010 Y151.189 E422.47344
G1 X90.155 Y143.334 E423.80629
G1 X90.347 Y144.546 E423.95358
G1 X97.129 Y151.328 E425.10437
G1 X96.248 Y151.468 E425.21138
G1 X90.539 Y145.759 E426.18012
G1 X90.731 Y146.971 E426.32741
G1 X95.367 Y151.607 E427.11409
G1 X94.486 Y151.747 E427.22110
G1 X90.923 Y148.184 E427.82572
G1 X91.115 Y149.396 E427.97301
G1 X93.606 Y151.886 E428.39558
G1 X92.725 Y152.026 E428.50259
G1 X91.307 Y150.608 E428.74310
G1 X91.499 Y151.821 E428.89039
G1 X91.844 Y152.165 E428.94885
G1 E426.94885 F2400.00000
G92 E0
G1 X82.579 Y105.569 F11400.000
G1 X81.809 Y100.710 F11400.000
G1 X83.766 Y98.178 F11400.000
G1 X82.219 Y91.478 F11400.000
G1 X128.627 Y79.620 F11400.000
G1 E2.00000 F2400.00000
G1 X83.054 Y90.141 E7.55485 F1800.000
G1 X80.226 Y77.892 E9.04793
G1 X125.799 Y67.371 E14.60277
G1 X128.614 Y79.562 E16.08872
G1 X129.484 Y80.155 F11400.000
G1 X82.519 Y90.998 E21.81321 F1800.000
G1 X79.370 Y77.357 E23.47592
G1 X126.334 Y66.514 E29.20040
G1 X129.470 Y80.097 E30.85599
G1 X129.101 Y80.038 F11400.000
G1 X125.522 Y68.277 F11400.000
G1 X125.176 Y67.931 E30.91465 F1800.000
G1 X124.348 Y68.122 E31.01637
G1 X125.828 Y69.601 E31.26699
G1 X126.134 Y70.925 E31.42978
G1 X123.521 Y68.313 E31.87236
G1 X122.693 Y68.504 E31.97408
G1 X126.440 Y72.250 E32.60860
G1 X126.745 Y73.574 E32.77139
G1 X121.866 Y68.695 E33.59787
G1 X121.038 Y68.886 E33.69959
G1 X127.051 Y74.898 E34.71803
G1 X127.357 Y76.223 E34.88081
G1 X120.211 Y69.077 E36.09120
G1 X119.383 Y69.268 E36.19292
G1 X127.662 Y77.547 E37.59527
G1 X127.968 Y78.871 E37.75805
G1 X118.556 Y69.459 E39.35235
G1 X117.728 Y69.650 E39.45407
G1 X127.535 Y79.456 E41.11513
G1 X126.707 Y79.647 E41.21685
G1 X116.901 Y69.841 E42.87790
G1 X116.073 Y70.032 E42.97962
G1 X125.880 Y79.838 E44.64068
G1 X125.052 Y80.029 E44.74240
G1 X115.246 Y70.223 E46.40346
G1 X114.418 Y70.414 E46.50518
G1 X124.225 Y80.220 E48.16624
G1 X123.397 Y80.412 E48.26796
G1 X113.591 Y70.605 E49.92902
G1 X112.763 Y70.796 E50.03074
G1 X122.570 Y80.603 E51.69179
G1 X121.742 Y80.794 E51.79351
G1 X111.936 Y70.987 E53.45457
G1 X111.108 Y71.178 E53.55629
G1 X120.915 Y80.985 E55.21735
G1 X120.087 Y81.176 E55.31907
G1 X110.281 Y71.369 E56.98013
G1 X109.453 Y71.560 E57.08185
G1 X119.260 Y81.367 E58.74291
G1 X118.432 Y81.558 E58.84463
G1 X108.626 Y71.751 E60.50568
G1 X107.798 Y71.942 E60.60740
G1 X117.605 Y81.749 E62.26846
G1 X116.777 Y81.940 E62.37018
G1 X106.971 Y72.133 E64.03124
G1 X106.143 Y72.325 E64.13296
G1 X115.950 Y82.131 E65.79402
G1 X115.122 Y82.322 E65.89574
G1 X105.316 Y72.516 E67.55680
G1 X104.488 Y72.707 E67.65852
G1 X114.295 Y82.513 E69.31957
G1 X113.467 Y82.704 E69.42129
G1 X103.661 Y72.898 E71.08235
G1 X102.833 Y73.089 E71.18407
G1 X112.640 Y82.895 E72.84513
G1 X111.812 Y83.086 E72.94685
G1 X102.006 Y73.280 E74.60791
G1 X101.178 Y73.471 E74.70963
G1 X110.985 Y83.277 E76.37069
G1 X110.157 Y83.468 E76.47241
G1 X100.351 Y73.662 E78.13346
G1 X99.523 Y73.853 E78.23518
G1 X109.330 Y83.659 E79.89624
G1 X108.502 Y83.850 E79.99796
G1 X98.696 Y74.044 E81.65902
G1 X97.868 Y74.235 E81.76074
G1 X107.675 Y84.041 E83.42180
G1 X106.847 Y84.232 E83.52352
G1 X97.041 Y74.426 E85.18458
G1 X96.213 Y74.617 E85.28630
G1 X106.020 Y84.423 E86.94735
G1 X105.192 Y84.615 E87.04907
G1 X95.386 Y74.808 E88.71013
G1 X94.558 Y74.999 E88.81185
G1 X104.365 Y84.806 E90.47291
G1 X103.537 Y84.997 E90.57463
G1 X93.731 Y75.190 E92.23569
G1 X92.903 Y75.381 E92.33741
G1 X102.710 Y85.188 E93.99847
G1 X101.882 Y85.379 E94.10019
G1 X92.076 Y75.572 E95.76124
G1 X91.248 Y75.763 E95.86296
G1 X101.055 Y85.570 E97.52402
G1 X100.227 Y85.761 E97.62574
G1 X90.421 Y75.954 E99.28680
G1 X89.593 Y76.145 E99.38852
G1 X99.400 Y85.952 E101.04958
G1 X98.572 Y86.143 E101.15130
G1 X88.766 Y76.336 E102.81236
G1 X87.938 Y76.527 E102.91408
G1 X97.745 Y86.334 E104.57513
G1 X96.917 Y86.525 E104.67685
G1 X87.111 Y76.719 E106.33791
G1 X86.283 Y76.910 E106.43963
G1 X96.090 Y86.716 E108.10069
G1 X95.262 Y86.907 E108.20241
G1 X85.456 Y77.101 E109.86347
G1 X84.628 Y77.292 E109.96519
G1 X94.435 Y87.098 E111.62625
G1 X93.607 Y87.289 E111.72797
G1 X83.801 Y77.483 E113.38902
G1 X82.973 Y77.674 E113.49074
G1 X92.780 Y87.480 E115.15180
G1 X91.952 Y87.671 E115.25352
G1 X82.146 Y77.865 E116.91458
G1 X81.318 Y78.056 E117.01630
G1 X91.125 Y87.862 E118.67736
G1 X90.297 Y88.053 E118.77908
G1 X80.885 Y78.641 E120.37337
G1 X81.191 Y79.965 E120.53616
G1 X89.470 Y88.244 E121.93849
G1 X88.642 Y88.435 E122.04021
G1 X81.496 Y81.290 E123.25060
G1 X81.802 Y82.614 E123.41338
G1 X87.815 Y88.626 E124.43181
G1 X86.987 Y88.817 E124.53353
G1 X82.108 Y83.938 E125.36001
G1 X82.414 Y85.262 E125.52280
G1 X86.160 Y89.009 E126.15732
G1 X85.332 Y89.200 E126.25904
G1 X82.719 Y86.587 E126.70161
G1 X83.025 Y87.911 E126.86440
G1 X84.505 Y89.391 E127.11502
G1 X83.677 Y89.582 E127.21674
G1 X83.331 Y89.235 E127.27540
G1 Z0.400 F11400.000
M140 S30 ; wait for bed temperature to be reached
G1 Z0.700 F11400.000
G1 E125.27540 F2400.00000
G92 E0
G1 X132.965 Y98.173 F11400.000
G1 E2.00000 F2400.00000
G1 X140.450 Y145.429 E4.49968 F3600.000
G1 X90.724 Y153.305 E7.12998
G1 X83.239 Y106.049 E9.62966
G1 X132.906 Y98.182 E12.25683
G1 X133.279 Y97.741 F11400.000
G1 X140.881 Y145.743 E14.29124 F1800.000
G1 X90.410 Y153.737 E16.43030
G1 X82.808 Y105.735 E18.46471
G1 X133.219 Y97.751 E20.60126
G1 X133.135 Y98.115 F11400.000
G1 X139.929 Y145.246 F11400.000
G1 X140.149 Y145.027 E20.61753 F1200.000
G1 X140.067 Y144.513 E20.64481
G1 X139.223 Y145.358 E20.70749
G1 X138.516 Y145.470 E20.74504
G1 X139.986 Y144.000 E20.85414
G1 X139.905 Y143.486 E20.88142
G1 X137.809 Y145.582 E21.03693
G1 X137.102 Y145.694 E21.07448
G1 X139.823 Y142.973 E21.27640
G1 X139.742 Y142.459 E21.30368
G1 X136.395 Y145.806 E21.55201
G1 X135.688 Y145.918 E21.58956
G1 X139.661 Y141.946 E21.88431
G1 X139.579 Y141.432 E21.91159
G1 X134.981 Y146.030 E22.25275
G1 X134.275 Y146.142 E22.29030
G1 X139.498 Y140.919 E22.67787
G1 X139.417 Y140.405 E22.70516
G1 X133.568 Y146.254 E23.13914
G1 X132.861 Y146.366 E23.17669
G1 X139.335 Y139.891 E23.65709
G1 X139.254 Y139.378 E23.68437
G1 X132.154 Y146.478 E24.21119
G1 X131.447 Y146.590 E24.24874
G1 X139.173 Y138.864 E24.82196
G1 X139.091 Y138.351 E24.84924
G1 X130.740 Y146.702 E25.46888
G1 X130.033 Y146.814 E25.50643
G1 X139.010 Y137.837 E26.17249
G1 X138.929 Y137.324 E26.19977
G1 X129.327 Y146.926 E26.91223
G1 X128.620 Y147.038 E26.94978
G1 X138.847 Y136.810 E27.70866
G1 X138.766 Y136.296 E27.73594
G1 X127.913 Y147.150 E28.54124
G1 X127.206 Y147.261 E28.57879
G1 X138.685 Y135.783 E29.43049
G1 X138.603 Y135.269 E29.45777
G1 X126.499 Y147.373 E30.35589
G1 X125.792 Y147.485 E30.39344
G1 X138.522 Y134.756 E31.33797
G1 X138.441 Y134.242 E31.36525
G1 X125.085 Y147.597 E32.35620
G1 X124.379 Y147.709 E32.39375
G1 X138.359 Y133.729 E33.43111
G1 X138.278 Y133.215 E33.45839
G1 X123.672 Y147.821 E34.54216
G1 X122.965 Y147.933 E34.57971
G1 X138.196 Y132.702 E35.70989
G1 X138.115 Y132.188 E35.73718
G1 X122.258 Y148.045 E36.91377
G1 X121.551 Y148.157 E36.95132
G1 X138.034 Y131.674 E38.17433
G1 X137.952 Y131.161 E38.20161
G1 X120.844 Y148.269 E39.47104
G1 X120.137 Y148.381 E39.50859
G1 X137.871 Y130.647 E40.82443
G1 X137.790 Y130.134 E40.85171
G1 X119.431 Y148.493 E42.21396
G1 X118.724 Y148.605 E42.25151
G1 X137.708 Y129.620 E43.66017
G1 X137.627 Y129.107 E43.68745
G1 X118.017 Y148.717 E45.14253
G1 X117.310 Y148.829 E45.18008
G1 X137.546 Y128.593 E46.68157
G1 X137.464 Y128.079 E46.70885
G1 X116.603 Y148.941 E48.25675
G1 X115.896 Y149.053 E48.29430
G1 X137.383 Y127.566 E49.88862
G1 X137.302 Y127.052 E49.91590
G1 X115.189 Y149.165 E51.55663
G1 X114.483 Y149.277 E51.59418
G1 X137.220 Y126.539 E53.28132
G1 X137.139 Y126.025 E53.30860
G1 X113.776 Y149.389 E55.04216
G1 X113.069 Y149.501 E55.07971
G1 X137.058 Y125.512 E56.85968
G1 X136.976 Y124.998 E56.88696
G1 X112.362 Y149.613 E58.71334
G1 X111.655 Y149.725 E58.75089
G1 X136.895 Y124.485 E60.62369
G1 X136.814 Y123.971 E60.65097
G1 X110.948 Y149.836 E62.57018
G1 X110.241 Y149.948 E62.60773
G1 X136.732 Y123.457 E64.57335
G1 X136.651 Y122.944 E64.60063
G1 X109.534 Y150.060 E66.61266
G1 X108.828 Y150.172 E66.65021
G1 X136.570 Y122.430 E68.70866
G1 X136.488 Y121.917 E68.73594
G1 X108.121 Y150.284 E70.84081
G1 X107.414 Y150.396 E70.87835
G1 X136.407 Y121.403 E73.02963
G1 X136.326 Y120.890 E73.05691
G1 X106.707 Y150.508 E75.25460
G1 X106.000 Y150.620 E75.29215
G1 X136.244 Y120.376 E77.53625
G1 X136.163 Y119.862 E77.56353
G1 X105.293 Y150.732 E79.85404
G1 X104.586 Y150.844 E79.89159
G1 X136.082 Y119.349 E82.22852
G1 X136.000 Y118.835 E82.25580
G1 X103.880 Y150.956 E84.63914
G1 X103.173 Y151.068 E84.67669
G1 X135.919 Y118.322 E87.10645
G1 X135.838 Y117.808 E87.13373
G1 X102.466 Y151.180 E89.60989
G1 X101.759 Y151.292 E89.64744
G1 X135.756 Y117.295 E92.17002
G1 X135.675 Y116.781 E92.19730
G1 X101.052 Y151.404 E94.76630
G1 X100.345 Y151.516 E94.80385
