; generated by Slic3r 1.2.9 on 2016-09-07 at 22:14:36

; external perimeters extrusion width = 0.40mm
; perimeters extrusion width = 0.68mm
; infill extrusion width = 1.28mm
; solid infill extrusion width = 0.68mm
; top infill extrusion width = 0.68mm
; support material extrusion width = 0.40mm

M107
M190 S30 ; set bed temperature
M104 S190 ; set temperature
G28 ; home all axes
G1 Z5 F5000 ; lift nozzle

M109 S190 ; wait for temperature to be reached
G21 ; set units to millimeters
G90 ; use absolute coordinates
M82 ; use absolute distances for extrusion
G92 E0
G1 Z0.400 F11400.000
G1 E-2.00000 F2400.00000
G92 E0
G1 X69.827 Y79.618 F11400.000
G1 E2.00000 F2400.00000
G1 X71.583 Y78.119 E2.27422 F1800.000
G1 X73.743 Y77.303 E2.54845
G1 X75.000 Y77.184 E2.69842
G1 X144.850 Y77.184 E10.99416
G1 X147.125 Y77.581 E11.26839
G1 X149.130 Y78.725 E11.54261 F1800.000
G1 X150.630 Y80.481 E11.81684
G1 X151.445 Y82.641 E12.09106
G1 X151.564 Y83.867 E12.23739
G1 X151.714 Y116.621 E16.12744
G1 X151.714 Y136.102 E18.44107
G1 X151.317 Y138.376 E18.71530
G1 X150.173 Y140.382 E18.98952
G1 X148.417 Y141.881 E19.26375
G1 X146.257 Y142.697 E19.53797
G1 X145.000 Y142.816 E19.68794
G1 X75.000 Y142.816 E28.00150
G1 X72.725 Y142.419 E28.27573
G1 X70.720 Y141.275 E28.54995
G1 X69.220 Y139.519 E28.82418
G1 X68.405 Y137.359 E29.09840
G1 X68.286 Y136.102 E29.24837
G1 X68.286 Y83.898 E35.44836
G1 X68.683 Y81.624 E35.72258
G1 X69.797 Y79.670 E35.98968
G1 E33.98968 F2400.00000
G92 E0
G1 X134.623 Y117.803 F11400.000
G1 E2.00000 F2400.00000
G1 X85.107 Y117.803 E7.88069 F1800.000
G1 X85.107 Y102.891 E9.65177
G1 X134.623 Y102.891 E15.53246
G1 X134.623 Y117.743 E17.29641
G1 X133.908 Y117.089 F11400.000
G1 X85.821 Y117.089 E23.00747 F1800.000
G1 X85.821 Y103.605 E24.60891
G1 X133.908 Y103.605 E30.31997
G1 X133.908 Y117.029 E31.91429
G1 X133.908 Y117.489 F11400.000
G1 X143.886 Y134.988 F11400.000
G1 X76.114 Y134.988 E39.96320 F1800.000
G1 X76.114 Y85.012 E45.89855
G1 X143.736 Y85.012 E53.92965
G1 X143.736 Y117.766 E57.81965
G1 X143.886 Y117.766 E57.83746
G1 X143.886 Y134.928 E59.87568
G1 X144.600 Y135.702 F11400.000
G1 X75.400 Y135.702 E68.09424 F1800.000
G1 X75.400 Y84.298 E74.19922
G1 X144.450 Y84.298 E82.39995
G1 X144.450 Y117.052 E86.28996
G1 X144.600 Y117.052 E86.30777
G1 X144.600 Y135.642 E88.51562
G1 X144.254 Y135.502 F11400.000
G1 X135.058 Y117.959 F11400.000
G1 X143.450 Y126.351 E89.92556 F1800.000
G1 X143.450 Y125.341 E90.04558
G1 X135.058 Y116.949 E91.45552
G1 X135.058 Y115.938 E91.57554
G1 X143.450 Y124.330 E92.98548
G1 X143.450 Y123.320 E93.10550
G1 X135.058 Y114.928 E94.51544
G1 X135.058 Y113.918 E94.63546
G1 X143.450 Y122.310 E96.04540
G1 X143.450 Y121.300 E96.16542
G1 X135.058 Y112.908 E97.57536
G1 X135.058 Y111.897 E97.69538
G1 X143.450 Y120.289 E99.10532
G1 X143.450 Y119.279 E99.22534
G1 X135.058 Y110.887 E100.63528
G1 X135.058 Y109.877 E100.75529
G1 X143.300 Y118.119 E102.14004
G1 X143.300 Y117.109 E102.26005
G1 X135.058 Y108.866 E103.64479
G1 X135.058 Y107.856 E103.76481
G1 X143.300 Y116.098 E105.14955
G1 X143.300 Y115.088 E105.26957
G1 X135.058 Y106.846 E106.65431
G1 X135.058 Y105.836 E106.77433
G1 X143.300 Y114.078 E108.15907
G1 X143.300 Y113.068 E108.27909
G1 X135.058 Y104.825 E109.66383
G1 X135.058 Y103.815 E109.78384
G1 X143.300 Y112.057 E111.16859
G1 X143.300 Y111.047 E111.28860
G1 X117.701 Y85.448 E115.58946
G1 X118.711 Y85.448 E115.70947
G1 X143.300 Y110.037 E119.84060
G1 X143.300 Y109.027 E119.96062
G1 X119.721 Y85.448 E123.92201
G1 X120.732 Y85.448 E124.04203
G1 X143.300 Y108.016 E127.83370
G1 X143.300 Y107.006 E127.95372
G1 X121.742 Y85.448 E131.57565
G1 X122.752 Y85.448 E131.69567
G1 X143.300 Y105.996 E135.14788
G1 X143.300 Y104.986 E135.26790
G1 X123.762 Y85.448 E138.55038
G1 X124.773 Y85.448 E138.67039
G1 X143.300 Y103.975 E141.78315
G1 X143.300 Y102.965 E141.90316
G1 X125.783 Y85.448 E144.84618
G1 X126.793 Y85.448 E144.96620
G1 X143.300 Y101.955 E147.73949
G1 X143.300 Y100.945 E147.85951
G1 X127.804 Y85.448 E150.46307
G1 X128.814 Y85.448 E150.58309
G1 X143.300 Y99.934 E153.01692
G1 X143.300 Y98.924 E153.13694
G1 X129.824 Y85.448 E155.40105
G1 X130.834 Y85.448 E155.52106
G1 X143.300 Y97.914 E157.61544
G1 X143.300 Y96.904 E157.73545
G1 X131.845 Y85.448 E159.66010
G1 X132.855 Y85.448 E159.78012
G1 X143.300 Y95.893 E161.53503
G1 X143.300 Y94.883 E161.65505
G1 X133.865 Y85.448 E163.24024
G1 X134.875 Y85.448 E163.36026
G1 X143.300 Y93.873 E164.77571
G1 X143.300 Y92.863 E164.89573
G1 X135.886 Y85.448 E166.14146
G1 X136.896 Y85.448 E166.26148
G1 X143.300 Y91.852 E167.33748
G1 X143.300 Y90.842 E167.45749
G1 X137.906 Y85.448 E168.36376
G1 X138.916 Y85.448 E168.48378
G1 X143.300 Y89.832 E169.22032
G1 X143.300 Y88.822 E169.34034
G1 X139.927 Y85.448 E169.90715
G1 X140.937 Y85.448 E170.02717
G1 X143.300 Y87.811 E170.42425
G1 X143.300 Y86.801 E170.54427
G1 X141.947 Y85.448 E170.77162
G1 X142.957 Y85.448 E170.89164
G1 X143.300 Y85.791 E170.94926
G1 X133.698 Y102.455 F11400.000
G1 X116.691 Y85.448 E173.80664 F1800.000
G1 X115.680 Y85.448 E173.92666
G1 X132.688 Y102.455 E176.78403
G1 X131.678 Y102.455 E176.90405
G1 X114.670 Y85.448 E179.76143
G1 X113.660 Y85.448 E179.88144
G1 X130.667 Y102.455 E182.73882
G1 X129.657 Y102.455 E182.85884
G1 X112.650 Y85.448 E185.71621
G1 X111.639 Y85.448 E185.83623
G1 X128.647 Y102.455 E188.69360
G1 X127.637 Y102.455 E188.81362
G1 X110.629 Y85.448 E191.67100
G1 X109.619 Y85.448 E191.79101
G1 X126.626 Y102.455 E194.64839
G1 X125.616 Y102.455 E194.76841
G1 X108.609 Y85.448 E197.62578
G1 X107.598 Y85.448 E197.74580
G1 X124.606 Y102.455 E200.60317
G1 X123.596 Y102.455 E200.72319
G1 X106.588 Y85.448 E203.58057
G1 X105.578 Y85.448 E203.70058
G1 X122.585 Y102.455 E206.55796
G1 X121.575 Y102.455 E206.67798
G1 X104.568 Y85.448 E209.53535
G1 X103.557 Y85.448 E209.65537
G1 X120.565 Y102.455 E212.51274
G1 X119.555 Y102.455 E212.63276
G1 X102.547 Y85.448 E215.49014
G1 X101.537 Y85.448 E215.61015
G1 X118.544 Y102.455 E218.46753
G1 X117.534 Y102.455 E218.58755
G1 X100.527 Y85.448 E221.44492
G1 X99.516 Y85.448 E221.56494
G1 X116.524 Y102.455 E224.42231
G1 X115.514 Y102.455 E224.54233
G1 X98.506 Y85.448 E227.39971
G1 X97.496 Y85.448 E227.51972
G1 X114.503 Y102.455 E230.37710
G1 X113.493 Y102.455 E230.49711
G1 X96.486 Y85.448 E233.35449
G1 X95.475 Y85.448 E233.47451
G1 X112.483 Y102.455 E236.33188
G1 X111.473 Y102.455 E236.45190
G1 X94.465 Y85.448 E239.30928
G1 X93.455 Y85.448 E239.42929
G1 X110.462 Y102.455 E242.28667
G1 X109.452 Y102.455 E242.40668
G1 X92.445 Y85.448 E245.26406
G1 X91.434 Y85.448 E245.38408
G1 X108.442 Y102.455 E248.24145
G1 X107.432 Y102.455 E248.36147
G1 X90.424 Y85.448 E251.21885
G1 X89.414 Y85.448 E251.33886
G1 X106.421 Y102.455 E254.19624
G1 X105.411 Y102.455 E254.31625
G1 X88.404 Y85.448 E257.17363
G1 X87.393 Y85.448 E257.29365
G1 X104.401 Y102.455 E260.15102
G1 X103.391 Y102.455 E260.27104
G1 X86.383 Y85.448 E263.12842
G1 X85.373 Y85.448 E263.24843
G1 X102.380 Y102.455 E266.10581
G1 X101.370 Y102.455 E266.22583
G1 X84.363 Y85.448 E269.08320
G1 X83.352 Y85.448 E269.20322
G1 X100.360 Y102.455 E272.06059
G1 X99.350 Y102.455 E272.18061
G1 X82.342 Y85.448 E275.03799
G1 X81.332 Y85.448 E275.15800
G1 X98.339 Y102.455 E278.01538
G1 X97.329 Y102.455 E278.13540
G1 X80.321 Y85.448 E280.99277
G1 X79.311 Y85.448 E281.11279
G1 X96.319 Y102.455 E283.97016
G1 X95.309 Y102.455 E284.09018
G1 X78.301 Y85.448 E286.94756
G1 X77.291 Y85.448 E287.06757
G1 X94.298 Y102.455 E289.92495
G1 X93.288 Y102.455 E290.04497
G1 X76.550 Y85.717 E292.85711
G1 X76.550 Y86.727 E292.97713
G1 X92.278 Y102.455 E295.61955
G1 X91.268 Y102.455 E295.73957
G1 X76.550 Y87.737 E298.21226
G1 X76.550 Y88.748 E298.33227
G1 X90.257 Y102.455 E300.63524
G1 X89.247 Y102.455 E300.75525
G1 X76.550 Y89.758 E302.88848
G1 X76.550 Y90.768 E303.00850
G1 X88.237 Y102.455 E304.97200
G1 X87.226 Y102.455 E305.09202
G1 X76.550 Y91.779 E306.88579
G1 X76.550 Y92.789 E307.00581
G1 X86.216 Y102.455 E308.62985
G1 X85.206 Y102.455 E308.74987
G1 X76.550 Y93.799 E310.20418
G1 X76.550 Y94.809 E310.32420
G1 X84.672 Y102.931 E311.68877
G1 X84.672 Y103.942 E311.80879
G1 X76.550 Y95.820 E313.17335
G1 X76.550 Y96.830 E313.29337
G1 X84.672 Y104.952 E314.65794
G1 X84.672 Y105.962 E314.77796
G1 X76.550 Y97.840 E316.14252
G1 X76.550 Y98.850 E316.26254
G1 X84.672 Y106.972 E317.62711
G1 X84.672 Y107.983 E317.74713
G1 X76.550 Y99.861 E319.11170
G1 X76.550 Y100.871 E319.23171
G1 X84.672 Y108.993 E320.59628
G1 X84.672 Y110.003 E320.71630
G1 X76.550 Y101.881 E322.08087
G1 X76.550 Y102.891 E322.20088
G1 X84.672 Y111.013 E323.56545
G1 X84.672 Y112.024 E323.68547
G1 X76.550 Y103.902 E325.05004
G1 X76.550 Y104.912 E325.17005
G1 X84.672 Y113.034 E326.53462
G1 X84.672 Y114.044 E326.65464
G1 X76.550 Y105.922 E328.01921
G1 X76.550 Y106.932 E328.13922
G1 X84.672 Y115.054 E329.50379
G1 X84.672 Y116.065 E329.62381
G1 X76.550 Y107.943 E330.98838
G1 X76.550 Y108.953 E331.10839
G1 X84.672 Y117.075 E332.47296
G1 X76.550 Y134.209 F11400.000
G1 X76.893 Y134.552 E332.53058 F1800.000
G1 X77.903 Y134.552 E332.65060
G1 X76.550 Y133.199 E332.87794
G1 X76.550 Y132.189 E332.99796
G1 X78.913 Y134.552 E333.39504
G1 X79.923 Y134.552 E333.51505
G1 X76.550 Y131.178 E334.08186
G1 X76.550 Y130.168 E334.20187
G1 X80.934 Y134.552 E334.93841
G1 X81.944 Y134.552 E335.05843
G1 X76.550 Y129.158 E335.96469
G1 X76.550 Y128.148 E336.08471
G1 X82.954 Y134.552 E337.16070
G1 X83.964 Y134.552 E337.28072
G1 X76.550 Y127.137 E338.52644
G1 X76.550 Y126.127 E338.64646
G1 X84.975 Y134.552 E340.06191
G1 X85.985 Y134.552 E340.18192
G1 X76.550 Y125.117 E341.76710
G1 X76.550 Y124.107 E341.88712
G1 X86.995 Y134.552 E343.64203
G1 X88.005 Y134.552 E343.76205
G1 X76.550 Y123.096 E345.68669
G1 X76.550 Y122.086 E345.80670
G1 X89.016 Y134.552 E347.90107
G1 X90.026 Y134.552 E348.02109
G1 X76.550 Y121.076 E350.28519
G1 X76.550 Y120.066 E350.40520
G1 X91.036 Y134.552 E352.83903
G1 X92.046 Y134.552 E352.95905
G1 X76.550 Y119.055 E355.56260
G1 X76.550 Y118.045 E355.68262
G1 X93.057 Y134.552 E358.45591
G1 X94.067 Y134.552 E358.57592
G1 X76.550 Y117.035 E361.51894
G1 X76.550 Y116.025 E361.63895
G1 X95.077 Y134.552 E364.75170
G1 X96.087 Y134.552 E364.87171
G1 X76.550 Y115.014 E368.15419
G1 X76.550 Y114.004 E368.27420
G1 X97.098 Y134.552 E371.72641
G1 X98.108 Y134.552 E371.84642
G1 X76.550 Y112.994 E375.46836
G1 X76.550 Y111.984 E375.58837
G1 X99.118 Y134.552 E379.38003
G1 X100.128 Y134.552 E379.50005
G1 X76.550 Y110.973 E383.46144
G1 X76.550 Y109.963 E383.58146
G1 X101.139 Y134.552 E387.71258
G1 X102.149 Y134.552 E387.83259
G1 X85.836 Y118.239 E390.57334
G1 X86.846 Y118.239 E390.69336
G1 X103.159 Y134.552 E393.43411
G1 X104.170 Y134.552 E393.55413
G1 X87.856 Y118.239 E396.29488
G1 X88.866 Y118.239 E396.41490
G1 X105.180 Y134.552 E399.15565
G1 X106.190 Y134.552 E399.27567
G1 X89.877 Y118.239 E402.01642
G1 X90.887 Y118.239 E402.13644
G1 X107.200 Y134.552 E404.87719
G1 X108.211 Y134.552 E404.99721
G1 X91.897 Y118.239 E407.73796
G1 X92.907 Y118.239 E407.85798
G1 X109.221 Y134.552 E410.59873
G1 X110.231 Y134.552 E410.71875
G1 X93.918 Y118.239 E413.45950
G1 X94.928 Y118.239 E413.57952
G1 X111.241 Y134.552 E416.32027
G1 X112.252 Y134.552 E416.44028
G1 X95.938 Y118.239 E419.18104
G1 X96.948 Y118.239 E419.30105
G1 X113.262 Y134.552 E422.04181
G1 X114.272 Y134.552 E422.16182
G1 X97.959 Y118.239 E424.90258
G1 X98.969 Y118.239 E425.02259
G1 X115.282 Y134.552 E427.76335
G1 X116.293 Y134.552 E427.88336
G1 X99.979 Y118.239 E430.62411
G1 X100.989 Y118.239 E430.74413
G1 X117.303 Y134.552 E433.48488
G1 X118.313 Y134.552 E433.60490
G1 X102.000 Y118.239 E436.34565
G1 X103.010 Y118.239 E436.46567
G1 X119.323 Y134.552 E439.20642
G1 X120.334 Y134.552 E439.32644
G1 X104.020 Y118.239 E442.06719
G1 X105.030 Y118.239 E442.18721
G1 X121.344 Y134.552 E444.92796
G1 X122.354 Y134.552 E445.04798
G1 X106.041 Y118.239 E447.78873
G1 X107.051 Y118.239 E447.90875
G1 X123.364 Y134.552 E450.64950
G1 X124.375 Y134.552 E450.76952
G1 X108.061 Y118.239 E453.51027
G1 X109.071 Y118.239 E453.63029
G1 X125.385 Y134.552 E456.37104
G1 X126.395 Y134.552 E456.49105
G1 X110.082 Y118.239 E459.23181
G1 X111.092 Y118.239 E459.35182
G1 X127.405 Y134.552 E462.09258
G1 X128.416 Y134.552 E462.21259
G1 X112.102 Y118.239 E464.95335
G1 X113.113 Y118.239 E465.07336
G1 X129.426 Y134.552 E467.81411
G1 X130.436 Y134.552 E467.93413
G1 X114.123 Y118.239 E470.67488
G1 X115.133 Y118.239 E470.79490
G1 X131.446 Y134.552 E473.53565
G1 X132.457 Y134.552 E473.65567
G1 X116.143 Y118.239 E476.39642
G1 X117.154 Y118.239 E476.51644
G1 X133.467 Y134.552 E479.25719
G1 X134.477 Y134.552 E479.37721
G1 X118.164 Y118.239 E482.11796
G1 X119.174 Y118.239 E482.23798
G1 X135.487 Y134.552 E484.97873
G1 X136.498 Y134.552 E485.09875
G1 X120.184 Y118.239 E487.83950
G1 X121.195 Y118.239 E487.95951
G1 X137.508 Y134.552 E490.70027
G1 X138.518 Y134.552 E490.82028
G1 X122.205 Y118.239 E493.56104
G1 X123.215 Y118.239 E493.68105
G1 X139.528 Y134.552 E496.42181
G1 X140.539 Y134.552 E496.54182
G1 X124.225 Y118.239 E499.28257
G1 X125.236 Y118.239 E499.40259
G1 X141.549 Y134.552 E502.14334
G1 X142.559 Y134.552 E502.26336
G1 X126.246 Y118.239 E505.00411
G1 X127.256 Y118.239 E505.12413
G1 X143.450 Y134.433 E507.84486
G1 X143.450 Y133.423 E507.96488
G1 X128.266 Y118.239 E510.51588
G1 X129.277 Y118.239 E510.63590
G1 X143.450 Y132.413 E513.01717
G1 X143.450 Y131.402 E513.13719
G1 X130.287 Y118.239 E515.34874
G1 X131.297 Y118.239 E515.46875
G1 X143.450 Y130.392 E517.51057
G1 X143.450 Y129.382 E517.63058
G1 X132.307 Y118.239 E519.50267
G1 X133.318 Y118.239 E519.62269
G1 X143.450 Y128.372 E521.32505
G1 X143.450 Y127.361 E521.44506
G1 X134.328 Y118.239 E522.97769
G1 Z0.400 F11400.000
G1 E520.97769 F2400.00000
G92 E0
G1 X132.419 Y116.301 F11400.000
G1 E2.00000 F2400.00000
G1 X133.024 Y115.092 E2.16053 F1800.000
G1 X131.655 Y114.636 E2.33191
G1 X133.024 Y111.905 E2.69478
G1 X131.655 Y111.448 E2.86616
G1 X133.024 Y108.717 E3.22902
G1 X131.655 Y108.261 E3.40040
G1 X133.024 Y105.529 E3.76326
G1 X131.655 Y105.073 E3.93464
G1 X131.996 Y104.393 E4.02490
G1 E2.02490 F2400.00000
G92 E0
G1 X128.801 Y104.393 F11400.000
G1 E2.00000 F2400.00000
G1 X127.870 Y106.250 E2.24659 F1800.000
G1 X128.006 Y109.167 E2.59339
G1 X130.398 Y104.393 E3.22748
G1 X131.287 Y105.807 E3.42582
G1 X129.604 Y109.167 E3.87211
G1 E1.87211 F2400.00000
G92 E0
G1 X123.024 Y109.543 F11400.000
G1 E2.00000 F2400.00000
G1 X121.855 Y111.875 E2.30976 F1800.000
G1 X121.855 Y115.063 E2.68834
G1 X124.622 Y109.543 E3.42158
G1 X126.219 Y109.543 E3.61132
G1 X122.833 Y116.301 E4.50900
G1 X124.430 Y116.301 E4.69875
G1 X127.817 Y109.543 E5.59642
G1 X129.415 Y109.543 E5.78617
G1 X126.028 Y116.301 E6.68385
G1 X127.626 Y116.301 E6.87359
G1 X131.012 Y109.543 E7.77127
G1 X131.287 Y112.183 E8.08639
G1 X129.223 Y116.301 E8.63348
G1 X131.287 Y115.370 E8.90236
G1 X130.821 Y116.301 E9.02597
G1 E7.02597 F2400.00000
G92 E0
G1 X119.637 Y116.301 F11400.000
G1 E2.00000 F2400.00000
G1 X121.287 Y113.008 E2.43736 F1800.000
G1 X121.287 Y109.821 E2.81595
G1 X118.040 Y116.301 E3.67679
G1 X116.442 Y116.301 E3.86654
G1 X119.829 Y109.543 E4.76422
G1 X118.231 Y109.543 E4.95396
G1 X114.844 Y116.301 E5.85164
G1 X113.247 Y116.301 E6.04139
G1 X116.633 Y109.543 E6.93906
G1 X115.036 Y109.543 E7.12881
G1 X111.855 Y115.889 E7.97176
G1 X111.855 Y112.701 E8.35035
G1 X113.438 Y109.543 E8.76982
G1 E6.76982 F2400.00000
G92 E0
G1 X110.051 Y116.301 F11400.000
G1 E2.00000 F2400.00000
G1 X111.287 Y113.834 E2.32765 F1800.000
G1 X111.287 Y110.647 E2.70623
G1 X108.454 Y116.301 E3.45736
G1 X106.856 Y116.301 E3.64711
G1 X110.243 Y109.543 E4.54478
G1 X108.645 Y109.543 E4.73453
G1 X105.258 Y116.301 E5.63220
G1 X103.661 Y116.301 E5.82195
G1 X107.047 Y109.543 E6.71963
G1 X105.450 Y109.543 E6.90938
G1 X102.063 Y116.301 E7.80705
G1 X101.855 Y113.527 E8.13740
G1 X103.852 Y109.543 E8.66659
G1 X102.254 Y109.543 E8.85634
G1 X101.855 Y110.339 E8.96205
G1 E6.96205 F2400.00000
G92 E0
G1 X100.465 Y116.301 F11400.000
G1 E2.00000 F2400.00000
G1 X101.287 Y114.660 E2.21793 F1800.000
G1 X98.868 Y116.301 E2.56514
G1 X101.287 Y111.473 E3.20655
