; generated by Slic3r 1.2.9 on 2016-09-10 at 08:35:19

; external perimeters extrusion width = 0.40mm
; perimeters extrusion width = 0.48mm
; infill extrusion width = 0.48mm
; solid infill extrusion width = 0.48mm
; top infill extrusion width = 0.48mm

M107
M190 S30 ; set bed temperature
M104 S190 ; set temperature
G28 ; home all axes
G1 Z5 F5000 ; lift nozzle

M109 S190 ; wait for temperature to be reached
G21 ; set units to millimeters
G90 ; use absolute coordinates
M82 ; use absolute distances for extrusion
G92 E0
G1 Z0.400 F11400.000
G1 E-2.00000 F2400.00000
G92 E0
G1 X69.583 Y86.676 F11400.000
G1 E2.00000 F2400.00000
G1 X71.743 Y85.860 E2.27422 F1800.000
G1 X73.000 Y85.741 E2.42419
G1 X147.000 Y85.741 E11.21281
G1 X149.275 Y86.138 E11.48704
G1 X151.280 Y87.282 E11.76126 F1800.000
G1 X152.780 Y89.038 E12.03549
G1 X153.595 Y91.198 E12.30971
G1 X153.714 Y92.455 E12.45968
G1 X153.714 Y117.215 E15.40024
G1 X153.317 Y119.489 E15.67447
G1 X152.173 Y121.495 E15.94869
G1 X150.642 Y122.855 E16.19196
G1 X134.642 Y133.185 E18.45385
G1 X132.516 Y134.086 E18.72807
G1 X131.000 Y134.259 E18.90924
G1 X105.000 Y134.259 E21.99713
G1 X102.990 Y133.951 E22.23860
G1 X71.607 Y124.106 E26.14491
G1 X69.556 Y123.046 E26.41913
G1 X67.985 Y121.354 E26.69336
G1 X67.080 Y119.230 E26.96758
G1 X66.914 Y118.082 E27.10534
G1 X66.286 Y106.885 E28.43730
G1 X66.286 Y92.455 E30.15101
G1 X66.683 Y90.181 E30.42523
G1 X67.827 Y88.175 E30.69946
G1 X69.537 Y86.715 E30.96656
G1 E28.96656 F2400.00000
G92 E0
G1 X114.600 Y96.154 F11400.000
G1 E2.00000 F2400.00000
G1 X105.400 Y96.154 E3.09264 F1800.000
G1 X105.400 Y92.855 E3.48447
G1 X114.600 Y92.855 E4.57711
G1 X114.600 Y96.094 E4.96181
G1 X114.254 Y95.954 F11400.000
G1 X113.886 Y95.440 F11400.000
G1 X106.114 Y95.440 E5.88482 F1800.000
G1 X106.114 Y93.569 E6.10701
G1 X113.886 Y93.569 E7.03002
G1 X113.886 Y95.380 E7.24509
G1 X113.172 Y94.726 F11400.000
G1 X106.828 Y94.726 E7.99846 F1800.000
G1 X106.828 Y94.284 E8.05102
G1 X113.172 Y94.284 E8.80439
G1 X113.172 Y94.666 E8.84983
G1 E6.84983 F2400.00000
G92 E0
G1 X115.414 Y97.554 F11400.000
G1 X115.414 Y97.554 F11400.000
G1 X115.414 Y99.670 F11400.000
G1 X115.414 Y101.785 F11400.000
G1 X114.600 Y106.485 F11400.000
G1 E2.00000 F2400.00000
G1 X105.400 Y106.485 E3.09264 F1800.000
G1 X105.400 Y103.185 E3.48447
G1 X114.600 Y103.185 E4.57711
G1 X114.600 Y106.425 E4.96181
G1 X114.254 Y106.285 F11400.000
G1 X113.886 Y105.770 F11400.000
G1 X106.114 Y105.770 E5.88482 F1800.000
G1 X106.114 Y103.899 E6.10701
G1 X113.886 Y103.899 E7.03002
G1 X113.886 Y105.710 E7.24509
G1 X113.172 Y105.056 F11400.000
G1 X106.828 Y105.056 E7.99846 F1800.000
G1 X106.828 Y104.614 E8.05102
G1 X113.172 Y104.614 E8.80439
G1 X113.172 Y104.996 E8.84983
G1 E6.84983 F2400.00000
G92 E0
G1 X115.414 Y107.885 F11400.000
G1 X115.414 Y107.885 F11400.000
G1 X115.414 Y110.000 F11400.000
G1 X115.414 Y112.115 F11400.000
G1 X114.600 Y116.815 F11400.000
G1 E2.00000 F2400.00000
G1 X105.400 Y116.815 E3.09264 F1800.000
G1 X105.400 Y113.515 E3.48447
G1 X114.600 Y113.515 E4.57711
G1 X114.600 Y116.755 E4.96181
G1 X114.254 Y116.615 F11400.000
G1 X113.886 Y116.101 F11400.000
G1 X106.114 Y116.101 E5.88482 F1800.000
G1 X106.114 Y114.230 E6.10701
G1 X113.886 Y114.230 E7.03002
G1 X113.886 Y116.041 E7.24509
G1 X113.172 Y115.386 F11400.000
G1 X106.828 Y115.386 E7.99846 F1800.000
G1 X106.828 Y114.944 E8.05102
G1 X113.172 Y114.944 E8.80439
G1 X113.172 Y115.326 E8.84983
G1 E6.84983 F2400.00000
G92 E0
G1 X115.414 Y118.215 F11400.000
G1 X115.414 Y118.215 F11400.000
G1 X115.414 Y120.330 F11400.000
G1 X115.414 Y122.446 F11400.000
G1 X114.600 Y127.145 F11400.000
G1 E2.00000 F2400.00000
G1 X105.400 Y127.145 E3.09264 F1800.000
G1 X105.400 Y123.846 E3.48447
G1 X114.600 Y123.846 E4.57711
G1 X114.600 Y127.085 E4.96181
G1 X114.254 Y126.945 F11400.000
G1 X113.886 Y126.431 F11400.000
G1 X106.114 Y126.431 E5.88482 F1800.000
G1 X106.114 Y124.560 E6.10701
G1 X113.886 Y124.560 E7.03002
G1 X113.886 Y126.371 E7.24509
G1 X113.172 Y125.716 F11400.000
G1 X106.828 Y125.716 E7.99846 F1800.000
G1 X106.828 Y125.274 E8.05102
G1 X113.172 Y125.274 E8.80439
G1 X113.172 Y125.656 E8.84983
G1 E6.84983 F2400.00000
G92 E0
G1 X116.000 Y127.959 F11400.000
G1 X118.000 Y128.478 F11400.000
G1 X119.757 Y129.373 F11400.000
G1 X120.586 Y128.545 F11400.000
G1 X130.600 Y127.145 F11400.000
G1 E2.00000 F2400.00000
G1 X121.400 Y127.145 E3.09264 F1800.000
G1 X121.400 Y123.846 E3.48447
G1 X130.600 Y123.846 E4.57711
G1 X130.600 Y127.085 E4.96181
G1 X130.254 Y126.945 F11400.000
G1 X129.886 Y126.431 F11400.000
G1 X122.114 Y126.431 E5.88482 F1800.000
G1 X122.114 Y124.560 E6.10701
G1 X129.886 Y124.560 E7.03002
G1 X129.886 Y126.371 E7.24509
G1 X129.172 Y125.716 F11400.000
G1 X122.828 Y125.716 E7.99846 F1800.000
G1 X122.828 Y125.274 E8.05102
G1 X129.172 Y125.274 E8.80439
G1 X129.172 Y125.656 E8.84983
G1 E6.84983 F2400.00000
G92 E0
G1 X131.414 Y122.446 F11400.000
G1 X131.414 Y122.446 F11400.000
G1 X131.414 Y120.330 F11400.000
G1 X131.414 Y118.215 F11400.000
G1 X130.600 Y116.815 F11400.000
G1 E2.00000 F2400.00000
G1 X121.400 Y116.815 E3.09264 F1800.000
G1 X121.400 Y113.515 E3.48447
G1 X130.600 Y113.515 E4.57711
G1 X130.600 Y116.755 E4.96181
G1 X130.254 Y116.615 F11400.000
G1 X129.886 Y116.101 F11400.000
G1 X122.114 Y116.101 E5.88482 F1800.000
G1 X122.114 Y114.230 E6.10701
G1 X129.886 Y114.230 E7.03002
G1 X129.886 Y116.041 E7.24509
G1 X129.172 Y115.386 F11400.000
G1 X122.828 Y115.386 E7.99846 F1800.000
G1 X122.828 Y114.944 E8.05102
G1 X129.172 Y114.944 E8.80439
G1 X129.172 Y115.326 E8.84983
G1 E6.84983 F2400.00000
G92 E0
G1 X131.414 Y112.115 F11400.000
G1 X131.414 Y112.115 F11400.000
G1 X131.414 Y110.000 F11400.000
G1 X131.414 Y107.885 F11400.000
G1 X130.600 Y106.485 F11400.000
G1 E2.00000 F2400.00000
G1 X121.400 Y106.485 E3.09264 F1800.000
G1 X121.400 Y103.185 E3.48447
G1 X130.600 Y103.185 E4.57711
G1 X130.600 Y106.425 E4.96181
G1 X130.254 Y106.285 F11400.000
G1 X129.886 Y105.770 F11400.000
G1 X122.114 Y105.770 E5.88482 F1800.000
G1 X122.114 Y103.899 E6.10701
G1 X129.886 Y103.899 E7.03002
G1 X129.886 Y105.710 E7.24509
G1 X129.172 Y105.056 F11400.000
G1 X122.828 Y105.056 E7.99846 F1800.000
G1 X122.828 Y104.614 E8.05102
G1 X129.172 Y104.614 E8.80439
G1 X129.172 Y104.996 E8.84983
G1 E6.84983 F2400.00000
G92 E0
G1 X131.414 Y101.785 F11400.000
G1 X131.414 Y101.785 F11400.000
G1 X131.414 Y99.670 F11400.000
G1 X131.414 Y97.554 F11400.000
G1 X130.600 Y96.154 F11400.000
G1 E2.00000 F2400.00000
G1 X121.400 Y96.154 E3.09264 F1800.000
G1 X121.400 Y92.855 E3.48447
G1 X130.600 Y92.855 E4.57711
G1 X130.600 Y96.094 E4.96181
G1 X130.254 Y95.954 F11400.000
G1 X129.886 Y95.440 F11400.000
G1 X122.114 Y95.440 E5.88482 F1800.000
G1 X122.114 Y93.569 E6.10701
G1 X129.886 Y93.569 E7.03002
G1 X129.886 Y95.380 E7.24509
G1 X129.172 Y94.726 F11400.000
G1 X122.828 Y94.726 E7.99846 F1800.000
G1 X122.828 Y94.284 E8.05102
G1 X129.172 Y94.284 E8.80439
G1 X129.172 Y94.666 E8.84983
G1 E6.84983 F2400.00000
G92 E0
G1 X132.000 Y96.969 F11400.000
G1 X134.000 Y98.969 F11400.000
G1 X134.470 Y99.670 F11400.000
G1 X136.586 Y97.554 F11400.000
G1 X146.600 Y96.154 F11400.000
G1 E2.00000 F2400.00000
G1 X137.400 Y96.154 E3.09264 F1800.000
G1 X137.400 Y92.855 E3.48447
G1 X146.600 Y92.855 E4.57711
G1 X146.600 Y96.094 E4.96181
G1 X146.254 Y95.954 F11400.000
G1 X145.886 Y95.440 F11400.000
G1 X138.114 Y95.440 E5.88482 F1800.000
G1 X138.114 Y93.569 E6.10701
G1 X145.886 Y93.569 E7.03002
G1 X145.886 Y95.380 E7.24509
G1 X145.172 Y94.726 F11400.000
G1 X138.828 Y94.726 E7.99846 F1800.000
G1 X138.828 Y94.284 E8.05102
G1 X145.172 Y94.284 E8.80439
G1 X145.172 Y94.666 E8.84983
G1 E6.84983 F2400.00000
G92 E0
G1 X147.414 Y97.554 F11400.000
G1 X147.414 Y97.554 F11400.000
G1 X147.414 Y99.670 F11400.000
G1 X147.414 Y101.785 F11400.000
G1 X146.600 Y106.485 F11400.000
G1 E2.00000 F2400.00000
G1 X137.400 Y106.485 E3.09264 F1800.000
G1 X137.400 Y103.185 E3.48447
G1 X146.600 Y103.185 E4.57711
G1 X146.600 Y106.425 E4.96181
G1 X146.254 Y106.285 F11400.000
G1 X145.886 Y105.770 F11400.000
G1 X138.114 Y105.770 E5.88482 F1800.000
G1 X138.114 Y103.899 E6.10701
G1 X145.886 Y103.899 E7.03002
G1 X145.886 Y105.710 E7.24509
G1 X145.172 Y105.056 F11400.000
G1 X138.828 Y105.056 E7.99846 F1800.000
G1 X138.828 Y104.614 E8.05102
G1 X145.172 Y104.614 E8.80439
G1 X145.172 Y104.996 E8.84983
G1 E6.84983 F2400.00000
G92 E0
G1 X147.414 Y107.885 F11400.000
G1 X147.414 Y107.885 F11400.000
G1 X147.414 Y110.000 F11400.000
G1 X147.414 Y112.115 F11400.000
G1 X146.600 Y116.815 F11400.000
G1 E2.00000 F2400.00000
G1 X137.400 Y116.815 E3.09264 F1800.000
G1 X137.400 Y113.515 E3.48447
G1 X146.600 Y113.515 E4.57711
G1 X146.600 Y116.755 E4.96181
G1 X146.254 Y116.615 F11400.000
G1 X145.886 Y116.101 F11400.000
G1 X138.114 Y116.101 E5.88482 F1800.000
G1 X138.114 Y114.230 E6.10701
G1 X145.886 Y114.230 E7.03002
G1 X145.886 Y116.041 E7.24509
G1 X145.172 Y115.386 F11400.000
G1 X138.828 Y115.386 E7.99846 F1800.000
G1 X138.828 Y114.944 E8.05102
G1 X145.172 Y114.944 E8.80439
G1 X145.172 Y115.326 E8.84983
G1 E6.84983 F2400.00000
G92 E0
G1 X136.000 Y117.629 F11400.000
G1 X118.470 Y120.330 F11400.000
G1 X104.586 Y120.330 F11400.000
G1 X102.000 Y120.330 F11400.000
G1 X102.000 Y119.629 F11400.000
G1 X100.000 Y117.629 F11400.000
G1 X98.600 Y116.815 F11400.000
G1 E2.00000 F2400.00000
G1 X89.400 Y116.815 E3.09264 F1800.000
G1 X89.400 Y113.515 E3.48447
G1 X98.600 Y113.515 E4.57711
G1 X98.600 Y116.755 E4.96181
G1 X98.254 Y116.615 F11400.000
G1 X97.886 Y116.101 F11400.000
G1 X90.114 Y116.101 E5.88482 F1800.000
G1 X90.114 Y114.230 E6.10701
G1 X97.886 Y114.230 E7.03002
G1 X97.886 Y116.041 E7.24509
G1 X97.172 Y115.386 F11400.000
G1 X90.828 Y115.386 E7.99846 F1800.000
G1 X90.828 Y114.944 E8.05102
G1 X97.172 Y114.944 E8.80439
G1 X97.172 Y115.326 E8.84983
G1 E6.84983 F2400.00000
G92 E0
G1 X99.414 Y112.115 F11400.000
G1 X99.414 Y112.115 F11400.000
G1 X99.414 Y110.000 F11400.000
G1 X99.414 Y107.885 F11400.000
G1 X98.600 Y106.485 F11400.000
G1 E2.00000 F2400.00000
G1 X89.400 Y106.485 E3.09264 F1800.000
G1 X89.400 Y103.185 E3.48447
G1 X98.600 Y103.185 E4.57711
G1 X98.600 Y106.425 E4.96181
G1 X98.254 Y106.285 F11400.000
G1 X97.886 Y105.770 F11400.000
G1 X90.114 Y105.770 E5.88482 F1800.000
G1 X90.114 Y103.899 E6.10701
G1 X97.886 Y103.899 E7.03002
G1 X97.886 Y105.710 E7.24509
G1 X97.172 Y105.056 F11400.000
G1 X90.828 Y105.056 E7.99846 F1800.000
G1 X90.828 Y104.614 E8.05102
G1 X97.172 Y104.614 E8.80439
G1 X97.172 Y104.996 E8.84983
G1 E6.84983 F2400.00000
G92 E0
G1 X99.414 Y101.785 F11400.000
G1 X99.414 Y101.785 F11400.000
G1 X99.414 Y99.670 F11400.000
G1 X99.414 Y97.554 F11400.000
G1 X98.600 Y96.154 F11400.000
G1 E2.00000 F2400.00000
G1 X89.400 Y96.154 E3.09264 F1800.000
G1 X89.400 Y92.855 E3.48447
G1 X98.600 Y92.855 E4.57711
G1 X98.600 Y96.094 E4.96181
G1 X98.254 Y95.954 F11400.000
G1 X97.886 Y95.440 F11400.000
G1 X90.114 Y95.440 E5.88482 F1800.000
G1 X90.114 Y93.569 E6.10701
G1 X97.886 Y93.569 E7.03002
G1 X97.886 Y95.380 E7.24509
G1 X97.172 Y94.726 F11400.000
G1 X90.828 Y94.726 E7.99846 F1800.000
G1 X90.828 Y94.284 E8.05102
G1 X97.172 Y94.284 E8.80439
G1 X97.172 Y94.666 E8.84983
G1 E6.84983 F2400.00000
G92 E0
G1 X88.000 Y96.969 F11400.000
G1 X88.000 Y96.969 F11400.000
G1 X86.000 Y96.969 F11400.000
G1 X84.000 Y96.969 F11400.000
G1 X82.600 Y96.154 F11400.000
G1 E2.00000 F2400.00000
G1 X73.400 Y96.154 E3.09264 F1800.000
G1 X73.400 Y92.855 E3.48447
G1 X82.600 Y92.855 E4.57711
G1 X82.600 Y96.094 E4.96181
G1 X82.254 Y95.954 F11400.000
G1 X81.886 Y95.440 F11400.000
G1 X74.114 Y95.440 E5.88482 F1800.000
G1 X74.114 Y93.569 E6.10701
G1 X81.886 Y93.569 E7.03002
G1 X81.886 Y95.380 E7.24509
G1 X81.172 Y94.726 F11400.000
G1 X74.828 Y94.726 E7.99846 F1800.000
G1 X74.828 Y94.284 E8.05102
G1 X81.172 Y94.284 E8.80439
G1 X81.172 Y94.666 E8.84983
G1 E6.84983 F2400.00000
G92 E0
G1 X83.414 Y97.554 F11400.000
G1 X83.414 Y97.554 F11400.000
G1 X83.414 Y99.670 F11400.000
G1 X83.414 Y101.785 F11400.000
G1 X82.600 Y106.485 F11400.000
G1 E2.00000 F2400.00000
G1 X73.400 Y106.485 E3.09264 F1800.000
G1 X73.400 Y103.185 E3.48447
G1 X82.600 Y103.185 E4.57711
G1 X82.600 Y106.425 E4.96181
G1 X82.254 Y106.285 F11400.000
G1 X81.886 Y105.770 F11400.000
G1 X74.114 Y105.770 E5.88482 F1800.000
G1 X74.114 Y103.899 E6.10701
G1 X81.886 Y103.899 E7.03002
G1 X81.886 Y105.710 E7.24509
G1 X81.172 Y105.056 F11400.000
G1 X74.828 Y105.056 E7.99846 F1800.000
G1 X74.828 Y104.614 E8.05102
G1 X81.172 Y104.614 E8.80439
G1 X81.172 Y104.996 E8.84983
G1 E6.84983 F2400.00000
G92 E0
G1 X83.414 Y107.885 F11400.000
G1 X83.414 Y110.242 F11400.000
G1 X84.031 Y110.202 F11400.000
G1 X84.031 Y112.600 F11400.000
G1 X83.217 Y117.300 F11400.000
G1 E2.00000 F2400.00000
G1 X74.017 Y117.300 E3.09264 F1800.000
G1 X74.017 Y114.000 E3.48447
G1 X83.217 Y114.000 E4.57711
G1 X83.217 Y117.240 E4.96181
G1 X82.871 Y117.100 F11400.000
G1 X82.503 Y116.585 F11400.000
G1 X74.731 Y116.585 E5.88482 F1800.000
G1 X74.731 Y114.715 E6.10701
G1 X82.503 Y114.715 E7.03002
G1 X82.503 Y116.525 E7.24509
G1 X81.789 Y115.871 F11400.000
G1 X75.445 Y115.871 E7.99846 F1800.000
G1 X75.445 Y115.429 E8.05102
G1 X81.789 Y115.429 E8.80439
G1 X81.789 Y115.811 E8.84983
G1 Z0.700 F11400.000
G1 E6.84983 F2400.00000
G92 E0
G1 X84.617 Y113.186 F11400.000
G1 X86.066 Y110.566 F11400.000
G1 X102.000 Y109.299 F11400.000
G1 X102.000 Y100.371 F11400.000
G1 X102.470 Y99.670 F11400.000
G1 X104.586 Y97.554 F11400.000
G1 X114.004 Y95.356 F11400.000
G1 E2.00000 F2400.00000
G1 X105.996 Y95.356 E2.41836 F900.000
G1 X105.996 Y93.653 E2.50733
G1 X114.004 Y93.653 E2.92569
G1 X114.004 Y95.296 E3.01152
G1 X114.423 Y95.775 F11400.000
G1 X105.577 Y95.775 E3.47365 F900.000
G1 X105.577 Y93.235 E3.60638
G1 X114.423 Y93.235 E4.06851
G1 X114.423 Y95.715 E4.19811
G1 X114.800 Y96.152 F11400.000
G1 X105.200 Y96.152 E4.59997 F900.000
G1 X105.200 Y92.857 E4.73790
G1 X114.800 Y92.857 E5.13976
G1 X114.800 Y96.092 E5.27518
G1 X114.454 Y95.952 F11400.000
G1 X113.539 Y95.109 F11400.000
G1 X113.757 Y94.891 E5.29249 F1200.000
G1 X113.757 Y94.254 E5.32832
G1 X112.902 Y95.109 E5.39631
G1 X112.264 Y95.109 E5.43214
G1 X113.473 Y93.901 E5.52822
G1 X112.835 Y93.901 E5.56405
G1 X111.627 Y95.109 E5.66012
G1 X110.989 Y95.109 E5.69596
G1 X112.198 Y93.901 E5.79203
G1 X111.560 Y93.901 E5.82787
G1 X110.352 Y95.109 E5.92394
G1 X109.714 Y95.109 E5.95977
G1 X110.923 Y93.901 E6.05585
G1 X110.286 Y93.901 E6.09168
G1 X109.077 Y95.109 E6.18776
G1 X108.440 Y95.109 E6.22359
G1 X109.648 Y93.901 E6.31967
G1 X109.011 Y93.901 E6.35550
G1 X107.802 Y95.109 E6.45157
G1 X107.165 Y95.109 E6.48741
G1 X108.373 Y93.901 E6.58348
G1 X107.736 Y93.901 E6.61932
G1 X106.527 Y95.109 E6.71539
G1 X106.243 Y94.756 E6.74088
G1 X107.098 Y93.901 E6.80886
G1 X106.461 Y93.901 E6.84470
G1 X106.243 Y94.118 E6.86201
G1 E4.86201 F2400.00000
G92 E0
G1 X115.414 Y97.554 F11400.000
G1 X115.414 Y97.554 F11400.000
G1 X115.414 Y99.670 F11400.000
G1 X115.414 Y101.785 F11400.000
G1 X114.004 Y105.686 F11400.000
G1 E2.00000 F2400.00000
G1 X105.996 Y105.686 E2.41836 F900.000
G1 X105.996 Y103.984 E2.50733
G1 X114.004 Y103.984 E2.92569
G1 X114.004 Y105.626 E3.01152
G1 X114.423 Y106.105 F11400.000
G1 X105.577 Y106.105 E3.47365 F900.000
G1 X105.577 Y103.565 E3.60638
G1 X114.423 Y103.565 E4.06851
G1 X114.423 Y106.045 E4.19811
G1 X114.800 Y106.482 F11400.000
G1 X105.200 Y106.482 E4.59997 F900.000
G1 X105.200 Y103.187 E4.73790
G1 X114.800 Y103.187 E5.13976
G1 X114.800 Y106.422 E5.27518
G1 X114.454 Y106.282 F11400.000
G1 X113.539 Y105.439 F11400.000
G1 X113.757 Y105.221 E5.29249 F1200.000
G1 X113.757 Y104.584 E5.32832
G1 X112.902 Y105.439 E5.39631
G1 X112.264 Y105.439 E5.43214
G1 X113.473 Y104.231 E5.52822
G1 X112.835 Y104.231 E5.56405
G1 X111.627 Y105.439 E5.66012
G1 X110.989 Y105.439 E5.69596
G1 X112.198 Y104.231 E5.79203
G1 X111.560 Y104.231 E5.82787
G1 X110.352 Y105.439 E5.92394
G1 X109.714 Y105.439 E5.95977
G1 X110.923 Y104.231 E6.05585
G1 X110.286 Y104.231 E6.09168
G1 X109.077 Y105.439 E6.18776
G1 X108.440 Y105.439 E6.22359
G1 X109.648 Y104.231 E6.31967
G1 X109.011 Y104.231 E6.35550
G1 X107.802 Y105.439 E6.45157
