; generated by Slic3r 1.2.9 on 2016-06-12 at 11:18:41

; external perimeters extrusion width = 0.40mm
; perimeters extrusion width = 0.48mm
; infill extrusion width = 0.48mm
; solid infill extrusion width = 0.48mm
; top infill extrusion width = 0.48mm
; support material extrusion width = 0.40mm

M107
M190 S60 ; set bed temperature
M104 S220 ; set temperature
G28 ; home all axes
G1 Z5 F5000 ; lift nozzle

M109 S220 ; wait for temperature to be reached
G21 ; set units to millimeters
G90 ; use absolute coordinates
M82 ; use absolute distances for extrusion
G92 E0
G1 Z0.400 F11400.000
G1 E-2.00000 F2400.00000
G92 E0
G1 X61.480 Y35.496 F11400.000
G1 E2.00000 F2400.00000
G1 X62.096 Y34.429 E2.14626 F1800.000
G1 X63.940 Y32.026 E2.50601
G1 X65.733 Y30.233 E2.80718
G1 X68.136 Y28.389 E3.16692
G1 X70.332 Y27.121 E3.46811
G1 X73.131 Y25.962 E3.82785
G1 X75.580 Y25.306 E4.12902
G1 X78.583 Y24.910 E4.48876
G1 X79.851 Y24.827 E4.63968
G1 X120.149 Y24.827 E9.42560
G1 X121.417 Y24.910 E9.57652
G1 X124.420 Y25.306 E9.93627 F1800.000
G1 X126.869 Y25.962 E10.23745
G1 X129.668 Y27.121 E10.59719
G1 X131.864 Y28.389 E10.89835
G1 X134.267 Y30.233 E11.25810
G1 X136.060 Y32.026 E11.55929
G1 X137.904 Y34.429 E11.91904
G1 X139.172 Y36.625 E12.22020
G1 X140.331 Y39.424 E12.57994
G1 X140.988 Y41.873 E12.88112
G1 X141.383 Y44.877 E13.24087
G1 X141.466 Y46.145 E13.39178
G1 X141.466 Y153.856 E26.18409
G1 X141.383 Y155.124 E26.33501
G1 X140.988 Y158.127 E26.69476
G1 X140.331 Y160.576 E26.99593
G1 X139.172 Y163.375 E27.35567
G1 X137.904 Y165.571 E27.65685
G1 X136.060 Y167.974 E28.01659
G1 X134.267 Y169.767 E28.31776
G1 X131.864 Y171.611 E28.67751
G1 X129.668 Y172.879 E28.97868
G1 X126.869 Y174.038 E29.33843
G1 X124.420 Y174.694 E29.63962
G1 X121.417 Y175.090 E29.99937
G1 X120.149 Y175.173 E30.15027
G1 X79.851 Y175.173 E34.93619
G1 X78.583 Y175.090 E35.08709
G1 X75.580 Y174.694 E35.44684
G1 X73.131 Y174.038 E35.74802
G1 X70.332 Y172.879 E36.10777
G1 X68.136 Y171.611 E36.40896
G1 X65.733 Y169.767 E36.76870
G1 X63.940 Y167.974 E37.06984
G1 X62.096 Y165.571 E37.42959
G1 X60.828 Y163.375 E37.73078
G1 X59.669 Y160.576 E38.09053
G1 X59.012 Y158.127 E38.39170
G1 X58.617 Y155.123 E38.75145
G1 X58.534 Y153.856 E38.90236
G1 X58.534 Y46.145 E51.69467
G1 X58.617 Y44.877 E51.84558
G1 X59.012 Y41.873 E52.20534
G1 X59.669 Y39.424 E52.50652
G1 X60.828 Y36.625 E52.86626
G1 X61.450 Y35.548 E53.01404
G1 X63.327 Y36.562 F11400.000
G1 X63.554 Y36.168 E53.06811 F1800.000
G1 X65.997 Y32.985 E53.54457
G1 X66.692 Y32.290 E53.66133
G1 X69.875 Y29.848 E54.13779
G1 X70.726 Y29.356 E54.25455
G1 X74.433 Y27.821 E54.73104
G1 X75.382 Y27.566 E54.84779
G1 X79.116 Y27.075 E55.29504
G1 X79.606 Y27.043 E55.35336
G1 X120.394 Y27.043 E60.19759
G1 X120.884 Y27.075 E60.25591
G1 X124.618 Y27.566 E60.70317 F1800.000
G1 X125.567 Y27.821 E60.81993
G1 X129.274 Y29.356 E61.29641
G1 X130.125 Y29.848 E61.41315
G1 X133.308 Y32.290 E61.88963
G1 X134.003 Y32.985 E62.00639
G1 X136.446 Y36.168 E62.48286
G1 X136.937 Y37.019 E62.59961
G1 X138.472 Y40.726 E63.07609
G1 X138.727 Y41.675 E63.19284
G1 X139.218 Y45.409 E63.64011
G1 X139.251 Y45.899 E63.69842
G1 X139.251 Y154.101 E76.54905
G1 X139.218 Y154.591 E76.60736
G1 X138.727 Y158.325 E77.05462
G1 X138.472 Y159.274 E77.17137
G1 X136.937 Y162.981 E77.64786
G1 X136.446 Y163.832 E77.76461
G1 X134.003 Y167.015 E78.24108
G1 X133.308 Y167.710 E78.35783
G1 X130.125 Y170.152 E78.83430
G1 X129.274 Y170.644 E78.95105
G1 X125.567 Y172.179 E79.42755
G1 X124.618 Y172.434 E79.54430
G1 X120.884 Y172.925 E79.99157
G1 X120.394 Y172.957 E80.04988
G1 X79.606 Y172.957 E84.89411
G1 X79.116 Y172.925 E84.95241
G1 X75.382 Y172.434 E85.39967
G1 X74.433 Y172.179 E85.51642
G1 X70.726 Y170.644 E85.99293
G1 X69.875 Y170.152 E86.10969
G1 X66.692 Y167.710 E86.58615
G1 X65.997 Y167.015 E86.70289
G1 X63.555 Y163.832 E87.17934
G1 X63.063 Y162.981 E87.29611
G1 X61.528 Y159.274 E87.77261
G1 X61.273 Y158.325 E87.88935
G1 X60.782 Y154.591 E88.33662
G1 X60.749 Y154.101 E88.39493
G1 X60.749 Y45.899 E101.24555
G1 X60.782 Y45.409 E101.30386
G1 X61.273 Y41.675 E101.75114
G1 X61.528 Y40.726 E101.86788
G1 X63.063 Y37.019 E102.34437
G1 X63.297 Y36.614 E102.39993
G1 X63.945 Y36.919 F11400.000
G1 X64.150 Y36.565 E102.44844 F1800.000
G1 X66.535 Y33.457 E102.91379
G1 X67.164 Y32.828 E103.01942
G1 X70.272 Y30.443 E103.48477
G1 X71.043 Y29.998 E103.59041
G1 X74.663 Y28.499 E104.05578
G1 X75.522 Y28.268 E104.16141
G1 X79.186 Y27.786 E104.60033
G1 X79.629 Y27.757 E104.65309
G1 X120.371 Y27.757 E109.49177
G1 X120.814 Y27.786 E109.54453 F1800.000
G1 X124.478 Y28.268 E109.98347
G1 X125.337 Y28.499 E110.08910
G1 X128.957 Y29.998 E110.55446
G1 X129.728 Y30.443 E110.66009
G1 X132.836 Y32.828 E111.12545
G1 X133.465 Y33.457 E111.23109
G1 X135.851 Y36.566 E111.69645
G1 X136.295 Y37.336 E111.80207
G1 X137.795 Y40.956 E112.26743
G1 X138.025 Y41.815 E112.37307
G1 X138.507 Y45.479 E112.81200
G1 X138.536 Y45.922 E112.86476
G1 X138.536 Y154.078 E125.70983
G1 X138.507 Y154.521 E125.76259
G1 X138.025 Y158.185 E126.20152
G1 X137.795 Y159.044 E126.30714
G1 X136.295 Y162.664 E126.77252
G1 X135.851 Y163.435 E126.87815
G1 X133.465 Y166.543 E127.34350
G1 X132.836 Y167.172 E127.44913
G1 X129.728 Y169.557 E127.91448
G1 X128.958 Y170.002 E128.02012
G1 X125.337 Y171.502 E128.48549
G1 X124.478 Y171.732 E128.59113
G1 X120.814 Y172.214 E129.03006
G1 X120.371 Y172.243 E129.08281
G1 X79.629 Y172.243 E133.92149
G1 X79.186 Y172.214 E133.97425
G1 X75.522 Y171.732 E134.41317
G1 X74.663 Y171.502 E134.51880
G1 X71.043 Y170.002 E134.98418
G1 X70.272 Y169.557 E135.08983
G1 X67.164 Y167.172 E135.55517
G1 X66.535 Y166.543 E135.66079
G1 X64.150 Y163.435 E136.12613
G1 X63.705 Y162.664 E136.23177
G1 X62.205 Y159.044 E136.69715
G1 X61.975 Y158.185 E136.80278
G1 X61.493 Y154.521 E137.24171
G1 X61.464 Y154.078 E137.29447
G1 X61.464 Y45.922 E150.13954
G1 X61.493 Y45.479 E150.19229
G1 X61.975 Y41.815 E150.63124
G1 X62.205 Y40.956 E150.73686
G1 X63.705 Y37.336 E151.20223
G1 X63.915 Y36.971 E151.25223
G1 X64.564 Y37.276 F11400.000
G1 X64.745 Y36.963 E151.29518 F1800.000
G1 X67.073 Y33.929 E151.74941
G1 X67.636 Y33.366 E151.84393
G1 X70.670 Y31.038 E152.29816
G1 X71.359 Y30.640 E152.39268
G1 X74.893 Y29.176 E152.84693
G1 X75.661 Y28.970 E152.94144
G1 X79.256 Y28.497 E153.37203
G1 X79.653 Y28.471 E153.41923
G1 X120.347 Y28.471 E158.25236
G1 X120.744 Y28.497 E158.29957
G1 X124.339 Y28.970 E158.73017 F1800.000
G1 X125.107 Y29.176 E158.82468
G1 X128.641 Y30.640 E159.27892
G1 X129.330 Y31.038 E159.37344
G1 X132.364 Y33.366 E159.82768
G1 X132.927 Y33.929 E159.92220
G1 X135.255 Y36.963 E160.37644
G1 X135.653 Y37.652 E160.47094
G1 X137.117 Y41.186 E160.92519
G1 X137.323 Y41.955 E161.01970
G1 X137.796 Y45.549 E161.45030
G1 X137.822 Y45.946 E161.49751
G1 X137.822 Y154.054 E174.33703
G1 X137.796 Y154.451 E174.38423
G1 X137.323 Y158.045 E174.81482
G1 X137.117 Y158.814 E174.90933
G1 X135.653 Y162.348 E175.36358
G1 X135.255 Y163.037 E175.45810
G1 X132.927 Y166.071 E175.91233
G1 X132.364 Y166.634 E176.00684
G1 X129.330 Y168.962 E176.46108
G1 X128.641 Y169.360 E176.55559
G1 X125.107 Y170.824 E177.00985
G1 X124.339 Y171.030 E177.10437
G1 X120.744 Y171.503 E177.53496
G1 X120.347 Y171.529 E177.58216
G1 X79.653 Y171.529 E182.41529
G1 X79.256 Y171.503 E182.46249
G1 X75.662 Y171.030 E182.89307
G1 X74.893 Y170.824 E182.98759
G1 X71.359 Y169.360 E183.44185
G1 X70.670 Y168.962 E183.53638
G1 X67.636 Y166.634 E183.99060
G1 X67.073 Y166.071 E184.08511
G1 X64.745 Y163.037 E184.53933
G1 X64.347 Y162.348 E184.63385
G1 X62.883 Y158.814 E185.08811
G1 X62.677 Y158.045 E185.18262
G1 X62.204 Y154.451 E185.61322
G1 X62.178 Y154.054 E185.66042
G1 X62.178 Y45.946 E198.49993
G1 X62.204 Y45.549 E198.54714
G1 X62.677 Y41.955 E198.97775
G1 X62.883 Y41.186 E199.07225
G1 X64.347 Y37.652 E199.52650
G1 X64.534 Y37.328 E199.57094
G1 X65.182 Y37.633 F11400.000
G1 X65.340 Y37.361 E199.60833 F1800.000
G1 X67.611 Y34.401 E200.05145
G1 X68.108 Y33.904 E200.13484
G1 X71.068 Y31.633 E200.57796
G1 X71.676 Y31.282 E200.66136
G1 X75.123 Y29.854 E201.10449
G1 X75.801 Y29.672 E201.18788
G1 X79.326 Y29.208 E201.61013
G1 X79.676 Y29.185 E201.65179
G1 X120.324 Y29.185 E206.47936
G1 X120.674 Y29.208 E206.52102 F1800.000
G1 X124.199 Y29.672 E206.94328
G1 X124.877 Y29.854 E207.02667
G1 X128.324 Y31.282 E207.46980
G1 X128.932 Y31.633 E207.55319
G1 X131.893 Y33.904 E207.99632
G1 X132.389 Y34.401 E208.07972
G1 X134.660 Y37.361 E208.52284
G1 X135.011 Y37.969 E208.60623
G1 X136.439 Y41.416 E209.04935
G1 X136.621 Y42.094 E209.13275
G1 X137.085 Y45.619 E209.55501
G1 X137.108 Y45.969 E209.59666
G1 X137.108 Y154.031 E222.43063
G1 X137.085 Y154.381 E222.47228
G1 X136.621 Y157.906 E222.89454
G1 X136.439 Y158.584 E222.97793
G1 X135.011 Y162.031 E223.42106
G1 X134.660 Y162.639 E223.50446
G1 X132.389 Y165.599 E223.94757
G1 X131.893 Y166.096 E224.03097
G1 X128.933 Y168.367 E224.47408
G1 X128.324 Y168.718 E224.55748
G1 X124.877 Y170.146 E225.00062
G1 X124.199 Y170.328 E225.08401
G1 X120.674 Y170.792 E225.50627
G1 X120.324 Y170.815 E225.54792
G1 X79.676 Y170.815 E230.37549
G1 X79.326 Y170.792 E230.41714
G1 X75.801 Y170.328 E230.83939
G1 X75.123 Y170.146 E230.92279
G1 X71.676 Y168.718 E231.36593
G1 X71.067 Y168.367 E231.44934
G1 X68.108 Y166.096 E231.89244
G1 X67.611 Y165.599 E231.97583
G1 X65.340 Y162.639 E232.41894
G1 X64.989 Y162.031 E232.50234
G1 X63.561 Y158.584 E232.94548
G1 X63.379 Y157.906 E233.02887
G1 X62.915 Y154.381 E233.45113
G1 X62.892 Y154.031 E233.49278
G1 X62.892 Y45.969 E246.32674
G1 X62.915 Y45.619 E246.36839
G1 X63.379 Y42.094 E246.79066
G1 X63.561 Y41.416 E246.87405
G1 X64.989 Y37.969 E247.31719
G1 X65.152 Y37.685 E247.35607
G1 X65.801 Y37.990 F11400.000
G1 X65.935 Y37.758 E247.38789 F1800.000
G1 X68.149 Y34.873 E247.81990
G1 X68.579 Y34.442 E247.89217
G1 X71.465 Y32.228 E248.32417
G1 X71.992 Y31.924 E248.39645
G1 X75.353 Y30.532 E248.82846
G1 X75.941 Y30.374 E248.90074
G1 X79.396 Y29.919 E249.31465
G1 X79.699 Y29.899 E249.35075
G1 X120.301 Y29.899 E254.17278
G1 X120.604 Y29.919 E254.20888
G1 X124.059 Y30.374 E254.62280 F1800.000
G1 X124.647 Y30.532 E254.69508
G1 X128.008 Y31.924 E255.12709
G1 X128.535 Y32.228 E255.19936
G1 X131.421 Y34.442 E255.63137
G1 X131.851 Y34.873 E255.70365
G1 X134.065 Y37.758 E256.13565
G1 X134.370 Y38.285 E256.20792
G1 X135.762 Y41.646 E256.63993
G1 X135.919 Y42.234 E256.71220
G1 X136.374 Y45.689 E257.12613
G1 X136.394 Y45.993 E257.16223
G1 X136.394 Y154.008 E269.99064
G1 X136.374 Y154.311 E270.02674
G1 X135.919 Y157.766 E270.44066
G1 X135.762 Y158.354 E270.51293
G1 X134.370 Y161.715 E270.94495
G1 X134.065 Y162.242 E271.01722
G1 X131.851 Y165.127 E271.44922
G1 X131.421 Y165.558 E271.52150
G1 X128.535 Y167.772 E271.95350
G1 X128.008 Y168.076 E272.02578
G1 X124.647 Y169.468 E272.45779
G1 X124.059 Y169.626 E272.53007
G1 X120.604 Y170.081 E272.94400
G1 X120.301 Y170.101 E272.98009
G1 X79.699 Y170.101 E277.80211
G1 X79.396 Y170.081 E277.83821
G1 X75.941 Y169.626 E278.25212
G1 X75.353 Y169.468 E278.32440
G1 X71.992 Y168.076 E278.75642
G1 X71.465 Y167.772 E278.82871
G1 X68.579 Y165.558 E279.26070
G1 X68.149 Y165.127 E279.33297
G1 X65.935 Y162.242 E279.76496
G1 X65.630 Y161.715 E279.83724
G1 X64.238 Y158.354 E280.26926
G1 X64.081 Y157.766 E280.34153
G1 X63.626 Y154.311 E280.75546
G1 X63.606 Y154.008 E280.79156
G1 X63.606 Y45.993 E293.61996
G1 X63.626 Y45.689 E293.65606
G1 X64.081 Y42.234 E294.07000
G1 X64.238 Y41.646 E294.14227
G1 X65.630 Y38.285 E294.57428
G1 X65.771 Y38.042 E294.60760
G1 X66.419 Y38.348 F11400.000
G1 X66.530 Y38.156 E294.63387 F1800.000
G1 X68.687 Y35.344 E295.05476
G1 X69.051 Y34.980 E295.11591
G1 X71.863 Y32.823 E295.53679
G1 X72.309 Y32.566 E295.59795
G1 X75.583 Y31.209 E296.01885
G1 X76.080 Y31.076 E296.08000
G1 X79.466 Y30.630 E296.48558
G1 X79.723 Y30.613 E296.51613
G1 X120.277 Y30.613 E301.33260
G1 X120.534 Y30.630 E301.36314 F1800.000
G1 X123.920 Y31.076 E301.76874
G1 X124.417 Y31.209 E301.82989
G1 X127.691 Y32.566 E302.25078
G1 X128.137 Y32.823 E302.31194
G1 X130.949 Y34.980 E302.73283
G1 X131.313 Y35.344 E302.79399
G1 X133.470 Y38.156 E303.21487
G1 X133.728 Y38.602 E303.27603
G1 X135.084 Y41.876 E303.69692
G1 X135.217 Y42.373 E303.75807
G1 X135.663 Y45.759 E304.16366
G1 X135.680 Y46.016 E304.19421
G1 X135.680 Y153.984 E317.01707
G1 X135.663 Y154.241 E317.04761
G1 X135.217 Y157.627 E317.45320
G1 X135.084 Y158.124 E317.51435
G1 X133.728 Y161.398 E317.93525
G1 X133.470 Y161.844 E317.99640
G1 X131.313 Y164.656 E318.41729
G1 X130.949 Y165.020 E318.47844
G1 X128.137 Y167.177 E318.89933
G1 X127.691 Y167.435 E318.96048
G1 X124.417 Y168.791 E319.38138
G1 X123.920 Y168.924 E319.44254
G1 X120.534 Y169.370 E319.84813
G1 X120.277 Y169.387 E319.87867
G1 X79.723 Y169.387 E324.69514
G1 X79.466 Y169.370 E324.72568
G1 X76.080 Y168.924 E325.13126
G1 X75.583 Y168.791 E325.19242
G1 X72.309 Y167.435 E325.61332
G1 X71.863 Y167.177 E325.67449
G1 X69.051 Y165.020 E326.09536
G1 X68.687 Y164.656 E326.15651
G1 X66.530 Y161.844 E326.57739
G1 X66.272 Y161.398 E326.63855
G1 X64.916 Y158.124 E327.05946
G1 X64.783 Y157.627 E327.12060
G1 X64.337 Y154.241 E327.52620
G1 X64.320 Y153.984 E327.55674
G1 X64.320 Y46.016 E340.37959
G1 X64.337 Y45.759 E340.41014
G1 X64.783 Y42.373 E340.81574
G1 X64.916 Y41.876 E340.87689
G1 X66.272 Y38.602 E341.29778
G1 X66.389 Y38.400 E341.32554
G1 X67.038 Y38.705 F11400.000
G1 X67.125 Y38.554 E341.34625 F1800.000
G1 X69.225 Y35.816 E341.75602
G1 X69.523 Y35.518 E341.80606
G1 X72.260 Y33.418 E342.21582
G1 X72.625 Y33.207 E342.26586
G1 X75.813 Y31.887 E342.67564
G1 X76.220 Y31.778 E342.72568
G1 X79.536 Y31.341 E343.12292
G1 X79.746 Y31.328 E343.14792
G1 X120.254 Y31.328 E347.95883
G1 X120.464 Y31.341 E347.98382
G1 X123.780 Y31.778 E348.38108 F1800.000
G1 X124.187 Y31.887 E348.43112
G1 X127.375 Y33.207 E348.84089
G1 X127.740 Y33.418 E348.89092
G1 X130.477 Y35.518 E349.30070
G1 X130.775 Y35.816 E349.35074
G1 X132.875 Y38.554 E349.76051
G1 X133.086 Y38.919 E349.81054
G1 X134.406 Y42.106 E350.22031
G1 X134.515 Y42.513 E350.27035
G1 X134.952 Y45.829 E350.66761
G1 X134.966 Y46.039 E350.69260
G1 X134.966 Y153.961 E363.50990
G1 X134.952 Y154.171 E363.53490
G1 X134.515 Y157.487 E363.93214
G1 X134.406 Y157.894 E363.98218
G1 X133.086 Y161.082 E364.39196
G1 X132.875 Y161.446 E364.44199
G1 X130.775 Y164.184 E364.85176
G1 X130.477 Y164.482 E364.90180
G1 X127.740 Y166.582 E365.31157
G1 X127.375 Y166.793 E365.36160
G1 X124.187 Y168.113 E365.77138
G1 X123.780 Y168.222 E365.82142
G1 X120.464 Y168.659 E366.21868
G1 X120.254 Y168.672 E366.24367
G1 X79.746 Y168.672 E371.05458
G1 X79.536 Y168.659 E371.07957
G1 X76.220 Y168.222 E371.47681
G1 X75.813 Y168.113 E371.52685
G1 X72.625 Y166.793 E371.93664
G1 X72.260 Y166.582 E371.98668
G1 X69.523 Y164.482 E372.39644
G1 X69.225 Y164.184 E372.44647
G1 X67.125 Y161.446 E372.85623
G1 X66.914 Y161.082 E372.90627
G1 X65.594 Y157.894 E373.31606
G1 X65.485 Y157.487 E373.36609
G1 X65.048 Y154.171 E373.76334
G1 X65.034 Y153.961 E373.78833
G1 X65.034 Y46.039 E386.60563
G1 X65.048 Y45.829 E386.63062
G1 X65.485 Y42.513 E387.02789
G1 X65.594 Y42.106 E387.07792
G1 X66.914 Y38.919 E387.48770
G1 X67.008 Y38.757 E387.50990
G1 X67.656 Y39.062 F11400.000
G1 X67.720 Y38.951 E387.52505 F1800.000
G1 X69.763 Y36.288 E387.92370
G1 X69.995 Y36.057 E387.96262
G1 X72.658 Y34.013 E388.36127
G1 X72.942 Y33.849 E388.40019
G1 X76.043 Y32.565 E388.79885
G1 X76.360 Y32.480 E388.83776
G1 X79.769 Y32.042 E389.24607
G1 X120.231 Y32.042 E394.05144
G1 X123.641 Y32.480 E394.45976 F1800.000
G1 X123.957 Y32.565 E394.49867
G1 X127.058 Y33.849 E394.89733
G1 X127.342 Y34.013 E394.93624
G1 X130.005 Y36.057 E395.33490
G1 X130.237 Y36.288 E395.37382
G1 X132.280 Y38.951 E395.77247
G1 X132.444 Y39.235 E395.81139
G1 X133.728 Y42.336 E396.21004
G1 X133.813 Y42.653 E396.24896
G1 X134.251 Y46.063 E396.65728
G1 X134.241 Y154.101 E409.48843
G1 X133.813 Y157.347 E409.87734
G1 X133.728 Y157.664 E409.91626
G1 X132.444 Y160.765 E410.31492
G1 X132.280 Y161.049 E410.35383
G1 X130.237 Y163.712 E410.75248
G1 X130.005 Y163.943 E410.79140
G1 X127.342 Y165.987 E411.19005
