; generated by Slic3r 1.2.9 on 2016-06-11 at 20:31:58

; external perimeters extrusion width = 0.40mm
; perimeters extrusion width = 0.67mm
; infill extrusion width = 0.67mm
; solid infill extrusion width = 0.67mm
; top infill extrusion width = 0.67mm
; support material extrusion width = 0.40mm

M107
M190 S55 ; set bed temperature
M104 S200 ; set temperature
G28 ; home all axes
G1 Z5 F5000 ; lift nozzle

M109 S200 ; wait for temperature to be reached
G21 ; set units to millimeters
G90 ; use absolute coordinates
M82 ; use absolute distances for extrusion
G92 E0
G1 Z0.400 F11400.000
G1 E-2.00000 F2400.00000
G92 E0
G1 X64.056 Y36.983 F11400.000
G1 E2.00000 F2400.00000
G1 X64.476 Y36.256 E2.09976 F1800.000
G1 X66.320 Y33.853 E2.45951
G1 X67.559 Y32.613 E2.66767
G1 X69.962 Y30.769 E3.02741
G1 X71.480 Y29.893 E3.23558
G1 X74.279 Y28.734 E3.59532
G1 X75.972 Y28.280 E3.80348
G1 X78.975 Y27.885 E4.16322
G1 X79.851 Y27.827 E4.26754
G1 X120.149 Y27.827 E9.05346
G1 X121.025 Y27.885 E9.15777
G1 X124.028 Y28.280 E9.51752 F1800.000
G1 X125.721 Y28.734 E9.72568
G1 X128.520 Y29.893 E10.08542
G1 X130.038 Y30.769 E10.29358
G1 X132.441 Y32.613 E10.65333
G1 X133.680 Y33.853 E10.86151
G1 X135.524 Y36.256 E11.22125
G1 X136.400 Y37.774 E11.42940
G1 X137.560 Y40.572 E11.78914
G1 X138.013 Y42.265 E11.99731
G1 X138.409 Y45.268 E12.35706
G1 X138.466 Y46.145 E12.46137
G1 X138.466 Y153.856 E25.25368
G1 X138.409 Y154.732 E25.35799
G1 X138.013 Y157.735 E25.71774
G1 X137.560 Y159.428 E25.92590
G1 X136.400 Y162.227 E26.28564
G1 X135.524 Y163.744 E26.49381
G1 X133.680 Y166.148 E26.85354
G1 X132.441 Y167.387 E27.06171
G1 X130.038 Y169.231 E27.42145
G1 X128.520 Y170.107 E27.62962
G1 X125.721 Y171.266 E27.98936
G1 X124.028 Y171.720 E28.19754
G1 X121.025 Y172.115 E28.55729
G1 X120.149 Y172.173 E28.66158
G1 X79.851 Y172.173 E33.44751
G1 X78.975 Y172.115 E33.55181
G1 X75.972 Y171.720 E33.91155
G1 X74.279 Y171.266 E34.11972
G1 X71.480 Y170.107 E34.47947
G1 X69.962 Y169.231 E34.68764
G1 X67.559 Y167.387 E35.04739
G1 X66.320 Y166.148 E35.25553
G1 X64.476 Y163.745 E35.61527
G1 X63.600 Y162.227 E35.82344
G1 X62.440 Y159.428 E36.18319
G1 X61.987 Y157.735 E36.39135
G1 X61.591 Y154.732 E36.75110
G1 X61.534 Y153.856 E36.85540
G1 X61.534 Y46.145 E49.64772
G1 X61.591 Y45.268 E49.75202
G1 X61.987 Y42.265 E50.11178
G1 X62.440 Y40.572 E50.31994
G1 X63.600 Y37.774 E50.67968
G1 X64.026 Y37.035 E50.78096
G1 E48.78096 F2400.00000
G92 E0
G1 X121.344 Y145.908 F11400.000
G1 E2.00000 F2400.00000
G1 X121.714 Y145.957 E2.04429 F1800.000
G1 X123.754 Y146.802 E2.30660
G1 X125.506 Y148.147 E2.56892
G1 X126.851 Y149.899 E2.83124
G1 X127.696 Y151.939 E3.09356
G1 X127.985 Y154.129 E3.35588
G1 X127.696 Y156.319 E3.61820
G1 X126.851 Y158.360 E3.88052
G1 X125.506 Y160.112 E4.14283
G1 X123.754 Y161.457 E4.40515
G1 X121.714 Y162.302 E4.66747
G1 X119.550 Y162.587 E4.92665
G1 X111.440 Y162.587 E5.88982
G1 X109.276 Y162.302 E6.14900
G1 X107.236 Y161.457 E6.41132
G1 X105.484 Y160.112 E6.67363
G1 X104.139 Y158.360 E6.93595
G1 X103.294 Y156.319 E7.19827
G1 X103.005 Y154.129 E7.46059
G1 X103.294 Y151.939 E7.72291
G1 X104.139 Y149.899 E7.98523
G1 X105.484 Y148.147 E8.24754
G1 X107.236 Y146.802 E8.50986
G1 X109.276 Y145.957 E8.77218
G1 X111.440 Y145.672 E9.03136
G1 X119.550 Y145.672 E9.99453 F1800.000
G1 X121.284 Y145.900 E10.20230
G1 X109.679 Y135.075 F11400.000
G1 X108.210 Y135.346 E10.37974 F1800.000
G1 X107.303 Y135.590 E10.49125
G1 X106.857 Y135.740 E10.54710
G1 X105.952 Y136.102 E10.66291
G1 X105.025 Y136.552 E10.78533
G1 X104.119 Y137.068 E10.90917
G1 X103.233 Y137.652 E11.03518
G1 X102.365 Y138.307 E11.16433
G1 X101.127 Y139.360 E11.35737
G1 X100.793 Y139.582 E11.40498
G1 X100.523 Y139.699 E11.43990
G1 X100.303 Y139.695 E11.46603
G1 X100.069 Y139.592 E11.49632
G1 X99.605 Y139.284 E11.56251
G1 X98.231 Y138.165 E11.77300
G1 X97.387 Y137.551 E11.89695
G1 X96.523 Y136.998 E12.01875
G1 X95.634 Y136.501 E12.13968
G1 X94.763 Y136.084 E12.25438
G1 X94.330 Y135.901 E12.31028
G1 X93.452 Y135.585 E12.42110
G1 X92.589 Y135.346 E12.52737
G1 X91.167 Y135.065 E12.69956
G1 X91.167 Y129.812 E13.32343
G1 X92.825 Y130.026 E13.52198
G1 X93.791 Y130.232 E13.63933
G1 X94.282 Y130.372 E13.69994
G1 X95.224 Y130.707 E13.81863
G1 X96.193 Y131.149 E13.94517
G1 X97.148 Y131.677 E14.07471
G1 X97.632 Y131.981 E14.14266
G1 X98.350 Y132.472 E14.24601
G1 X99.341 Y133.230 E14.39417
G1 X100.411 Y134.146 E14.56146
G1 X101.352 Y133.314 E14.71059
G1 X102.266 Y132.597 E14.84853
G1 X103.204 Y131.956 E14.98352
G1 X103.702 Y131.653 E15.05274
G1 X104.646 Y131.141 E15.18029
G1 X105.136 Y130.909 E15.24465
G1 X105.864 Y130.606 E15.33829
G1 X106.825 Y130.284 E15.45871
G1 X107.541 Y130.104 E15.54635
G1 X108.018 Y130.014 E15.60403
G1 X109.679 Y129.820 E15.80263
G1 X109.679 Y135.015 E16.41965
G1 X109.679 Y128.468 F11400.000
G1 X105.207 Y128.468 E16.95076 F1800.000
G1 X105.207 Y119.828 E17.97689
G1 X102.767 Y119.828 E18.26668
G1 X102.767 Y126.092 E19.01063
G1 X98.403 Y126.092 E19.52892
G1 X98.403 Y119.828 E20.27287
G1 X95.531 Y119.828 E20.61396
G1 X95.531 Y128.468 E21.64009
G1 X91.167 Y128.468 E22.15838
G1 X91.167 Y114.924 E23.76694
G1 X109.679 Y114.924 E25.96552
G1 X109.679 Y128.408 E27.56695
G1 X109.690 Y112.376 F11400.000
G1 X91.167 Y112.376 E29.76682 F1800.000
G1 X91.167 Y107.692 E30.32312
G1 X100.233 Y107.646 E31.39987
G1 X100.313 Y107.321 E31.43956
G1 X95.798 Y104.928 E32.04650
G1 X95.871 Y102.223 E32.36794
G1 X99.993 Y99.885 E32.93069
G1 X99.910 Y99.567 E32.96979
G1 X91.167 Y99.520 E34.00816
G1 X91.167 Y94.836 E34.56443
G1 X109.679 Y94.836 E36.76301
G1 X109.679 Y99.333 E37.29704
G1 X103.505 Y102.766 E38.13605
G1 X101.957 Y103.648 E38.34765
G1 X103.482 Y104.495 E38.55481
G1 X109.621 Y107.826 E39.38436
G1 X109.689 Y112.316 E39.91773
G1 X109.679 Y93.385 F11400.000
G1 X108.771 Y93.347 E40.02561 F1800.000
G1 X108.280 Y93.276 E40.08462
G1 X107.321 Y93.077 E40.20093
G1 X106.732 Y92.926 E40.27316
G1 X106.204 Y92.766 E40.33863
G1 X105.548 Y92.521 E40.42184
G1 X104.547 Y92.061 E40.55264
G1 X103.525 Y91.491 E40.69165
G1 X102.866 Y91.069 E40.78458
G1 X102.217 Y90.612 E40.87887
G1 X101.281 Y89.867 E41.02094
G1 X100.392 Y89.074 E41.16244
G1 X99.811 Y89.617 E41.25688
G1 X99.381 Y89.988 E41.32429
G1 X98.511 Y90.671 E41.45569
G1 X97.611 Y91.285 E41.58505
G1 X96.709 Y91.816 E41.70931
G1 X96.238 Y92.060 E41.77237
G1 X95.763 Y92.286 E41.83488
G1 X94.830 Y92.667 E41.95455
G1 X93.877 Y92.972 E42.07332
G1 X93.386 Y93.098 E42.13354
G1 X92.163 Y93.345 E42.28173
G1 X91.782 Y93.360 E42.32705
G1 X91.446 Y93.206 E42.37092
G1 X91.282 Y92.959 E42.40605
G1 X91.216 Y92.742 E42.43305
G1 X91.167 Y92.195 E42.49830
G1 X91.167 Y88.143 E42.97955
G1 X92.659 Y87.870 E43.15971
G1 X93.093 Y87.761 E43.21286
G1 X93.771 Y87.551 E43.29716
G1 X94.463 Y87.290 E43.38495
G1 X94.923 Y87.092 E43.44441
G1 X95.858 Y86.631 E43.56821
G1 X96.780 Y86.098 E43.69468
G1 X97.677 Y85.501 E43.82274
G1 X98.535 Y84.846 E43.95090
G1 X99.714 Y83.811 E44.13726
G1 X99.970 Y83.649 E44.17321
G1 X100.211 Y83.575 E44.20316
G1 X100.456 Y83.577 E44.23231
G1 X100.645 Y83.626 E44.25542
G1 X100.990 Y83.811 E44.30195
G1 X101.385 Y84.111 E44.36085
G1 X102.226 Y84.807 E44.49050
G1 X103.131 Y85.490 E44.62513
G1 X103.586 Y85.803 E44.69079
G1 X104.495 Y86.374 E44.81828
G1 X105.423 Y86.880 E44.94374
G1 X105.871 Y87.096 E45.00286
G1 X106.530 Y87.381 E45.08815
G1 X107.408 Y87.692 E45.19873
G1 X108.237 Y87.907 E45.30046
G1 X108.622 Y87.976 E45.34694
G1 X109.679 Y88.110 E45.47346
G1 X109.679 Y93.325 E46.09288
G1 X109.679 Y82.136 F11400.000
G1 X91.167 Y82.136 E48.29146 F1800.000
G1 X91.167 Y77.758 E48.81139
G1 X101.187 Y71.036 E50.24443
G1 X101.096 Y70.733 E50.28204
G1 X91.167 Y70.684 E51.46125
G1 X91.167 Y65.892 E52.03039
G1 X109.679 Y65.892 E54.22897
G1 X109.679 Y70.360 E54.75956
G1 X99.889 Y76.884 E56.15676
G1 X99.980 Y77.188 E56.19442
G1 X109.679 Y77.236 E57.34630
G1 X109.679 Y82.076 E57.92113
G1 X109.679 Y63.344 F11400.000
G1 X91.167 Y63.344 E60.11971 F1800.000
G1 X91.167 Y58.440 E60.70213
G1 X109.679 Y58.440 E62.90071
G1 X109.679 Y63.284 E63.47601
G1 X109.679 Y48.548 F11400.000
G1 X95.531 Y48.548 E65.15630 F1800.000
G1 X95.531 Y56.972 E66.15677
G1 X91.167 Y56.972 E66.67506
G1 X91.167 Y43.644 E68.25797
G1 X109.679 Y43.644 E70.45655
G1 X109.679 Y48.488 E71.03184
G1 X109.679 Y34.941 F11400.000
G1 X120.122 Y34.941 E72.27216 F1800.000
G1 X122.095 Y35.201 E72.50843
G1 X123.047 Y35.326 E72.62255 F1800.000
G1 X125.749 Y36.445 E72.96978
G1 X128.068 Y38.225 E73.31701
G1 X129.848 Y40.545 E73.66425
G1 X130.967 Y43.246 E74.01148
G1 X131.352 Y46.171 E74.36186
G1 X131.352 Y153.829 E87.14795
G1 X130.967 Y156.754 E87.49832
G1 X129.848 Y159.455 E87.84556
G1 X128.068 Y161.775 E88.19279
G1 X125.749 Y163.555 E88.54003
G1 X123.047 Y164.674 E88.88726
G1 X120.122 Y165.059 E89.23764
G1 X79.878 Y165.059 E94.01734
G1 X76.953 Y164.674 E94.36771
G1 X74.251 Y163.555 E94.71495
G1 X71.932 Y161.775 E95.06218
G1 X70.152 Y159.455 E95.40941
G1 X69.033 Y156.754 E95.75665
G1 X68.648 Y153.829 E96.10702
G1 X68.648 Y46.171 E108.89311
G1 X69.033 Y43.246 E109.24349
G1 X70.152 Y40.545 E109.59072
G1 X71.932 Y38.225 E109.93796
G1 X74.251 Y36.445 E110.28519
G1 X76.953 Y35.326 E110.63243
G1 X79.878 Y34.941 E110.98280
G1 X109.619 Y34.941 E114.51506
G1 X110.115 Y48.437 F11400.000
G1 X130.916 Y69.239 E118.01283 F1800.000
G1 X130.916 Y68.228 E118.13305
G1 X110.115 Y47.426 E121.63082
G1 X110.115 Y46.415 E121.75104
G1 X130.916 Y67.217 E125.24881
G1 X130.916 Y66.206 E125.36903
G1 X110.115 Y45.404 E128.86680
G1 X110.115 Y44.393 E128.98702
G1 X130.916 Y65.195 E132.48479
G1 X110.115 Y65.626 F11400.000
G1 X130.916 Y86.428 E135.98256 F1800.000
G1 X130.916 Y87.439 E136.10278
G1 X110.115 Y66.637 E139.60055
G1 X110.115 Y67.648 E139.72077
G1 X130.916 Y88.450 E143.21855
G1 X130.916 Y89.461 E143.33876
G1 X110.115 Y68.659 E146.83654
G1 X110.115 Y69.670 E146.95675
G1 X130.916 Y90.472 E150.45453
G1 X130.916 Y91.483 E150.57475
G1 X110.019 Y70.586 E154.08856
G1 X109.412 Y70.990 E154.17525
G1 X130.916 Y92.494 E157.79109
G1 X130.916 Y93.506 E157.91131
G1 X108.806 Y71.395 E161.62917
G1 X108.199 Y71.799 E161.71586
G1 X130.916 Y94.517 E165.53574
G1 X130.916 Y95.528 E165.65596
G1 X107.592 Y72.203 E169.57787
G1 X106.985 Y72.608 E169.66457
G1 X130.916 Y96.539 E173.68850
G1 X130.916 Y97.550 E173.80872
G1 X106.379 Y73.012 E177.93468
G1 X105.772 Y73.417 E178.02137
G1 X109.153 Y76.797 E178.58983
G1 X108.136 Y76.792 E178.71066
G1 X105.165 Y73.821 E179.21027
G1 X104.558 Y74.225 E179.29697
G1 X107.120 Y76.787 E179.72773
G1 X106.104 Y76.782 E179.84856
G1 X103.952 Y74.630 E180.21048
G1 X103.345 Y75.034 E180.29717
G1 X105.088 Y76.777 E180.59024
G1 X104.072 Y76.772 E180.71107
G1 X102.738 Y75.438 E180.93530
G1 X102.131 Y75.843 E181.02199
G1 X103.055 Y76.767 E181.17737
G1 X102.039 Y76.762 E181.29820
G1 X101.525 Y76.247 E181.38473
G1 E179.38473 F2400.00000
G92 E0
G1 X101.405 Y76.595 F11400.000
G1 X101.405 Y76.595 F11400.000
G1 X98.604 Y72.315 F11400.000
G1 E2.00000 F2400.00000
G1 X97.440 Y71.151 E2.19573 F1800.000
G1 X98.456 Y71.156 E2.31654
G1 X99.209 Y71.910 E2.44317
G1 X99.814 Y71.504 E2.52981
G1 X99.472 Y71.161 E2.58733
G1 X97.999 Y72.721 F11400.000
G1 X96.424 Y71.146 E2.85216 F1800.000
G1 X95.408 Y71.141 E2.97297
G1 X97.394 Y73.127 E3.30691
G1 X96.789 Y73.533 E3.39355
G1 X94.392 Y71.136 E3.79658
G1 X93.376 Y71.131 E3.91739
G1 X96.184 Y73.939 E4.38953
G1 X95.578 Y74.345 E4.47617
G1 X92.360 Y71.126 E5.01741
G1 X91.344 Y71.121 E5.13822
G1 X94.973 Y74.751 E5.74856
G1 X94.368 Y75.157 E5.83520
G1 X69.084 Y49.873 E10.08672
G1 X69.084 Y50.884 E10.20694
G1 X93.763 Y75.563 E14.35671
G1 X93.158 Y75.969 E14.44335
G1 X69.084 Y51.895 E18.49137
G1 X69.084 Y52.906 E18.61159
G1 X92.553 Y76.375 E22.55785
G1 X91.948 Y76.781 E22.64449
G1 X69.084 Y53.917 E26.48900
G1 X69.084 Y54.928 E26.60922
G1 X91.342 Y77.187 E30.35198
G1 X90.737 Y77.593 E30.43862
G1 X69.084 Y55.939 E34.07962
G1 X69.084 Y56.950 E34.19984
G1 X90.731 Y78.598 E37.83986
G1 X90.731 Y79.609 E37.96008
G1 X69.084 Y57.962 E41.60010
G1 X69.084 Y58.973 E41.72032
G1 X90.732 Y80.620 E45.36035
G1 X90.732 Y81.632 E45.48056
G1 X69.084 Y59.984 E49.12059
G1 X69.084 Y60.995 E49.24080
G1 X94.808 Y86.719 E53.56632
G1 X95.486 Y86.386 E53.65613
G1 X91.672 Y82.572 E54.29752
G1 X92.683 Y82.572 E54.41773
G1 X96.140 Y86.029 E54.99908
G1 X96.773 Y85.650 E55.08672
G1 X93.694 Y82.572 E55.60438
G1 X94.705 Y82.572 E55.72459
G1 X97.379 Y85.246 E56.17427
G1 X97.959 Y84.814 E56.26018
G1 X95.716 Y82.572 E56.63726
G1 X96.727 Y82.572 E56.75748
G1 X98.519 Y84.363 E57.05872
G1 X99.057 Y83.891 E57.14390
G1 X97.738 Y82.572 E57.36566
G1 X98.749 Y82.572 E57.48588
G1 X99.608 Y83.430 E57.63026
G1 X100.328 Y83.139 E57.72256
G1 X99.761 Y82.572 E57.81790
G1 X100.772 Y82.572 E57.93812
G1 X102.487 Y84.287 E58.22659
G1 X102.794 Y82.572 F11400.000
G1 X107.379 Y87.157 E58.99755 F1800.000
G1 X108.762 Y87.529 E59.16789
G1 X103.805 Y82.572 E60.00144
G1 X104.816 Y82.572 E60.12166
G1 X130.916 Y108.672 E64.51036
G1 X130.916 Y109.683 E64.63058
G1 X110.115 Y88.881 E68.12835
G1 X110.115 Y89.892 E68.24857
G1 X130.916 Y110.694 E71.74634
G1 X130.916 Y111.705 E71.86656
G1 X110.115 Y90.904 E75.36433
G1 X110.115 Y91.915 E75.48455
G1 X130.916 Y112.717 E78.98232
G1 X130.916 Y113.728 E79.10254
G1 X110.486 Y93.297 E82.53790
G1 X110.465 Y94.287 E82.65568
G1 X130.916 Y114.739 E86.09452
G1 X130.916 Y115.750 E86.21474
G1 X110.444 Y95.278 E89.65705
G1 X110.115 Y95.959 E89.74705
G1 X130.916 Y116.761 E93.24482
G1 X130.916 Y117.772 E93.36504
G1 X110.115 Y96.970 E96.86281
G1 X110.115 Y97.981 E96.98303
G1 X130.916 Y118.783 E100.48080
G1 X130.916 Y119.794 E100.60102
G1 X110.115 Y98.992 E104.09879
G1 X109.808 Y99.697 F11400.000
G1 X130.916 Y120.805 E107.64811 F1800.000
G1 X130.916 Y121.816 E107.76833
G1 X109.158 Y100.058 E111.42690
G1 X108.508 Y100.420 E111.51530
G1 X130.916 Y122.828 E115.28313
G1 X130.916 Y123.839 E115.40334
G1 X107.859 Y100.781 E119.28042
G1 X107.209 Y101.142 E119.36882
G1 X130.916 Y124.850 E123.35516
G1 X130.916 Y125.861 E123.47538
G1 X106.559 Y101.504 E127.57096
G1 X105.909 Y101.865 E127.65936
G1 X130.916 Y126.872 E131.86420
G1 X130.916 Y127.883 E131.98442
G1 X105.260 Y102.226 E136.29852
G1 X104.610 Y102.588 E136.38692
G1 X108.808 Y106.786 E137.09289
G1 X110.063 Y108.040 F11400.000
G1 X130.916 Y128.894 E140.59940 F1800.000
G1 X130.916 Y129.905 E140.71962
G1 X110.078 Y109.067 E144.22354
G1 X110.093 Y110.093 E144.34561
G1 X130.916 Y130.916 E147.84692
G1 X130.916 Y131.927 E147.96714
G1 X110.109 Y111.120 E151.46585
G1 X110.124 Y112.147 E151.58792
G1 X130.916 Y132.939 E155.08404
G1 X130.916 Y133.950 E155.20425
G1 X109.778 Y112.812 E158.75854
G1 X108.767 Y112.812 E158.87875
G1 X130.916 Y134.961 E162.60305
G1 X130.916 Y135.972 E162.72327
G1 X110.115 Y115.170 E166.22104
G1 X109.433 Y114.489 F11400.000
G1 X107.756 Y112.812 E166.50302 F1800.000
G1 X106.745 Y112.812 E166.62323
G1 X108.422 Y114.489 E166.90521
G1 X107.411 Y114.489 E167.02543
G1 X105.734 Y112.812 E167.30740
G1 X104.723 Y112.812 E167.42762
G1 X106.400 Y114.489 E167.70960
G1 X105.389 Y114.489 E167.82982
G1 X103.712 Y112.812 E168.11179
G1 X102.701 Y112.812 E168.23201
G1 X104.378 Y114.489 E168.51398
G1 X103.367 Y114.489 E168.63420
G1 X101.690 Y112.812 E168.91618
G1 X100.679 Y112.812 E169.03640
G1 X102.355 Y114.489 E169.31837
G1 X101.344 Y114.489 E169.43859
G1 X99.667 Y112.812 E169.72057
G1 X98.656 Y112.812 E169.84078
G1 X100.333 Y114.489 E170.12276
G1 X99.322 Y114.489 E170.24298
G1 X97.645 Y112.812 E170.52495
G1 X96.634 Y112.812 E170.64517
G1 X98.311 Y114.489 E170.92715
G1 X97.300 Y114.489 E171.04736
G1 X95.623 Y112.812 E171.32934
G1 X94.612 Y112.812 E171.44956
G1 X96.289 Y114.489 E171.73153
G1 X95.278 Y114.489 E171.85175
G1 X93.601 Y112.812 E172.13373
G1 X92.590 Y112.812 E172.25395
G1 X94.267 Y114.489 E172.53592
G1 X93.256 Y114.489 E172.65614
G1 X91.579 Y112.812 E172.93812
G1 X90.732 Y112.976 E173.04069
G1 X69.084 Y91.328 E176.68073
G1 X69.084 Y90.317 E176.80095
G1 X90.732 Y111.965 E180.44099
G1 X90.567 Y112.812 E180.54357
G1 X92.244 Y114.489 E180.82554
G1 X91.233 Y114.489 E180.94576
G1 X69.084 Y92.339 E184.67017
G1 X69.084 Y93.350 E184.79038
