; generated by Slic3r 1.2.9 on 2016-07-29 at 00:23:07

; external perimeters extrusion width = 0.40mm
; perimeters extrusion width = 0.42mm
; infill extrusion width = 0.42mm
; solid infill extrusion width = 0.42mm
; top infill extrusion width = 0.42mm
; support material extrusion width = 0.40mm

M107
M190 S50 ; set bed temperature
M104 S210 ; set temperature
G28 ; home all axes
G1 Z5 F5000 ; lift nozzle

M109 S210 ; wait for temperature to be reached
G21 ; set units to millimeters
G90 ; use absolute coordinates
M82 ; use absolute distances for extrusion
G92 E0
G1 Z0.400 F11400.000
G1 E-2.00000 F2400.00000
G92 E0
G1 X22.135 Y61.205 F11400.000
G1 E2.00000 F2400.00000
G1 X23.329 Y61.086 E2.14250 F1800.000
G1 X110.078 Y60.271 E12.44561
G1 X196.607 Y60.271 E22.72236
G1 X198.882 Y60.668 E22.99659
G1 X200.888 Y61.812 E23.27081 F1800.000
G1 X202.387 Y63.568 E23.54504
G1 X203.203 Y65.728 E23.81926
G1 X203.322 Y66.985 E23.96923
G1 X203.322 Y153.515 E34.24598
G1 X202.925 Y155.790 E34.52020
G1 X201.781 Y157.795 E34.79443
G1 X200.025 Y159.295 E35.06865
G1 X197.865 Y160.110 E35.34288
G1 X196.607 Y160.229 E35.49284
G1 X110.014 Y160.229 E45.77709
G1 X23.329 Y159.414 E56.07270
G1 X21.059 Y158.995 E56.34693
G1 X19.064 Y157.833 E56.62115
G1 X17.581 Y156.063 E56.89538
G1 X16.786 Y153.895 E57.16960
G1 X16.678 Y152.700 E57.31211
G1 X16.678 Y67.800 E67.39527
G1 X17.075 Y65.525 E67.66949
G1 X18.219 Y63.520 E67.94372
G1 X19.975 Y62.020 E68.21794
G1 X22.079 Y61.226 E68.48504
G1 E66.48504 F2400.00000
G92 E0
G1 X111.192 Y152.401 F11400.000
G1 E2.00000 F2400.00000
G1 X111.192 Y68.099 E12.01210 F1800.000
G1 X195.493 Y68.099 E22.02421
G1 X195.493 Y152.401 E32.03631
G1 X111.252 Y152.401 E42.04129
G1 X110.478 Y153.115 F11400.000
G1 X110.478 Y67.385 E52.22303 F1800.000
G1 X196.207 Y67.385 E62.40476
G1 X196.207 Y153.115 E72.58650
G1 X110.538 Y153.115 E82.76111
G1 X110.678 Y152.769 F11400.000
G1 X111.627 Y151.622 F11400.000
G1 X111.970 Y151.965 E82.81890 F1800.000
G1 X112.983 Y151.965 E82.93963
G1 X111.627 Y150.609 E83.16816
G1 X111.627 Y149.596 E83.28889
G1 X113.997 Y151.965 E83.68816
G1 X115.010 Y151.965 E83.80890
G1 X111.627 Y148.583 E84.37891
G1 X111.627 Y147.569 E84.49964
G1 X116.023 Y151.965 E85.24039
G1 X117.036 Y151.965 E85.36113
G1 X111.627 Y146.556 E86.27262
G1 X111.627 Y145.543 E86.39335
G1 X118.050 Y151.965 E87.47559
G1 X119.063 Y151.965 E87.59632
G1 X111.627 Y144.530 E88.84930
G1 X111.627 Y143.516 E88.97003
G1 X120.076 Y151.965 E90.39375
G1 X121.089 Y151.965 E90.51449
G1 X111.627 Y142.503 E92.10895
G1 X111.627 Y141.490 E92.22968
G1 X122.103 Y151.965 E93.99488
G1 X123.116 Y151.965 E94.11562
G1 X111.627 Y140.476 E96.05156
G1 X111.627 Y139.463 E96.17229
G1 X124.129 Y151.965 E98.27898
G1 X125.143 Y151.965 E98.39971
G1 X111.627 Y138.450 E100.67714
G1 X111.627 Y137.437 E100.79787
G1 X126.156 Y151.965 E103.24604
G1 X127.169 Y151.965 E103.36678
G1 X111.627 Y136.423 E105.98569
G1 X111.627 Y135.410 E106.10642
G1 X128.182 Y151.965 E108.89607
G1 X129.196 Y151.965 E109.01681
G1 X111.627 Y134.397 E111.97720
G1 X111.627 Y133.384 E112.09794
G1 X130.209 Y151.965 E115.22907
G1 X131.222 Y151.965 E115.34980
G1 X111.627 Y132.370 E118.65168
G1 X111.627 Y131.357 E118.77242
G1 X132.235 Y151.965 E122.24504
G1 X133.249 Y151.965 E122.36577
G1 X111.627 Y130.344 E126.00913
G1 X111.627 Y129.331 E126.12986
G1 X134.262 Y151.965 E129.94397
G1 X135.275 Y151.965 E130.06470
G1 X111.627 Y128.317 E134.04954
G1 X111.627 Y127.304 E134.17028
G1 X136.288 Y151.965 E138.32586
G1 X137.302 Y151.965 E138.44660
G1 X111.627 Y126.291 E142.77292
G1 X111.627 Y125.278 E142.89366
G1 X138.315 Y151.965 E147.39073
G1 X139.328 Y151.965 E147.51146
G1 X111.627 Y124.264 E152.17927
G1 X111.627 Y123.251 E152.30000
G1 X140.342 Y151.965 E157.13856
G1 X141.355 Y151.965 E157.25929
G1 X111.627 Y122.238 E162.26859
G1 X111.627 Y121.224 E162.38932
G1 X142.368 Y151.965 E167.56936
G1 X143.381 Y151.965 E167.69009
G1 X111.627 Y120.211 E173.04087
G1 X111.627 Y119.198 E173.16160
G1 X144.395 Y151.965 E178.68312
G1 X145.408 Y151.965 E178.80385
G1 X111.627 Y118.185 E184.49611
G1 X111.627 Y117.171 E184.61685
G1 X146.421 Y151.965 E190.47985
G1 X147.434 Y151.965 E190.60058
G1 X111.627 Y116.158 E196.63433
G1 X111.627 Y115.145 E196.75506
G1 X148.448 Y151.965 E202.95955
G1 X149.461 Y151.965 E203.08028
G1 X111.627 Y114.132 E209.45551
G1 X111.627 Y113.118 E209.57624
G1 X150.474 Y151.965 E216.12221
G1 X151.487 Y151.965 E216.24295
G1 X111.627 Y112.105 E222.95966
G1 X111.627 Y111.092 E223.08039
G1 X152.501 Y151.965 E229.96784
G1 X153.514 Y151.965 E230.08858
G1 X111.627 Y110.079 E237.14677
G1 X111.627 Y109.065 E237.26750
G1 X154.527 Y151.965 E244.49644
G1 X155.540 Y151.965 E244.61717
G1 X111.627 Y108.052 E252.01685
G1 X111.627 Y107.039 E252.13759
G1 X156.554 Y151.965 E259.70801
G1 X157.567 Y151.965 E259.82874
G1 X111.627 Y106.025 E267.56990
G1 X111.627 Y105.012 E267.69063
G1 X158.580 Y151.965 E275.60254
G1 X159.594 Y151.965 E275.72327
G1 X111.627 Y103.999 E283.80592
G1 X111.627 Y102.986 E283.92665
G1 X160.607 Y151.965 E292.18004
G1 X161.620 Y151.965 E292.30077
G1 X111.627 Y101.972 E300.72490
G1 X111.627 Y100.959 E300.84563
G1 X162.633 Y151.965 E309.44050
G1 X163.647 Y151.965 E309.56123
G1 X111.627 Y99.946 E318.32685
G1 X111.627 Y98.933 E318.44758
G1 X164.660 Y151.965 E327.38393
G1 X165.673 Y151.965 E327.50466
G1 X111.627 Y97.919 E336.61176
G1 X111.627 Y96.906 E336.73249
G1 X166.686 Y151.965 E346.01033
G1 X167.700 Y151.965 E346.13106
G1 X111.627 Y95.893 E355.57964
G1 X111.627 Y94.880 E355.70037
G1 X168.713 Y151.965 E365.31970
G1 X169.726 Y151.965 E365.44043
G1 X111.627 Y93.866 E375.23049
G1 X111.627 Y92.853 E375.35122
G1 X170.739 Y151.965 E385.31203
G1 X171.753 Y151.965 E385.43276
G1 X111.627 Y91.840 E395.56431
G1 X111.627 Y90.827 E395.68504
G1 X172.766 Y151.965 E405.98733
G1 X173.779 Y151.965 E406.10806
G1 X111.627 Y89.813 E416.58109
G1 X111.627 Y88.800 E416.70182
G1 X174.793 Y151.965 E427.34559
G1 X175.806 Y151.965 E427.46632
G1 X111.627 Y87.787 E438.28084
G1 X111.627 Y86.773 E438.40157
G1 X176.819 Y151.965 E449.38682
G1 X177.832 Y151.965 E449.50756
G1 X111.627 Y85.760 E460.66355
G1 X111.627 Y84.747 E460.78428
G1 X178.846 Y151.965 E472.11102
G1 X179.859 Y151.965 E472.23175
G1 X111.627 Y83.734 E483.72923
G1 X111.627 Y82.720 E483.84997
G1 X180.872 Y151.965 E495.51819
G1 X181.885 Y151.965 E495.63892
G1 X111.627 Y81.707 E507.47788
G1 X111.627 Y80.694 E507.59861
G1 X182.899 Y151.965 E519.60832
G1 X183.912 Y151.965 E519.72905
G1 X111.627 Y79.681 E531.90950
G1 X111.627 Y78.667 E532.03023
G1 X184.925 Y151.965 E544.38142
G1 X185.938 Y151.965 E544.50215
G1 X111.627 Y77.654 E557.02408
G1 X111.627 Y76.641 E557.14481
G1 X186.952 Y151.965 E569.83748
G1 X187.965 Y151.965 E569.95822
G1 X111.627 Y75.628 E582.82163
G1 X111.627 Y74.614 E582.94236
G1 X188.978 Y151.965 E595.97652
G1 X189.991 Y151.965 E596.09725
G1 X111.627 Y73.601 E609.30214
G1 X111.627 Y72.588 E609.42288
G1 X191.005 Y151.965 E622.79851
G1 X192.018 Y151.965 E622.91925
G1 X111.627 Y71.575 E636.46563
G1 X111.627 Y70.561 E636.58636
G1 X193.031 Y151.965 E650.30348
G1 X194.045 Y151.965 E650.42421
G1 X111.627 Y69.548 E664.31207
G1 X111.647 Y68.555 E664.43045
G1 X195.038 Y151.945 E678.48232
G1 X195.058 Y150.952 E678.60069
G1 X112.640 Y68.535 E692.48856
G1 X113.654 Y68.535 E692.60930
G1 X195.058 Y149.939 E706.32643
G1 X195.058 Y148.926 E706.44716
G1 X114.667 Y68.535 E719.99355
G1 X115.680 Y68.535 E720.11428
G1 X195.058 Y147.912 E733.48993
G1 X195.058 Y146.899 E733.61066
G1 X116.693 Y68.535 E746.81557
G1 X117.707 Y68.535 E746.93630
G1 X195.058 Y145.886 E759.97046
G1 X195.058 Y144.872 E760.09120
G1 X118.720 Y68.535 E772.95462
G1 X119.733 Y68.535 E773.07535
G1 X195.058 Y143.859 E785.76803
G1 X195.058 Y142.846 E785.88877
G1 X120.747 Y68.535 E798.41071
G1 X121.760 Y68.535 E798.53144
G1 X195.058 Y141.833 E810.88264
G1 X195.058 Y140.819 E811.00337
G1 X122.773 Y68.535 E823.18382
G1 X123.786 Y68.535 E823.30456
G1 X195.058 Y139.806 E835.31427
G1 X195.058 Y138.793 E835.43500
G1 X124.800 Y68.535 E847.27398
G1 X125.813 Y68.535 E847.39471
G1 X195.058 Y137.780 E859.06294
G1 X195.058 Y136.766 E859.18367
G1 X126.826 Y68.535 E870.68116
G1 X127.839 Y68.535 E870.80189
G1 X195.058 Y135.753 E882.12864
G1 X195.058 Y134.740 E882.24937
G1 X128.853 Y68.535 E893.40538
G1 X129.866 Y68.535 E893.52611
G1 X195.058 Y133.727 E904.51138
G1 X195.058 Y132.713 E904.63211
G1 X130.879 Y68.535 E915.44663
G1 X131.892 Y68.535 E915.56736
G1 X195.058 Y131.700 E926.21114
G1 X195.058 Y130.687 E926.33188
G1 X132.906 Y68.535 E936.80492
G1 X133.919 Y68.535 E936.92565
G1 X195.058 Y129.674 E947.22795
G1 X195.058 Y128.660 E947.34868
G1 X134.932 Y68.535 E957.48023
G1 X135.945 Y68.535 E957.60097
G1 X195.058 Y127.647 E967.56178
G1 X195.058 Y126.634 E967.68251
G1 X136.959 Y68.535 E977.47259
G1 X137.972 Y68.535 E977.59332
G1 X195.058 Y125.620 E987.21265
G1 X195.058 Y124.607 E987.33338
G1 X138.985 Y68.535 E996.78197
G1 X139.999 Y68.535 E996.90270
G1 X195.058 Y123.594 E1006.18055
G1 X195.058 Y122.581 E1006.30128
G1 X141.012 Y68.535 E1015.40839
G1 X142.025 Y68.535 E1015.52912
G1 X195.058 Y121.567 E1024.46549
G1 X195.058 Y120.554 E1024.58622
G1 X143.038 Y68.535 E1033.35184
G1 X144.052 Y68.535 E1033.47257
G1 X195.058 Y119.541 E1042.06745
G1 X195.058 Y118.528 E1042.18819
G1 X145.065 Y68.535 E1050.61233
G1 X146.078 Y68.535 E1050.73306
G1 X195.058 Y117.514 E1058.98646
G1 X195.058 Y116.501 E1059.10719
G1 X147.091 Y68.535 E1067.18984
G1 X148.105 Y68.535 E1067.31058
G1 X195.058 Y115.488 E1075.22249
G1 X195.058 Y114.475 E1075.34322
G1 X149.118 Y68.535 E1083.08439
G1 X150.131 Y68.535 E1083.20513
G1 X195.058 Y113.461 E1090.77556
G1 X195.058 Y112.448 E1090.89629
G1 X151.144 Y68.535 E1098.29598
G1 X152.158 Y68.535 E1098.41671
G1 X195.058 Y111.435 E1105.64566
G1 X195.058 Y110.422 E1105.76639
G1 X153.171 Y68.535 E1112.82460
G1 X154.184 Y68.535 E1112.94533
G1 X195.058 Y109.408 E1119.83279
G1 X195.058 Y108.395 E1119.95353
G1 X155.198 Y68.535 E1126.67025
G1 X156.211 Y68.535 E1126.79098
G1 X195.058 Y107.382 E1133.33696
G1 X195.058 Y106.368 E1133.45769
G1 X157.224 Y68.535 E1139.83293
G1 X158.237 Y68.535 E1139.95366
G1 X195.058 Y105.355 E1146.15816
G1 X195.058 Y104.342 E1146.27889
G1 X159.251 Y68.535 E1152.31265
G1 X160.264 Y68.535 E1152.43338
G1 X195.058 Y103.329 E1158.29640
G1 X195.058 Y102.315 E1158.41713
G1 X161.277 Y68.535 E1164.10940
G1 X162.290 Y68.535 E1164.23013
G1 X195.058 Y101.302 E1169.75166
G1 X195.058 Y100.289 E1169.87240
G1 X163.304 Y68.535 E1175.22319
G1 X164.317 Y68.535 E1175.34392
G1 X195.058 Y99.276 E1180.52396
G1 X195.058 Y98.262 E1180.64470
G1 X165.330 Y68.535 E1185.65400
G1 X166.343 Y68.535 E1185.77474
G1 X195.058 Y97.249 E1190.61330
G1 X195.058 Y96.236 E1190.73403
G1 X167.357 Y68.535 E1195.40185
G1 X168.370 Y68.535 E1195.52259
G1 X195.058 Y95.223 E1200.01967
G1 X195.058 Y94.209 E1200.14040
G1 X169.383 Y68.535 E1204.46674
G1 X170.396 Y68.535 E1204.58747
G1 X195.058 Y93.196 E1208.74307
G1 X195.058 Y92.183 E1208.86380
G1 X171.410 Y68.535 E1212.84865
G1 X172.423 Y68.535 E1212.96939
G1 X195.058 Y91.169 E1216.78350
G1 X195.058 Y90.156 E1216.90423
G1 X173.436 Y68.535 E1220.54761
G1 X174.450 Y68.535 E1220.66834
G1 X195.058 Y89.143 E1224.14097
G1 X195.058 Y88.130 E1224.26170
G1 X175.463 Y68.535 E1227.56359
G1 X176.476 Y68.535 E1227.68432
G1 X195.058 Y87.116 E1230.81547
G1 X195.058 Y86.103 E1230.93620
G1 X177.489 Y68.535 E1233.89661
G1 X178.503 Y68.535 E1234.01734
G1 X195.058 Y85.090 E1236.80700
G1 X195.058 Y84.077 E1236.92773
G1 X179.516 Y68.535 E1239.54666
G1 X180.529 Y68.535 E1239.66739
G1 X195.058 Y83.063 E1242.11557
G1 X195.058 Y82.050 E1242.23630
G1 X181.542 Y68.535 E1244.51374
G1 X182.556 Y68.535 E1244.63447
G1 X195.058 Y81.037 E1246.74117
G1 X195.058 Y80.024 E1246.86190
G1 X183.569 Y68.535 E1248.79786
G1 X184.582 Y68.535 E1248.91859
G1 X195.058 Y79.010 E1250.68380
G1 X195.058 Y77.997 E1250.80454
G1 X185.595 Y68.535 E1252.39901
G1 X186.609 Y68.535 E1252.51974
G1 X195.058 Y76.984 E1253.94347
G1 X195.058 Y75.971 E1254.06420
G1 X187.622 Y68.535 E1255.31719
G1 X188.635 Y68.535 E1255.43792
G1 X195.058 Y74.957 E1256.52017
G1 X195.058 Y73.944 E1256.64090
G1 X189.649 Y68.535 E1257.55241
G1 X190.662 Y68.535 E1257.67314
G1 X195.058 Y72.931 E1258.41390
G1 X195.058 Y71.917 E1258.53464
G1 X191.675 Y68.535 E1259.10466
G1 X192.688 Y68.535 E1259.22539
G1 X195.058 Y70.904 E1259.62467
G1 X195.058 Y69.891 E1259.74540
G1 X193.702 Y68.535 E1259.97394
G1 X194.715 Y68.535 E1260.09467
G1 X195.058 Y68.878 E1260.15247
G1 E1258.15247 F2400.00000
G92 E0
G1 X110.077 Y66.985 F11400.000
G1 X108.999 Y66.985 F11400.000
G1 X109.185 Y67.800 F11400.000
G1 X108.293 Y67.800 F11400.000
G1 X53.326 Y151.222 F11400.000
G1 E2.00000 F2400.00000
G1 X53.271 Y151.586 E2.04368 F1800.000
G1 X24.507 Y151.586 E5.45984
G1 X24.507 Y122.820 E8.87624
G1 X24.870 Y122.764 E8.91992
G1 X25.462 Y124.566 E9.14518
G1 X25.846 Y125.605 E9.27678
G1 X26.217 Y126.540 E9.39625
G1 X26.652 Y127.560 E9.52785
G1 X27.069 Y128.475 E9.64732
G1 X27.553 Y129.472 E9.77892
G1 X28.015 Y130.365 E9.89839
G1 X28.548 Y131.337 E10.02999
G1 X29.053 Y132.207 E10.14946
G1 X29.634 Y133.151 E10.28106
G1 X30.181 Y133.994 E10.40053
G1 X30.807 Y134.909 E10.53213
G1 X31.396 Y135.724 E10.65160
G1 X32.066 Y136.607 E10.78320
G1 X32.694 Y137.393 E10.90267
G1 X33.407 Y138.241 E11.03427
G1 X34.073 Y138.995 E11.15374
G1 X34.827 Y139.806 E11.28534
G1 X35.530 Y140.527 E11.40481
G1 X36.323 Y141.300 E11.53641
G1 X37.060 Y141.985 E11.65588
G1 X37.890 Y142.719 E11.78749
G1 X38.660 Y143.366 E11.90696
G1 X39.526 Y144.058 E12.03855
G1 X40.327 Y144.666 E12.15802
G1 X41.226 Y145.315 E12.28963
G1 X42.056 Y145.883 E12.40910
G1 X42.985 Y146.486 E12.54070
G1 X43.842 Y147.013 E12.66017
G1 X44.800 Y147.570 E12.79177
G1 X45.682 Y148.053 E12.91124
G1 X46.667 Y148.562 E13.04284
G1 X47.571 Y149.002 E13.16231
G1 X48.580 Y149.461 E13.29391
G1 X49.505 Y149.856 E13.41338
G1 X50.535 Y150.265 E13.54498
G1 X51.478 Y150.613 E13.66445
G1 X53.269 Y151.204 E13.88841
G1 X59.555 Y151.905 F11400.000
G1 X59.524 Y152.300 E13.93547 F1800.000
G1 X23.793 Y152.300 E18.17916
G1 X23.793 Y116.564 E22.42333
G1 X24.188 Y116.533 E22.47039
G1 X24.493 Y118.316 E22.68525
G1 X24.716 Y119.384 E22.81476
G1 X24.941 Y120.346 E22.93214
G1 X25.216 Y121.401 E23.06164
G1 X25.489 Y122.351 E23.17902
G1 X25.816 Y123.392 E23.30853
G1 X26.135 Y124.327 E23.42591
G1 X26.513 Y125.350 E23.55541
G1 X26.878 Y126.268 E23.67279
G1 X27.305 Y127.271 E23.80230
G1 X27.715 Y128.171 E23.91968
G1 X28.192 Y129.152 E24.04918
G1 X28.646 Y130.030 E24.16656
G1 X29.170 Y130.986 E24.29607
G1 X29.667 Y131.840 E24.41345
G1 X30.237 Y132.769 E24.54295
G1 X30.775 Y133.598 E24.66033
G1 X31.392 Y134.498 E24.78984
G1 X31.970 Y135.299 E24.90722
G1 X32.629 Y136.168 E25.03673
G1 X33.247 Y136.940 E25.15410
G1 X33.948 Y137.774 E25.28361
G1 X34.603 Y138.515 E25.40099
G1 X35.345 Y139.314 E25.53050
G1 X36.035 Y140.021 E25.64787
G1 X36.815 Y140.783 E25.77738
G1 X37.540 Y141.455 E25.89476
G1 X38.357 Y142.178 E26.02427
G1 X39.113 Y142.814 E26.14164
G1 X39.965 Y143.494 E26.27115
G1 X40.752 Y144.092 E26.38853
G1 X41.636 Y144.730 E26.51804
G1 X42.452 Y145.289 E26.63541
G1 X43.366 Y145.882 E26.76492
G1 X44.209 Y146.400 E26.88230
G1 X45.151 Y146.948 E27.01181
G1 X46.018 Y147.423 E27.12918
G1 X46.987 Y147.923 E27.25869
G1 X47.876 Y148.355 E27.37607
G1 X48.868 Y148.808 E27.50558
G1 X49.777 Y149.195 E27.62295
G1 X50.790 Y149.598 E27.75246
G1 X51.717 Y149.940 E27.86984
G1 X52.749 Y150.293 E27.99935
G1 X53.692 Y150.589 E28.11672
G1 X54.740 Y150.890 E28.24623
G1 X55.697 Y151.139 E28.36361
G1 X56.758 Y151.388 E28.49312
G1 X57.726 Y151.590 E28.61049
G1 X59.496 Y151.896 E28.82382
G1 X59.321 Y152.225 F11400.000
G1 E26.82382 F2400.00000
G92 E0
G1 X35.399 Y140.233 F11400.000
G1 X28.073 Y137.217 F11400.000
G1 X26.950 Y133.451 F11400.000
G1 X26.474 Y131.652 F11400.000
G1 X26.192 Y130.515 F11400.000
G1 X26.114 Y130.185 F11400.000
G1 X26.019 Y129.783 F11400.000
G1 X27.477 Y129.060 F11400.000
G1 X23.961 Y116.150 F11400.000
G1 E2.00000 F2400.00000
G1 X23.846 Y114.214 E2.23034 F1800.000
G1 X23.784 Y112.534 E2.42996
G1 X23.753 Y110.444 E2.67819
