; generated by Slic3r 1.2.9 on 2016-06-12 at 09:46:38

; external perimeters extrusion width = 0.40mm
; perimeters extrusion width = 0.68mm
; infill extrusion width = 1.28mm
; solid infill extrusion width = 0.68mm
; top infill extrusion width = 0.68mm
; support material extrusion width = 0.40mm

M107
M104 S200 ; set temperature
G28 ; home all axes
G1 Z5 F5000 ; lift nozzle

M109 S200 ; wait for temperature to be reached
G21 ; set units to millimeters
G90 ; use absolute coordinates
M82 ; use absolute distances for extrusion
G92 E0
G1 Z0.400 F11400.000
G1 E-2.00000 F2400.00000
G92 E0
G1 X80.079 Y81.386 F11400.000
G1 E2.00000 F2400.00000
G1 X95.291 Y66.418 E4.53455 F1800.000
G1 X97.191 Y65.106 E4.80878
G1 X99.423 Y64.515 E5.08300
G1 X101.723 Y64.715 E5.35723
G1 X104.709 Y66.418 E5.76551 F1800.000
G1 X131.439 Y92.722 E10.21936
G1 X132.155 Y93.475 E10.34281
G1 X132.843 Y94.261 E10.46684
G1 X133.706 Y95.344 E10.63125
G1 X134.317 Y96.189 E10.75515
G1 X134.908 Y97.077 E10.88185
G1 X135.499 Y98.048 E11.01689
G1 X136.001 Y98.951 E11.13956
G1 X136.594 Y100.133 E11.29654
G1 X137.042 Y101.131 E11.42655
G1 X137.401 Y102.011 E11.53941
G1 X137.755 Y102.977 E11.66157
G1 X138.066 Y103.930 E11.78072
G1 X138.356 Y104.940 E11.90545
G1 X138.575 Y105.821 E12.01330
G1 X138.791 Y106.841 E12.13711
G1 X138.959 Y107.826 E12.25573
G1 X139.079 Y108.732 E12.36431
G1 X139.174 Y109.754 E12.48622
G1 X139.225 Y110.759 E12.60578
G1 X139.233 Y111.687 E12.71591
G1 X139.197 Y112.701 E12.83651
G1 X139.119 Y113.656 E12.95030
G1 X139.033 Y114.367 E13.03531
G1 X138.877 Y115.319 E13.14985
G1 X138.694 Y116.180 E13.25447
G1 X138.449 Y117.116 E13.36932
G1 X138.230 Y117.821 E13.45706
G1 X137.896 Y118.746 E13.57387
G1 X137.555 Y119.560 E13.67869
G1 X137.265 Y120.176 E13.75950
G1 X136.834 Y121.000 E13.86996
G1 X136.368 Y121.790 E13.97891
G1 X135.818 Y122.621 E14.09718
G1 X135.380 Y123.222 E14.18550
G1 X134.796 Y123.952 E14.29653
G1 X134.192 Y124.636 E14.40492
G1 X133.502 Y125.345 E14.52238
G1 X132.974 Y125.844 E14.60874
G1 X132.268 Y126.459 E14.71995
G1 X131.556 Y127.026 E14.82799
G1 X130.693 Y127.650 E14.95444
G1 X129.741 Y128.269 E15.08937
G1 X128.578 Y128.939 E15.24873
G1 X127.540 Y129.466 E15.38703
G1 X126.304 Y130.015 E15.54757
G1 X125.347 Y130.387 E15.66958
G1 X124.248 Y130.760 E15.80738
G1 X122.933 Y131.138 E15.96989
G1 X121.806 Y131.404 E16.10747
G1 X102.760 Y135.336 E18.41719
G1 X102.260 Y135.412 E18.47723
G1 X101.472 Y135.486 E18.57119
G1 X100.823 Y135.509 E18.64836
G1 X99.359 Y135.509 E18.82223
G1 X98.646 Y135.478 E18.90691
G1 X98.229 Y135.440 E18.95675
G1 X97.834 Y135.391 E19.00402
G1 X97.136 Y135.268 E19.08817
G1 X78.444 Y131.457 E21.35383
G1 X77.402 Y131.223 E21.48065
G1 X76.347 Y130.940 E21.61035
G1 X74.983 Y130.505 E21.78036
G1 X73.856 Y130.080 E21.92342
G1 X72.560 Y129.513 E22.09148
G1 X71.477 Y128.968 E22.23545
G1 X70.262 Y128.271 E22.40176
G1 X69.237 Y127.601 E22.54717
G1 X68.120 Y126.773 E22.71237
G1 X67.299 Y126.088 E22.83932
G1 X66.775 Y125.611 E22.92352
G1 X66.169 Y125.016 E23.02437
G1 X65.320 Y124.087 E23.17385
G1 X64.784 Y123.433 E23.27429
G1 X64.391 Y122.914 E23.35156
G1 X64.025 Y122.392 E23.42726
G1 X63.566 Y121.682 E23.52763
G1 X62.924 Y120.548 E23.68245
G1 X62.552 Y119.793 E23.78242
G1 X62.322 Y119.277 E23.84955
G1 X62.056 Y118.622 E23.93351
G1 X61.773 Y117.830 E24.03331
G1 X61.416 Y116.622 E24.18295
G1 X61.221 Y115.805 E24.28275
G1 X61.087 Y115.119 E24.36575
G1 X60.883 Y113.674 E24.53904
G1 X60.824 Y113.007 E24.61860
G1 X60.779 Y112.164 E24.71888
G1 X60.766 Y111.481 E24.79993
G1 X60.780 Y110.633 E24.90069
G1 X60.812 Y109.965 E24.98012
G1 X60.889 Y109.027 E25.09189
G1 X61.084 Y107.554 E25.26843
G1 X61.385 Y105.995 E25.45693
G1 X61.758 Y104.526 E25.63689
G1 X62.213 Y103.072 E25.81788
G1 X62.619 Y101.961 E25.95839
G1 X63.211 Y100.556 E26.13949
G1 X63.842 Y99.252 E26.31144
G1 X64.437 Y98.159 E26.45925
G1 X65.192 Y96.922 E26.63140
G1 X65.840 Y95.965 E26.76867
G1 X66.715 Y94.801 E26.94160
G1 X67.496 Y93.866 E27.08629
G1 X68.563 Y92.720 E27.27219
G1 X80.036 Y81.428 E29.18417
G1 E27.18417 F2400.00000
G92 E0
G1 X100.119 Y119.861 F11400.000
G1 E2.00000 F2400.00000
G1 X101.269 Y120.699 E2.16899 F1800.000
G1 X102.096 Y121.233 E2.28591
G1 X102.374 Y121.582 E2.33889
G1 X102.591 Y121.925 E2.38711
G1 X102.766 Y122.300 E2.43624
G1 X102.883 Y122.705 E2.48628
G1 X102.930 Y123.125 E2.53654
G1 X102.899 Y123.562 E2.58855
G1 X102.800 Y123.954 E2.63663
G1 X102.716 Y124.167 E2.66381
G1 X102.511 Y124.540 E2.71427
G1 X102.246 Y124.871 E2.76465
G1 X101.924 Y125.151 E2.81544
G1 X101.555 Y125.366 E2.86605
G1 X101.343 Y125.452 E2.89322
G1 X100.961 Y125.555 E2.94023
G1 X100.452 Y125.601 E3.00096
G1 X100.136 Y125.584 E3.03853
G1 X99.567 Y125.591 E3.10614
G1 X99.194 Y125.534 E3.15097
G1 X98.960 Y125.471 E3.17966
G1 X98.588 Y125.314 E3.22767
G1 X98.229 Y125.077 E3.27871
G1 X97.953 Y124.814 E3.32403
G1 X97.804 Y124.632 E3.35202
G1 X97.673 Y124.436 E3.37996
G1 X97.503 Y124.098 E3.42487
G1 X97.375 Y123.689 E3.47584
G1 X97.324 Y123.311 E3.52107
G1 X97.322 Y123.066 E3.55016
G1 X97.380 Y122.641 E3.60113
G1 X97.569 Y122.098 E3.66942
G1 X97.870 Y121.589 E3.73964
G1 X98.154 Y121.233 E3.79373
G1 X98.933 Y120.732 E3.90380
G1 X100.071 Y119.898 E4.07133
G1 E2.07133 F2400.00000
G92 E0
G1 X102.982 Y121.410 F11400.000
G1 X103.833 Y119.764 F11400.000
G1 X109.522 Y121.844 F11400.000
G1 X111.970 Y122.214 F11400.000
G1 X112.764 Y122.265 F11400.000
G1 X113.353 Y122.281 F11400.000
G1 X113.407 Y122.282 F11400.000
G1 X113.731 Y122.282 F11400.000
G1 X113.484 Y120.433 F11400.000
G1 X122.852 Y112.614 F11400.000
G1 E2.00000 F2400.00000
G1 X122.290 Y113.985 E2.17601 F1800.000
G1 X121.874 Y114.761 E2.28052
G1 X121.527 Y115.291 E2.35576
G1 X120.980 Y115.988 E2.46106
G1 X120.562 Y116.440 E2.53408
G1 X119.896 Y117.055 E2.64179
G1 X119.195 Y117.598 E2.74713
G1 X118.435 Y118.094 E2.85490
G1 X117.636 Y118.531 E2.96309
G1 X116.793 Y118.916 E3.07314
G1 X115.929 Y119.239 E3.18264
G1 X115.008 Y119.514 E3.29681
G1 X114.054 Y119.730 E3.41301
G1 X113.095 Y119.880 E3.52830
G1 X112.155 Y119.967 E3.64043
G1 X111.279 Y119.996 E3.74443
G1 X110.534 Y119.979 E3.83295
G1 X110.009 Y119.946 E3.89547
G1 X109.166 Y119.855 E3.99621
G1 X108.577 Y119.764 E4.06701
G1 X107.641 Y119.573 E4.18042
G1 X106.996 Y119.408 E4.25948
G1 X106.344 Y119.214 E4.34027
G1 X105.660 Y118.981 E4.42609
G1 X104.410 Y118.474 E4.58631
G1 X103.756 Y118.166 E4.67215
G1 X102.598 Y117.551 E4.82780
G1 X101.413 Y116.826 E4.99286
G1 X100.847 Y116.445 E5.07390
G1 X100.001 Y115.827 E5.19833
G1 X99.278 Y116.359 E5.30496
G1 X98.318 Y116.999 E5.44192
G1 X97.764 Y117.340 E5.51916
G1 X96.759 Y117.905 E5.65618
G1 X95.723 Y118.413 E5.79321
G1 X95.125 Y118.675 E5.87071
G1 X94.045 Y119.085 E6.00788
G1 X93.425 Y119.286 E6.08528
G1 X92.389 Y119.566 E6.21283
G1 X91.829 Y119.688 E6.28087
G1 X90.832 Y119.855 E6.40094
G1 X89.875 Y119.954 E6.51514
G1 X88.984 Y119.992 E6.62104
G1 X87.818 Y119.965 E6.75963
G1 X87.064 Y119.899 E6.84947
G1 X86.001 Y119.740 E6.97709
G1 X85.309 Y119.593 E7.06121
G1 X84.615 Y119.410 E7.14645
G1 X83.670 Y119.097 E7.26459
G1 X83.029 Y118.840 E7.34667
G1 X82.162 Y118.428 E7.46069
G1 X81.569 Y118.096 E7.54136
G1 X81.014 Y117.743 E7.61951
G1 X80.480 Y117.358 E7.69774
G1 X79.955 Y116.927 E7.77836
G1 X79.473 Y116.475 E7.85680
G1 X79.025 Y115.993 E7.93500
G1 X78.613 Y115.482 E8.01293
G1 X78.240 Y114.943 E8.09084
G1 X77.898 Y114.358 E8.17124
G1 X77.609 Y113.763 E8.24987
G1 X77.157 Y112.614 E8.39646
G1 X122.792 Y112.614 E13.81630
G1 X121.763 Y103.814 F11400.000
G1 X78.237 Y103.814 E18.98569 F1800.000
G1 X78.977 Y102.498 E19.16498
G1 X79.445 Y101.766 E19.26820
G1 X79.976 Y101.039 E19.37509
G1 X80.548 Y100.352 E19.48131
G1 X80.894 Y99.977 E19.54186
G1 X81.547 Y99.340 E19.65014
G1 X82.189 Y98.789 E19.75071
G1 X82.843 Y98.294 E19.84807
G1 X83.862 Y97.626 E19.99281
G1 X84.546 Y97.236 E20.08626
G1 X85.195 Y96.898 E20.17325
G1 X86.497 Y96.292 E20.34379
G1 X88.449 Y95.461 E20.59574
G1 X89.656 Y94.923 E20.75268
G1 X90.854 Y94.309 E20.91254
G1 X91.686 Y93.800 E21.02837
G1 X92.219 Y93.424 E21.10589
G1 X92.972 Y92.807 E21.22149
G1 X93.463 Y92.339 E21.30203
G1 X94.167 Y91.564 E21.42645
G1 X94.760 Y90.807 E21.54060
G1 X95.292 Y90.039 E21.65151
G1 X95.906 Y89.039 E21.79095
G1 X96.668 Y87.667 E21.97732
G1 X97.480 Y86.091 E22.18789
G1 X98.472 Y84.059 E22.45637
G1 X99.998 Y80.778 E22.88617
G1 X101.411 Y83.815 E23.28396
G1 X102.524 Y86.105 E23.58639
G1 X103.388 Y87.778 E23.80999
G1 X103.943 Y88.779 E23.94596
G1 X104.747 Y90.092 E24.12881
G1 X105.309 Y90.898 E24.24551
G1 X105.894 Y91.637 E24.35738
G1 X106.520 Y92.322 E24.46763
G1 X107.176 Y92.936 E24.57427
G1 X107.827 Y93.459 E24.67354
G1 X108.513 Y93.932 E24.77244
G1 X109.197 Y94.341 E24.86708
G1 X109.897 Y94.711 E24.96116
G1 X110.654 Y95.071 E25.06071
G1 X113.698 Y96.379 E25.45419
G1 X114.923 Y96.958 E25.61509
G1 X116.158 Y97.637 E25.78247
G1 X116.965 Y98.158 E25.89658
G1 X117.369 Y98.448 E25.95563
G1 X117.814 Y98.792 E26.02248
G1 X118.573 Y99.450 E26.14172
G1 X118.974 Y99.840 E26.20817
G1 X119.653 Y100.582 E26.32767
G1 X119.968 Y100.967 E26.38669
G1 X120.528 Y101.725 E26.49863
G1 X121.015 Y102.483 E26.60562
G1 X121.734 Y103.762 E26.77985
G1 X122.762 Y104.414 F11400.000
G1 X126.081 Y116.347 F11400.000
G1 X118.370 Y121.627 F11400.000
G1 X113.759 Y122.281 F11400.000
G1 X112.026 Y122.219 F11400.000
G1 X110.752 Y122.070 F11400.000
G1 X110.121 Y121.964 F11400.000
G1 X109.840 Y121.910 F11400.000
G1 X109.705 Y121.882 F11400.000
G1 X109.275 Y123.168 F11400.000
G1 X103.845 Y121.339 F11400.000
G1 X103.373 Y121.874 E26.86467 F1800.000
G1 X103.867 Y122.591 E26.96806
G1 X104.172 Y123.160 E27.04478
G1 X104.374 Y123.697 E27.11290
G1 X104.453 Y124.003 E27.15039
G1 X104.527 Y124.574 E27.21877
G1 X104.511 Y125.134 E27.28539
G1 X104.406 Y125.692 E27.35277
G1 X104.314 Y125.981 E27.38875
G1 X104.082 Y126.500 E27.45640
G1 X103.781 Y126.971 E27.52276
G1 X103.418 Y127.385 E27.58816
G1 X103.001 Y127.733 E27.65258
G1 X102.531 Y128.012 E27.71756
G1 X102.262 Y128.130 E27.75237
G1 X101.718 Y128.293 E27.81984
G1 X101.167 Y128.376 E27.88600
G1 X100.823 Y128.395 E27.92697
G1 X100.120 Y128.366 E28.01055
G1 X99.734 Y128.391 E28.05648
G1 X99.113 Y128.379 E28.13027
G1 X98.777 Y128.340 E28.17042
G1 X98.188 Y128.201 E28.24221
G1 X97.670 Y127.989 E28.30871
G1 X97.195 Y127.696 E28.37508
G1 X96.771 Y127.326 E28.44185
G1 X96.582 Y127.115 E28.47554
G1 X96.389 Y126.860 E28.51349
G1 X96.106 Y126.382 E28.57946
G1 X95.878 Y125.811 E28.65251
G1 X95.751 Y125.244 E28.72145
G1 X95.718 Y124.667 E28.79018
G1 X95.780 Y124.083 E28.85989
G1 X95.848 Y123.790 E28.89557
G1 X96.054 Y123.210 E28.96869
G1 X96.369 Y122.612 E29.04901
G1 X96.556 Y122.327 E29.08945
G1 X97.093 Y121.627 E29.19425
G1 X96.614 Y121.067 E29.28173
G1 X94.885 Y122.038 E29.51730
G1 X93.620 Y122.663 E29.68491
G1 X92.410 Y123.187 E29.84144
G1 X91.142 Y123.661 E30.00224
G1 X89.932 Y124.040 E30.15288
G1 X88.662 Y124.363 E30.30847
G1 X87.878 Y124.525 E30.40356
G1 X87.095 Y124.656 E30.49785
G1 X85.833 Y124.808 E30.64880
G1 X84.578 Y124.883 E30.79812
G1 X83.806 Y124.893 E30.88975
G1 X83.040 Y124.873 E30.98085
G1 X81.811 Y124.783 E31.12711
G1 X80.602 Y124.621 E31.27206
G1 X79.865 Y124.486 E31.36101
G1 X79.139 Y124.323 E31.44938
G1 X77.989 Y124.006 E31.59101
G1 X76.876 Y123.623 E31.73084
G1 X76.209 Y123.355 E31.81629
G1 X75.557 Y123.061 E31.90113
G1 X74.879 Y122.720 E31.99126
G1 X74.225 Y122.354 E32.08031
G1 X73.639 Y121.990 E32.16222
G1 X73.036 Y121.575 E32.24916
G1 X72.501 Y121.168 E32.32903
G1 X71.955 Y120.709 E32.41378
G1 X71.440 Y120.228 E32.49745
G1 X70.990 Y119.761 E32.57443
G1 X70.539 Y119.240 E32.65633
G1 X70.150 Y118.737 E32.73181
G1 X69.766 Y118.178 E32.81234
G1 X69.417 Y117.601 E32.89244
G1 X69.124 Y117.048 E32.96676
G1 X68.844 Y116.436 E33.04667
G1 X68.616 Y115.852 E33.12114
G1 X68.405 Y115.209 E33.20156
G1 X68.231 Y114.549 E33.28257
G1 X68.100 Y113.922 E33.35865
G1 X67.993 Y113.235 E33.44128
G1 X67.922 Y112.533 E33.52499
G1 X67.887 Y111.870 E33.60392
G1 X67.883 Y111.146 E33.68990
G1 X67.912 Y110.413 E33.77696
G1 X68.007 Y109.395 E33.89838
G1 X68.114 Y108.645 E33.98837
G1 X68.255 Y107.889 E34.07976
G1 X68.414 Y107.182 E34.16583
G1 X68.615 Y106.422 E34.25919
G1 X68.847 Y105.665 E34.35319
G1 X69.213 Y104.635 E34.48304
G1 X69.515 Y103.891 E34.57839
G1 X69.846 Y103.157 E34.67399
G1 X70.371 Y102.124 E34.81159
G1 X70.980 Y101.077 E34.95552
G1 X71.617 Y100.117 E35.09237
G1 X72.341 Y99.157 E35.23513
G1 X73.082 Y98.291 E35.37050
G1 X73.869 Y97.477 E35.50500
G1 X74.741 Y96.682 E35.64512
G1 X75.615 Y95.979 E35.77828
G1 X76.242 Y95.523 E35.87043
G1 X77.175 Y94.910 E36.00300
G1 X77.838 Y94.514 E36.09464
G1 X79.113 Y93.828 E36.26660
G1 X79.880 Y93.452 E36.36814
G1 X81.179 Y92.861 E36.53757
G1 X83.939 Y91.685 E36.89389
G1 X85.280 Y91.093 E37.06795
G1 X86.496 Y90.508 E37.22832
G1 X87.699 Y89.853 E37.39085
G1 X88.833 Y89.138 E37.55015
G1 X89.466 Y88.686 E37.64254
G1 X90.453 Y87.887 E37.79334
G1 X90.957 Y87.429 E37.87420
G1 X91.441 Y86.952 E37.95493
G1 X92.344 Y85.956 E38.11458
G1 X92.776 Y85.427 E38.19569
G1 X93.535 Y84.409 E38.34647
G1 X94.293 Y83.276 E38.50844
G1 X95.304 Y81.591 E38.74180
G1 X96.290 Y79.786 E38.98602
G1 X97.514 Y77.379 E39.30678
G1 X98.691 Y74.952 E39.62715
G1 X100.000 Y72.150 E39.99446
G1 X101.245 Y74.817 E40.34405
G1 X102.378 Y77.160 E40.65313
G1 X103.548 Y79.476 E40.96128
G1 X104.172 Y80.649 E41.11906
G1 X104.778 Y81.735 E41.26683
G1 X105.770 Y83.375 E41.49444
G1 X106.528 Y84.498 E41.65535
G1 X107.276 Y85.492 E41.80309
G1 X107.674 Y85.978 E41.87772
G1 X108.575 Y86.969 E42.03678
G1 X109.514 Y87.859 E42.19045
G1 X110.484 Y88.649 E42.33900
G1 X111.563 Y89.401 E42.49515
G1 X112.709 Y90.086 E42.65375
G1 X113.916 Y90.713 E42.81524
G1 X115.074 Y91.253 E42.96705
G1 X119.060 Y92.966 E43.48232
G1 X120.381 Y93.577 E43.65515
G1 X121.633 Y94.218 E43.82219
G1 X122.291 Y94.589 E43.91190
G1 X123.537 Y95.371 E44.08667
G1 X124.406 Y95.994 E44.21364
G1 X124.991 Y96.456 E44.30214
G1 X125.558 Y96.943 E44.39091
G1 X126.345 Y97.689 E44.51970
G1 X126.867 Y98.234 E44.60934
G1 X127.368 Y98.803 E44.69935
G1 X128.053 Y99.663 E44.83000
G1 X128.499 Y100.283 E44.92066
G1 X129.129 Y101.254 E45.05808
G1 X129.679 Y102.216 E45.18969
G1 X130.199 Y103.251 E45.32729
G1 X130.659 Y104.309 E45.46433
G1 X131.151 Y105.657 E45.63470
G1 X131.474 Y106.743 E45.76928
G1 X131.734 Y107.831 E45.90219
G1 X131.929 Y108.917 E46.03318
G1 X132.016 Y109.586 E46.11328
G1 X132.077 Y110.249 E46.19234
G1 X132.120 Y111.303 E46.31766
G1 X132.092 Y112.334 E46.44014
G1 X131.999 Y113.297 E46.55501
G1 X131.831 Y114.276 E46.67303
G1 X131.590 Y115.225 E46.78933
G1 X131.291 Y116.103 E46.89946
G1 X130.923 Y116.951 E47.00930
G1 X130.609 Y117.554 E47.08998
G1 X130.123 Y118.347 E47.20043
G1 X129.750 Y118.872 E47.27691
G1 X129.152 Y119.604 E47.38921
G1 X128.703 Y120.085 E47.46741
G1 X127.998 Y120.751 E47.58253
G1 X127.442 Y121.213 E47.66834
G1 X126.639 Y121.804 E47.78677
G1 X125.785 Y122.348 E47.90709
G1 X124.880 Y122.845 E48.02971
G1 X124.185 Y123.181 E48.12132
G1 X123.206 Y123.592 E48.24747
G1 X122.508 Y123.845 E48.33565
G1 X121.472 Y124.165 E48.46441
G1 X120.408 Y124.428 E48.59458
G1 X119.608 Y124.586 E48.69137
G1 X118.505 Y124.748 E48.82384
G1 X117.732 Y124.826 E48.91609
G1 X116.602 Y124.886 E49.05046
G1 X115.813 Y124.892 E49.14421
G1 X115.019 Y124.867 E49.23852
G1 X113.868 Y124.778 E49.37564
G1 X113.017 Y124.672 E49.47756
G1 X111.859 Y124.474 E49.61707
G1 X110.699 Y124.210 E49.75836
G1 X109.892 Y123.990 E49.85762
G1 X109.086 Y123.738 E49.95798
G1 X107.923 Y123.319 E50.10478
G1 X107.118 Y122.991 E50.20800
G1 X105.957 Y122.462 E50.35958
G1 X105.152 Y122.057 E50.46650
G1 X103.898 Y121.367 E50.63657
G1 X103.122 Y122.176 F11400.000
G1 X103.334 Y122.623 E50.69533 F1800.000
G1 X103.495 Y123.095 E50.75451
G1 X103.570 Y123.434 E50.79576
G1 X103.643 Y123.935 E50.85586
G1 X104.082 Y124.684 F11400.000
G1 X103.738 Y124.341 E50.92078 F1800.000
G1 X102.895 Y124.633 E51.03985
G1 X103.981 Y125.719 E51.24483
G1 X103.631 Y126.504 E51.35960
G1 X102.378 Y125.251 E51.59617
G1 X101.708 Y125.716 E51.70506
G1 X103.118 Y127.127 E51.97137
G1 X102.466 Y127.610 E52.07972
